;FLAVOR:Marlin
;TIME:7742
;Filament used: 3.16255m
;Layer height: 0.16
;MINX:131.988
;MINY:89.851
;MINZ:0.2
;MAXX:173.788
;MAXY:131.669
;MAXZ:29.98
;Generated with Cura_SteamEngine 5.2.2
M140 S100
M105
M190 S100
M104 S240
M105
M109 S240
M82 ;absolute extrusion mode
G28; Fahr zum Nullpunkt
G29; Probe Time
G92 E0; setze den Extruder auf Null
M 501; Daten aus EEProm lesen
M 420 S1; Bettnivelierung Aktivieren
G1 Z2.0 F3000; Druckkopf 2mm nach oben fahren
G1 X10.1 Y20 Z0.28 F5000.0; Fahre an die Startposition X10.1 Y20 Z0.28
G1 X10.1 Y200.0 Z0.28 F1500.0 E15; Ziehe eine Linie von der Startposition aus nach Y200
G1 X10.4 Y200.0 Z0.28 F5000.0; Bissl zur Seite bewegen
G1 X10.4 Y20 Z0.28 F1500.0 E30; eine 2. Linie nach vorne ziehen
G92 E0; setze den Extruder auf Null
G1 Z1.0 F3000; Fahr die Düse 2mm nach oben
G92 E0
G92 E0
G1 F2400 E-0.8
;LAYER_COUNT:184
;LAYER:0
M107
M204 S500
M205 X8 Y8
G1 F300 Z0.7
G0 F6000 X135.73 Y98.776 Z0.7
M204 S800
;TYPE:SKIRT
G1 F300 Z0.2
G1 F2400 E0
G1 F1200 X136.132 Y98.232 E0.02728
G1 X136.862 Y97.32 E0.0744
G1 X137.352 Y96.756 E0.10454
G1 X138.027 Y96.036 E0.14435
G1 X138.298 Y95.766 E0.15978
G1 X138.847 Y95.251 E0.19014
G1 X139.839 Y94.399 E0.24289
G1 X140.419 Y93.96 E0.27223
G1 X141.179 Y93.431 E0.30958
G1 X142.239 Y92.747 E0.36047
G1 X143.17 Y92.222 E0.40358
G1 X143.625 Y91.99 E0.42418
G1 X144.746 Y91.484 E0.47379
G1 X145.24 Y91.282 E0.49532
G1 X146.097 Y90.981 E0.53195
G1 X147.095 Y90.653 E0.57433
G1 X147.4 Y90.562 E0.58717
G1 X148.016 Y90.414 E0.61272
G1 X149.022 Y90.21 E0.65413
G1 X150.16 Y90.023 E0.70064
G1 X150.688 Y89.957 E0.72211
G1 X151.444 Y89.892 E0.75271
G1 X152.171 Y89.86 E0.78207
G1 X152.838 Y89.851 E0.80897
G1 X153.831 Y89.867 E0.84903
G1 X154.526 Y89.912 E0.87712
G1 X155.445 Y90.008 E0.9144
G1 X156.488 Y90.156 E0.95689
G1 X156.922 Y90.233 E0.97467
G1 X158.045 Y90.48 E1.02105
G1 X158.718 Y90.666 E1.04921
G1 X159.672 Y90.965 E1.08954
G1 X160.242 Y91.173 E1.11401
G1 X160.876 Y91.428 E1.14158
G1 X161.792 Y91.834 E1.18199
G1 X162.514 Y92.186 E1.21439
G1 X163.654 Y92.829 E1.26718
G1 X164.493 Y93.365 E1.30734
G1 X165.084 Y93.774 E1.33633
G1 X165.759 Y94.279 E1.37034
G1 X166.048 Y94.51 E1.38526
G1 X166.919 Y95.263 E1.4317
G1 X167.465 Y95.773 E1.46184
G1 X168.106 Y96.419 E1.49855
G1 X168.428 Y96.763 E1.51755
G1 X168.818 Y97.208 E1.54142
G1 X169.3 Y97.794 E1.57203
G1 X169.838 Y98.521 E1.60851
G1 X170.314 Y99.218 E1.64255
G1 X171.011 Y100.325 E1.69532
G1 X171.336 Y100.892 E1.72168
G1 X171.77 Y101.745 E1.76028
G1 X172.162 Y102.637 E1.79958
G1 X172.552 Y103.651 E1.84341
G1 X172.984 Y104.966 E1.89924
G1 X173.249 Y105.992 E1.94198
G1 X173.456 Y106.939 E1.98108
G1 X173.648 Y108.222 E2.03341
G1 X173.737 Y109.086 E2.06844
G1 X173.78 Y110.056 E2.10761
G1 X173.788 Y110.896 E2.14149
G1 X173.761 Y112.012 E2.18652
G1 X173.733 Y112.459 E2.20459
G1 X173.684 Y112.952 E2.22457
G1 X173.563 Y113.857 E2.2614
G1 X173.404 Y114.805 E2.30017
G1 X173.225 Y115.659 E2.33537
G1 X172.944 Y116.669 E2.37765
G1 X172.66 Y117.549 E2.41495
G1 X172.325 Y118.465 E2.45429
G1 X172.18 Y118.825 E2.46995
G1 X171.883 Y119.51 E2.50006
G1 X171.718 Y119.862 E2.51574
G1 X171.43 Y120.439 E2.54176
G1 X171.229 Y120.819 E2.5591
G1 X170.924 Y121.356 E2.58401
G1 X170.295 Y122.35 E2.63145
G1 X169.643 Y123.274 E2.67707
G1 X168.713 Y124.427 E2.73682
G1 X168.074 Y125.135 E2.77529
G1 X167.481 Y125.74 E2.80946
G1 X167.051 Y126.143 E2.83323
G1 X166.302 Y126.8 E2.87342
G1 X165.335 Y127.566 E2.92318
G1 X164.913 Y127.868 E2.94411
G1 X164.389 Y128.219 E2.96955
G1 X163.678 Y128.671 E3.00354
G1 X162.997 Y129.063 E3.03523
G1 X162.389 Y129.388 E3.06304
G1 X161.768 Y129.695 E3.09098
G1 X161.068 Y130 E3.12178
G1 X160.535 Y130.214 E3.14495
G1 X159.846 Y130.476 E3.17468
G1 X159.231 Y130.676 E3.20077
G1 X158.062 Y131.014 E3.24985
G1 X156.704 Y131.314 E3.30595
G1 X155.936 Y131.446 E3.33738
G1 X155.023 Y131.556 E3.37447
G1 X153.968 Y131.643 E3.41717
G1 X152.912 Y131.669 E3.45978
G1 X152.278 Y131.663 E3.48536
G1 X151.912 Y131.648 E3.50013
G1 X150.707 Y131.562 E3.54886
G1 X150.307 Y131.52 E3.56508
G1 X149.241 Y131.343 E3.60867
G1 X148.191 Y131.138 E3.65182
G1 X147.319 Y130.918 E3.6881
G1 X146.429 Y130.666 E3.72541
G1 X145.529 Y130.336 E3.76407
G1 X144.827 Y130.052 E3.79462
G1 X143.939 Y129.659 E3.83379
G1 X143.425 Y129.413 E3.85678
G1 X142.951 Y129.168 E3.8783
G1 X141.896 Y128.554 E3.92753
G1 X141.22 Y128.11 E3.96016
G1 X139.923 Y127.189 E4.02432
G1 X139.186 Y126.569 E4.06317
G1 X138.205 Y125.656 E4.11723
G1 X137.767 Y125.223 E4.14207
G1 X137.209 Y124.61 E4.1755
G1 X136.83 Y124.169 E4.19896
G1 X136.405 Y123.646 E4.22614
G1 X135.903 Y122.976 E4.25991
G1 X135.611 Y122.563 E4.28031
G1 X135.129 Y121.822 E4.31597
G1 X134.567 Y120.866 E4.3607
G1 X134.412 Y120.585 E4.37365
G1 X134.007 Y119.777 E4.4101
G1 X133.563 Y118.773 E4.45438
G1 X133.257 Y118.003 E4.4878
G1 X132.988 Y117.221 E4.52116
G1 X132.597 Y115.875 E4.5777
G1 X132.327 Y114.649 E4.62834
G1 X132.224 Y114.034 E4.65349
G1 X132.104 Y113.139 E4.68991
G1 X132.074 Y112.852 E4.70155
G1 X132.004 Y111.537 E4.75467
G1 X131.988 Y110.795 E4.7846
G1 X131.991 Y110.01 E4.81627
G1 X132.033 Y109.142 E4.85132
G1 X132.083 Y108.536 E4.87585
G1 X132.214 Y107.519 E4.91721
G1 X132.475 Y106.116 E4.97477
G1 X132.654 Y105.395 E5.00474
G1 X132.929 Y104.465 E5.04386
G1 X133.128 Y103.857 E5.06966
G1 X133.368 Y103.228 E5.09682
G1 X133.994 Y101.75 E5.16156
G1 X134.211 Y101.306 E5.18149
G1 X134.685 Y100.427 E5.22178
G1 X135.017 Y99.861 E5.24824
G1 X135.345 Y99.351 E5.2727
G0 F1080 X135.45 Y99.187
G0 X135.73 Y98.776
M204 S500
G0 F6000 X136.112 Y99.036
M204 S800
G1 F1200 X136.493 Y98.521 E5.29854
G1 X137.265 Y97.558 E5.34833
G1 X137.689 Y97.071 E5.37437
G1 X138.312 Y96.405 E5.41116
G1 X138.661 Y96.058 E5.43101
G1 X139.214 Y95.542 E5.46152
G1 X140.041 Y94.83 E5.50554
G1 X140.683 Y94.339 E5.53814
G1 X141.379 Y93.853 E5.57238
G1 X142.49 Y93.135 E5.62574
G1 X143.396 Y92.625 E5.66767
G1 X143.815 Y92.411 E5.68665
G1 X144.864 Y91.936 E5.7331
G1 X145.497 Y91.679 E5.76066
G1 X146.241 Y91.42 E5.79243
G1 X147.227 Y91.096 E5.8343
G1 X147.625 Y90.98 E5.85102
G1 X148.108 Y90.867 E5.87103
G1 X149.114 Y90.663 E5.91243
G1 X150.155 Y90.491 E5.95499
G1 X150.808 Y90.409 E5.98154
G1 X151.397 Y90.358 E6.00538
G1 X152.178 Y90.322 E6.03692
G1 X152.831 Y90.313 E6.06326
G1 X153.824 Y90.329 E6.10332
G1 X154.478 Y90.372 E6.12976
G1 X155.397 Y90.468 E6.16703
G1 X156.474 Y90.622 E6.21091
G1 X156.823 Y90.685 E6.22522
G1 X158.039 Y90.955 E6.27546
G1 X158.636 Y91.124 E6.30049
G1 X159.514 Y91.399 E6.3376
G1 X160.016 Y91.581 E6.35914
G1 X160.757 Y91.879 E6.39135
G1 X161.589 Y92.249 E6.42808
G1 X162.311 Y92.601 E6.46048
G1 X163.405 Y93.218 E6.51114
G1 X164.244 Y93.754 E6.5513
G1 X164.76 Y94.11 E6.57659
G1 X165.47 Y94.64 E6.61233
G1 X165.759 Y94.871 E6.62725
G1 X166.604 Y95.601 E6.67229
G1 X167.137 Y96.098 E6.70169
G1 X167.778 Y96.744 E6.73839
G1 X168.124 Y97.115 E6.75886
G1 X168.463 Y97.502 E6.77961
G1 X168.873 Y97.997 E6.80554
G1 X169.503 Y98.846 E6.84818
G1 X169.891 Y99.414 E6.87593
G1 X170.574 Y100.495 E6.9275
G1 X170.973 Y101.192 E6.9599
G1 X171.306 Y101.844 E6.98943
G1 X171.77 Y102.898 E7.03588
G1 X172.147 Y103.888 E7.07861
G1 X172.506 Y104.976 E7.12482
G1 X172.814 Y106.161 E7.17421
G1 X172.999 Y107.008 E7.20918
G1 X173.188 Y108.269 E7.26061
G1 X173.285 Y109.235 E7.29977
G1 X173.317 Y110.008 E7.33098
G1 X173.326 Y110.955 E7.36918
G1 X173.303 Y111.925 E7.40832
G1 X173.278 Y112.353 E7.42561
G1 X173.226 Y112.892 E7.44745
G1 X173.116 Y113.724 E7.48131
G1 X172.948 Y114.729 E7.52241
G1 X172.747 Y115.672 E7.5613
G1 X172.522 Y116.469 E7.5947
G1 X172.199 Y117.468 E7.63705
G1 X171.896 Y118.294 E7.67254
G1 X171.756 Y118.642 E7.68767
G1 X171.464 Y119.315 E7.71726
G1 X171.304 Y119.657 E7.73249
G1 X171.022 Y120.224 E7.75803
G1 X170.852 Y120.546 E7.77272
G1 X170.482 Y121.195 E7.80286
G1 X169.964 Y122.014 E7.84194
G1 X169.198 Y123.096 E7.89542
G1 X168.296 Y124.204 E7.95305
G1 X167.786 Y124.767 E7.98369
G1 X167.165 Y125.403 E8.01954
G1 X166.694 Y125.843 E8.04554
G1 X165.998 Y126.453 E8.08287
G1 X165.13 Y127.142 E8.12757
G1 X164.603 Y127.521 E8.15376
G1 X164.141 Y127.83 E8.17618
G1 X163.513 Y128.231 E8.20623
G1 X162.722 Y128.687 E8.24306
G1 X162.183 Y128.975 E8.26771
G1 X161.583 Y129.272 E8.29471
G1 X160.939 Y129.553 E8.32306
G1 X160.371 Y129.782 E8.34776
G1 X159.601 Y130.073 E8.38096
G1 X159.103 Y130.232 E8.40205
G1 X157.828 Y130.597 E8.45554
G1 X156.691 Y130.846 E8.50249
G1 X155.97 Y130.974 E8.53203
G1 X154.904 Y131.104 E8.57535
G1 X153.931 Y131.183 E8.61472
G1 X152.966 Y131.207 E8.65366
G1 X152.295 Y131.201 E8.68073
G1 X151.945 Y131.187 E8.69485
G1 X150.74 Y131.101 E8.74358
G1 X150.258 Y131.047 E8.76315
G1 X149.328 Y130.889 E8.8012
G1 X148.304 Y130.69 E8.84327
G1 X147.445 Y130.474 E8.879
G1 X146.631 Y130.244 E8.91312
G1 X145.702 Y129.908 E8.95297
G1 X145.065 Y129.651 E8.98068
G1 X144.082 Y129.216 E9.02403
G1 X143.635 Y129.002 E9.04402
G1 X143.263 Y128.812 E9.06087
G1 X142.047 Y128.104 E9.11763
G1 X141.431 Y127.695 E9.14746
G1 X140.352 Y126.929 E9.20083
G1 X140.072 Y126.714 E9.21507
G1 X139.563 Y126.286 E9.2419
G1 X138.488 Y125.287 E9.30109
G1 X138.109 Y124.912 E9.3226
G1 X137.52 Y124.264 E9.35792
G1 X137.187 Y123.876 E9.37854
G1 X136.816 Y123.422 E9.40219
G1 X136.308 Y122.747 E9.43627
G1 X135.954 Y122.245 E9.46104
G1 X135.568 Y121.653 E9.48955
G1 X134.972 Y120.642 E9.53689
G1 X134.788 Y120.306 E9.55234
G1 X134.429 Y119.589 E9.58469
G1 X134.015 Y118.656 E9.62586
G1 X133.694 Y117.852 E9.66078
G1 X133.4 Y116.991 E9.69748
G1 X133.014 Y115.641 E9.75411
G1 X132.798 Y114.652 E9.79494
G1 X132.672 Y113.903 E9.82558
G1 X132.564 Y113.091 E9.85862
G1 X132.527 Y112.717 E9.87378
G1 X132.466 Y111.527 E9.92184
G1 X132.45 Y110.742 E9.95352
G1 X132.455 Y109.938 E9.98595
G1 X132.493 Y109.178 E10.01664
G1 X132.533 Y108.67 E10.03719
G1 X132.668 Y107.603 E10.08058
G1 X132.923 Y106.225 E10.1371
G1 X133.076 Y105.6 E10.16306
G1 X133.368 Y104.607 E10.20481
G1 X133.531 Y104.103 E10.22617
G1 X133.821 Y103.339 E10.25914
G1 X134.371 Y102.036 E10.31618
G1 X134.626 Y101.509 E10.3398
G1 X135.084 Y100.66 E10.37871
G1 X135.406 Y100.11 E10.40442
G1 X135.727 Y99.611 E10.42835
G0 F1080 X135.832 Y99.447
G0 X136.112 Y99.036
M204 S500
G0 F6000 X136.52 Y99.259
M204 S800
G1 F1200 X136.825 Y98.846 E10.44906
G1 X137.614 Y97.861 E10.49997
G1 X138.027 Y97.387 E10.52532
G1 X138.679 Y96.691 E10.56379
G1 X138.977 Y96.395 E10.58073
G1 X139.479 Y95.925 E10.60847
G1 X140.343 Y95.18 E10.65449
G1 X140.948 Y94.718 E10.6852
G1 X141.68 Y94.208 E10.72118
G1 X142.74 Y93.524 E10.77207
G1 X143.659 Y93.008 E10.81458
G1 X144.006 Y92.832 E10.83027
G1 X145.095 Y92.34 E10.87847
G1 X145.649 Y92.115 E10.90259
G1 X146.386 Y91.859 E10.93406
G1 X147.359 Y91.539 E10.97538
G1 X147.731 Y91.43 E10.99101
G1 X148.2 Y91.32 E11.01045
G1 X149.25 Y91.108 E11.05365
G1 X150.275 Y90.94 E11.09555
G1 X150.848 Y90.869 E11.11884
G1 X151.437 Y90.818 E11.14269
G1 X152.185 Y90.784 E11.17289
G1 X152.823 Y90.775 E11.19863
G1 X153.816 Y90.791 E11.23868
G1 X154.43 Y90.831 E11.2635
G1 X155.349 Y90.927 E11.30077
G1 X156.394 Y91.077 E11.34336
G1 X156.673 Y91.126 E11.35478
G1 X157.846 Y91.383 E11.40322
G1 X158.499 Y91.565 E11.43056
G1 X159.357 Y91.833 E11.46682
G1 X159.859 Y92.015 E11.48836
G1 X160.57 Y92.301 E11.51927
G1 X161.348 Y92.646 E11.5536
G1 X162.173 Y93.05 E11.59065
G1 X163.101 Y93.574 E11.63364
G1 X164.032 Y94.168 E11.67819
G1 X164.532 Y94.515 E11.70274
G1 X165.182 Y95.001 E11.73547
G1 X165.506 Y95.261 E11.75223
G1 X166.289 Y95.939 E11.79401
G1 X166.809 Y96.424 E11.82269
G1 X167.475 Y97.096 E11.86085
G1 X167.777 Y97.42 E11.87872
G1 X168.107 Y97.797 E11.89893
G1 X168.557 Y98.343 E11.92747
G1 X169.095 Y99.07 E11.96395
G1 X169.533 Y99.711 E11.99526
G1 X170.183 Y100.741 E12.04439
G1 X170.561 Y101.402 E12.0751
G1 X170.924 Y102.117 E12.10745
G1 X171.316 Y103.009 E12.14675
G1 X171.708 Y104.033 E12.19098
G1 X172.067 Y105.121 E12.23719
G1 X172.363 Y106.261 E12.2847
G1 X172.543 Y107.078 E12.31844
G1 X172.729 Y108.317 E12.36898
G1 X172.818 Y109.181 E12.40402
G1 X172.856 Y110.065 E12.43971
G1 X172.864 Y110.944 E12.47516
G1 X172.839 Y111.957 E12.51604
G1 X172.817 Y112.325 E12.53091
G1 X172.768 Y112.831 E12.55141
G1 X172.652 Y113.704 E12.58693
G1 X172.493 Y114.652 E12.62571
G1 X172.321 Y115.469 E12.65938
G1 X172.077 Y116.343 E12.69599
G1 X171.765 Y117.309 E12.73693
G1 X171.467 Y118.122 E12.77186
G1 X171.332 Y118.459 E12.7865
G1 X171.046 Y119.119 E12.81552
G1 X170.89 Y119.451 E12.83031
G1 X170.613 Y120.008 E12.85541
G1 X170.425 Y120.362 E12.87157
G1 X170.091 Y120.948 E12.89878
G1 X169.54 Y121.817 E12.94028
G1 X168.888 Y122.741 E12.9859
G1 X167.953 Y123.894 E13.04578
G1 X167.413 Y124.489 E13.07819
G1 X166.887 Y125.028 E13.10857
G1 X166.389 Y125.495 E13.1361
G1 X165.647 Y126.144 E13.17587
G1 X164.843 Y126.78 E13.21722
G1 X164.345 Y127.137 E13.24193
G1 X163.892 Y127.44 E13.26392
G1 X163.217 Y127.87 E13.2962
G1 X162.504 Y128.28 E13.32937
G1 X161.977 Y128.561 E13.35346
G1 X161.454 Y128.822 E13.37704
G1 X160.723 Y129.143 E13.40924
G1 X160.207 Y129.35 E13.43167
G1 X159.459 Y129.633 E13.46393
G1 X158.974 Y129.788 E13.48447
G1 X157.805 Y130.126 E13.53355
G1 X156.544 Y130.404 E13.58564
G1 X155.89 Y130.519 E13.61242
G1 X154.867 Y130.643 E13.65399
G1 X153.823 Y130.726 E13.69623
G1 X152.92 Y130.745 E13.73266
G1 X152.312 Y130.739 E13.75719
G1 X151.978 Y130.726 E13.77067
G1 X150.73 Y130.636 E13.82114
G1 X150.335 Y130.591 E13.83718
G1 X149.415 Y130.436 E13.87481
G1 X148.482 Y130.257 E13.91313
G1 X147.571 Y130.029 E13.95101
G1 X146.757 Y129.799 E13.98513
G1 X145.875 Y129.479 E14.02297
G1 X145.201 Y129.207 E14.05229
G1 X144.313 Y128.814 E14.09146
G1 X143.845 Y128.59 E14.11239
G1 X143.416 Y128.369 E14.13185
G1 X142.302 Y127.719 E14.18388
G1 X141.698 Y127.318 E14.21312
G1 X140.619 Y126.552 E14.2665
G1 X140.369 Y126.36 E14.27921
G1 X139.86 Y125.932 E14.30604
G1 X138.812 Y124.958 E14.36375
G1 X138.498 Y124.65 E14.38149
G1 X137.87 Y123.963 E14.41903
G1 X137.545 Y123.584 E14.43917
G1 X137.174 Y123.13 E14.46282
G1 X136.658 Y122.443 E14.49748
G1 X136.341 Y121.993 E14.51968
G1 X135.926 Y121.354 E14.55041
G1 X135.376 Y120.419 E14.59417
G1 X135.2 Y120.098 E14.60894
G1 X134.876 Y119.454 E14.63801
G1 X134.421 Y118.429 E14.68325
G1 X134.131 Y117.702 E14.71482
G1 X133.844 Y116.863 E14.75059
G1 X133.465 Y115.543 E14.80598
G1 X133.249 Y114.554 E14.84682
G1 X133.129 Y113.842 E14.87594
G1 X133.023 Y113.043 E14.90845
G1 X132.993 Y112.756 E14.92009
G1 X132.928 Y111.517 E14.97014
G1 X132.912 Y110.744 E15.00132
G1 X132.916 Y109.96 E15.03295
G1 X132.951 Y109.249 E15.06166
G1 X132.999 Y108.651 E15.08586
G1 X133.112 Y107.752 E15.12241
G1 X133.372 Y106.335 E15.18052
G1 X133.525 Y105.71 E15.20647
G1 X133.808 Y104.749 E15.24688
G1 X133.991 Y104.187 E15.27072
G1 X134.247 Y103.519 E15.29958
G1 X134.824 Y102.156 E15.35928
G1 X135.063 Y101.669 E15.38116
G1 X135.483 Y100.892 E15.41679
G1 X135.768 Y100.403 E15.43962
G1 X136.134 Y99.833 E15.46694
G0 F1080 X136.214 Y99.707
G0 X136.52 Y99.259
M204 S500
G0 F6000 X136.892 Y99.534
M204 S800
G1 F1200 X137.214 Y99.098 E15.4888
G1 X137.944 Y98.186 E15.53592
G1 X138.364 Y97.703 E15.56174
G1 X139.005 Y97.018 E15.59958
G1 X139.292 Y96.732 E15.61593
G1 X139.794 Y96.262 E15.64366
G1 X140.678 Y95.502 E15.69069
G1 X141.212 Y95.097 E15.71772
G1 X141.931 Y94.596 E15.75307
G1 X143.03 Y93.888 E15.8058
G1 X143.87 Y93.419 E15.84461
G1 X144.196 Y93.253 E15.85936
G1 X145.27 Y92.767 E15.90691
G1 X145.764 Y92.565 E15.92844
G1 X146.53 Y92.298 E15.96116
G1 X147.491 Y91.982 E16.00197
G1 X147.837 Y91.88 E16.01652
G1 X148.292 Y91.773 E16.03537
G1 X149.324 Y91.564 E16.07784
G1 X150.332 Y91.399 E16.11904
G1 X150.888 Y91.33 E16.14164
G1 X151.507 Y91.277 E16.1667
G1 X152.192 Y91.246 E16.19436
G1 X152.816 Y91.237 E16.21953
G1 X153.809 Y91.253 E16.25959
G1 X154.382 Y91.291 E16.28275
G1 X155.329 Y91.39 E16.32116
G1 X156.314 Y91.532 E16.3613
G1 X156.624 Y91.587 E16.374
G1 X157.788 Y91.844 E16.42209
G1 X158.361 Y92.006 E16.4461
G1 X159.199 Y92.268 E16.48152
G1 X159.725 Y92.459 E16.50409
G1 X160.382 Y92.724 E16.53267
G1 X161.184 Y93.08 E16.56806
G1 X161.945 Y93.452 E16.60223
G1 X162.908 Y93.997 E16.64686
