;FLAVOR:Marlin
;TIME:2586
;Filament used: 0.894722m
;Layer height: 0.16
;MINX:130.311
;MINY:97.936
;MINZ:0.2
;MAXX:158.777
;MAXY:143.159
;MAXZ:20.54
;Generated with Cura_SteamEngine 5.2.2
M140 S100
M105
M190 S100
M104 S250
M105
M109 S250
M82 ;absolute extrusion mode
G28; Fahr zum Nullpunkt
G29; Probe Time
G92 E0; setze den Extruder auf Null
M 501; Daten aus EEProm lesen
M 420 S1; Bettnivelierung Aktivieren
G1 Z2.0 F3000; Druckkopf 2mm nach oben fahren
G1 X10.1 Y20 Z0.28 F5000.0; Fahre an die Startposition X10.1 Y20 Z0.28
G1 X10.1 Y200.0 Z0.28 F1500.0 E15; Ziehe eine Linie von der Startposition aus nach Y200
G1 X10.4 Y200.0 Z0.28 F5000.0; Bissl zur Seite bewegen
G1 X10.4 Y20 Z0.28 F1500.0 E30; eine 2. Linie nach vorne ziehen
G92 E0; setze den Extruder auf Null
G1 Z1.0 F3000; Fahr die Düse 2mm nach oben
G92 E0
G92 E0
G1 F2400 E-0.8
;LAYER_COUNT:125
;LAYER:0
M107
M204 S500
M205 X8 Y8
G1 F300 Z0.7
G0 F9000 X132.839 Y102.711 Z0.7
M204 S800
;TYPE:SKIRT
G1 F300 Z0.2
G1 F2400 E0
G1 F1200 X133.55 Y101.867 E0.04282
G1 X133.902 Y101.504 E0.06243
G1 X134.457 Y100.984 E0.09194
G1 X134.765 Y100.722 E0.10763
G1 X135.357 Y100.265 E0.13664
G1 X135.77 Y99.976 E0.1562
G1 X136.725 Y99.403 E0.19941
G1 X137.17 Y99.177 E0.21877
G1 X137.809 Y98.888 E0.24598
G1 X138.183 Y98.738 E0.26161
G1 X138.909 Y98.487 E0.29142
G1 X139.374 Y98.351 E0.31021
G1 X140.342 Y98.132 E0.34872
G1 X140.728 Y98.07 E0.36389
G1 X141.269 Y98.002 E0.38504
G1 X141.6 Y97.972 E0.39793
G1 X142.138 Y97.942 E0.41884
G1 X142.405 Y97.936 E0.4292
G1 X143.035 Y97.947 E0.45365
G1 X143.438 Y97.97 E0.46931
G1 X144.184 Y98.048 E0.49841
G1 X144.583 Y98.109 E0.51407
G1 X145.326 Y98.259 E0.54348
G1 X145.714 Y98.357 E0.559
G1 X146.386 Y98.559 E0.58623
G1 X146.767 Y98.692 E0.60188
G1 X147.484 Y98.982 E0.63189
G1 X147.847 Y99.15 E0.64741
G1 X148.497 Y99.488 E0.67583
G1 X148.845 Y99.69 E0.69144
G1 X149.466 Y100.09 E0.7201
G1 X149.793 Y100.323 E0.73568
G1 X150.384 Y100.788 E0.76485
G1 X150.766 Y101.119 E0.78446
G1 X151.546 Y101.897 E0.82721
G1 X151.876 Y102.275 E0.84667
G1 X152.335 Y102.853 E0.87531
G1 X152.57 Y103.179 E0.8909
G1 X152.977 Y103.803 E0.91981
G1 X153.18 Y104.149 E0.93537
G1 X153.528 Y104.813 E0.96445
G1 X153.74 Y105.268 E0.98393
G1 X154.14 Y106.313 E1.02734
G1 X154.286 Y106.794 E1.04684
G1 X154.462 Y107.482 E1.07439
G1 X154.544 Y107.876 E1.09001
G1 X154.647 Y108.497 E1.11443
G1 X154.681 Y108.766 E1.12495
G1 X154.735 Y109.385 E1.14906
G1 X154.754 Y109.786 E1.16463
G1 X154.755 Y110.512 E1.1928
G1 X154.733 Y111.009 E1.2121
G1 X154.601 Y112.141 E1.25631
G1 X154.486 Y112.745 E1.28017
G1 X154.34 Y113.3 E1.30243
G1 X154.52 Y113.533 E1.31386
G1 X154.796 Y113.949 E1.33323
G1 X155.151 Y114.537 E1.35987
G1 X155.344 Y114.891 E1.37552
G1 X155.683 Y115.594 E1.4058
G1 X155.877 Y116.052 E1.42509
G1 X156.236 Y117.095 E1.46789
G1 X156.392 Y117.678 E1.4913
G1 X156.59 Y118.669 E1.53051
G1 X156.656 Y119.159 E1.54969
G1 X156.726 Y120.119 E1.58704
G1 X156.732 Y120.603 E1.60582
G1 X156.707 Y121.339 E1.63439
G1 X156.666 Y121.847 E1.65416
G1 X156.491 Y122.985 E1.69883
G1 X156.344 Y123.626 E1.72435
G1 X156.868 Y124.372 E1.75972
G1 X157.18 Y124.89 E1.78318
G1 X157.682 Y125.871 E1.82593
G1 X157.916 Y126.42 E1.84908
G1 X158.286 Y127.496 E1.89323
G1 X158.438 Y128.069 E1.91623
G1 X158.626 Y129.001 E1.95312
G1 X158.694 Y129.486 E1.97212
G1 X158.77 Y130.476 E2.01064
G1 X158.777 Y130.975 E2.03
G1 X158.751 Y131.737 E2.05958
G1 X158.71 Y132.235 E2.07897
G1 X158.544 Y133.322 E2.12163
G1 X158.411 Y133.914 E2.14517
G1 X158.085 Y134.998 E2.18909
G1 X157.906 Y135.468 E2.2086
G1 X157.631 Y136.105 E2.23552
G1 X157.455 Y136.468 E2.25117
G1 X157.075 Y137.161 E2.28183
G1 X156.866 Y137.501 E2.29731
G1 X156.457 Y138.103 E2.32555
G1 X156.215 Y138.426 E2.34121
G1 X155.726 Y139.016 E2.37094
G1 X155.455 Y139.313 E2.38654
G1 X154.955 Y139.814 E2.414
G1 X154.585 Y140.153 E2.43347
G1 X153.724 Y140.838 E2.47615
G1 X153.31 Y141.123 E2.49565
G1 X152.672 Y141.52 E2.52481
G1 X152.32 Y141.716 E2.54044
G1 X151.641 Y142.052 E2.56983
G1 X151.273 Y142.213 E2.58542
G1 X150.569 Y142.482 E2.61465
G1 X150.097 Y142.637 E2.63393
G1 X149.15 Y142.885 E2.67191
G1 X148.778 Y142.958 E2.68662
G1 X148.178 Y143.052 E2.71018
G1 X147.779 Y143.099 E2.72577
G1 X147.091 Y143.149 E2.75253
G1 X146.76 Y143.159 E2.76538
G1 X146.258 Y143.159 E2.78485
G1 X145.987 Y143.15 E2.79537
G1 X145.331 Y143.101 E2.82089
G1 X144.834 Y143.043 E2.84031
G1 X143.735 Y142.835 E2.8837
G1 X143.146 Y142.68 E2.90733
G1 X142.089 Y142.32 E2.95065
G1 X141.628 Y142.126 E2.97006
G1 X140.954 Y141.804 E2.99904
G1 X140.505 Y141.563 E3.01881
G1 X139.577 Y140.979 E3.06135
G1 X139.176 Y140.686 E3.08062
G1 X138.572 Y140.198 E3.11074
G1 X138.273 Y139.931 E3.1263
G1 X137.764 Y139.434 E3.1539
G1 X137.489 Y139.14 E3.16951
G1 X137.025 Y138.597 E3.19722
G1 X136.778 Y138.28 E3.21282
G1 X136.331 Y137.644 E3.24298
G1 X136.116 Y137.304 E3.25858
G1 X135.758 Y136.675 E3.28666
G1 X135.575 Y136.317 E3.30226
G1 X135.265 Y135.633 E3.3314
G1 X135.117 Y135.26 E3.34697
G1 X134.88 Y134.572 E3.3752
G1 X134.738 Y134.089 E3.39473
G1 X134.498 Y132.987 E3.43849
G1 X134.426 Y132.489 E3.45801
G1 X134.362 Y131.886 E3.48153
G1 X134.344 Y131.618 E3.49195
G1 X134.326 Y131.008 E3.51563
G1 X134.33 Y130.606 E3.53123
G1 X134.375 Y129.838 E3.56108
G1 X134.418 Y129.438 E3.57668
G1 X134.528 Y128.724 E3.60471
G1 X134.627 Y128.231 E3.62422
G1 X134.723 Y127.881 E3.6383
G1 X134.286 Y127.259 E3.66779
G1 X134.071 Y126.919 E3.6834
G1 X133.705 Y126.275 E3.71214
G1 X133.523 Y125.917 E3.72772
G1 X133.228 Y125.265 E3.75548
G1 X133.079 Y124.892 E3.77107
G1 X132.829 Y124.166 E3.80086
G1 X132.717 Y123.781 E3.81641
G1 X132.547 Y123.079 E3.84444
G1 X132.47 Y122.683 E3.86009
G1 X132.376 Y122.074 E3.884
G1 X132.345 Y121.804 E3.89454
G1 X132.298 Y121.181 E3.91878
G1 X132.28 Y120.673 E3.9385
G1 X132.321 Y119.543 E3.98237
G1 X132.374 Y119.051 E4.00157
G1 X132.484 Y118.334 E4.02971
G1 X132.564 Y117.937 E4.04542
G1 X132.693 Y117.425 E4.06591
G1 X132.276 Y116.816 E4.09454
G1 X131.709 Y115.847 E4.1381
G1 X131.487 Y115.397 E4.15757
G1 X131.203 Y114.748 E4.18505
G1 X131.058 Y114.373 E4.20065
G1 X130.814 Y113.637 E4.23073
G1 X130.707 Y113.252 E4.24624
G1 X130.568 Y112.667 E4.26957
G1 X130.515 Y112.399 E4.28017
G1 X130.418 Y111.788 E4.30417
G1 X130.371 Y111.389 E4.31975
G1 X130.321 Y110.702 E4.34648
G1 X130.311 Y110.372 E4.35929
G1 X130.311 Y109.869 E4.3788
G1 X130.32 Y109.598 E4.38932
G1 X130.369 Y108.946 E4.41469
G1 X130.427 Y108.447 E4.43418
G1 X130.639 Y107.328 E4.47837
G1 X130.768 Y106.842 E4.49787
G1 X130.984 Y106.157 E4.52574
G1 X131.122 Y105.779 E4.54135
G1 X131.409 Y105.095 E4.57013
G1 X131.582 Y104.731 E4.58577
G1 X131.932 Y104.075 E4.61461
G1 X132.137 Y103.731 E4.63015
G1 X132.431 Y103.286 E4.65084
G0 F1080 X132.544 Y103.115
G0 X132.839 Y102.711
M204 S500
G0 F9000 X133.205 Y102.978
M204 S800
G1 F1200 X133.876 Y102.182 E4.69123
G1 X134.228 Y101.819 E4.71085
G1 X134.751 Y101.329 E4.73866
G1 X135.059 Y101.067 E4.75434
G1 X135.616 Y100.637 E4.78164
G1 X136.029 Y100.348 E4.8012
G1 X136.93 Y99.807 E4.84197
G1 X137.375 Y99.581 E4.86134
G1 X137.977 Y99.308 E4.88698
G1 X138.351 Y99.158 E4.90262
G1 X139.036 Y98.922 E4.93073
G1 X139.501 Y98.786 E4.94952
G1 X140.414 Y98.58 E4.98583
G1 X140.8 Y98.518 E5.001
G1 X141.31 Y98.454 E5.02094
G1 X141.641 Y98.424 E5.03384
G1 X142.148 Y98.395 E5.05354
G1 X142.415 Y98.389 E5.0639
G1 X143.009 Y98.399 E5.08695
G1 X143.412 Y98.422 E5.10261
G1 X144.116 Y98.496 E5.13007
G1 X144.515 Y98.557 E5.14573
G1 X145.216 Y98.699 E5.17348
G1 X145.604 Y98.797 E5.18901
G1 X146.237 Y98.987 E5.21465
G1 X146.618 Y99.12 E5.23031
G1 X147.294 Y99.393 E5.25859
G1 X147.657 Y99.561 E5.27411
G1 X148.27 Y99.88 E5.30092
G1 X148.618 Y100.082 E5.31653
G1 X149.203 Y100.459 E5.34353
G1 X149.53 Y100.692 E5.35911
G1 X150.087 Y101.131 E5.38663
G1 X150.469 Y101.462 E5.40624
G1 X151.205 Y102.195 E5.44654
G1 X151.535 Y102.573 E5.466
G1 X151.968 Y103.118 E5.49301
G1 X152.203 Y103.444 E5.5086
G1 X152.586 Y104.032 E5.53583
G1 X152.789 Y104.378 E5.55139
G1 X153.118 Y105.004 E5.57883
G1 X153.33 Y105.459 E5.5983
G1 X153.707 Y106.445 E5.63926
G1 X153.853 Y106.926 E5.65876
G1 X154.018 Y107.574 E5.6847
G1 X154.1 Y107.968 E5.70031
G1 X154.198 Y108.554 E5.72337
G1 X154.232 Y108.823 E5.73389
G1 X154.283 Y109.406 E5.75659
G1 X154.302 Y109.807 E5.77217
G1 X154.303 Y110.492 E5.79874
G1 X154.281 Y110.989 E5.81804
G1 X154.156 Y112.056 E5.85972
G1 X154.041 Y112.66 E5.88358
G1 X153.847 Y113.4 E5.91326
G1 X154.143 Y113.783 E5.93204
G1 X154.419 Y114.199 E5.95141
G1 X154.753 Y114.754 E5.97654
G1 X154.946 Y115.108 E5.99218
G1 X155.266 Y115.77 E6.02071
G1 X155.46 Y116.228 E6.04
G1 X155.798 Y117.212 E6.08037
G1 X155.954 Y117.795 E6.10378
G1 X156.141 Y118.729 E6.14074
G1 X156.207 Y119.219 E6.15992
G1 X156.273 Y120.124 E6.19513
G1 X156.279 Y120.608 E6.21391
G1 X156.256 Y121.302 E6.24085
G1 X156.215 Y121.81 E6.26062
G1 X156.049 Y122.883 E6.30274
G1 X155.938 Y123.366 E6.32197
G1 X155.844 Y123.707 E6.33569
G1 X156.48 Y124.605 E6.37839
G1 X156.792 Y125.123 E6.40185
G1 X157.265 Y126.049 E6.44219
G1 X157.499 Y126.598 E6.46534
G1 X157.848 Y127.612 E6.50695
G1 X158 Y128.185 E6.52995
G1 X158.178 Y129.064 E6.56474
G1 X158.246 Y129.549 E6.58374
G1 X158.317 Y130.482 E6.62005
G1 X158.324 Y130.981 E6.63941
G1 X158.3 Y131.699 E6.66728
G1 X158.259 Y132.197 E6.68666
G1 X158.102 Y133.223 E6.72693
G1 X157.969 Y133.815 E6.75047
G1 X157.662 Y134.836 E6.79184
G1 X157.483 Y135.306 E6.81135
G1 X157.223 Y135.907 E6.83676
G1 X157.047 Y136.27 E6.85241
G1 X156.689 Y136.923 E6.8813
G1 X156.48 Y137.263 E6.89678
G1 X156.094 Y137.831 E6.92343
G1 X155.852 Y138.154 E6.93909
G1 X155.392 Y138.71 E6.96708
G1 X155.121 Y139.007 E6.98268
G1 X154.649 Y139.48 E7.00861
G1 X154.279 Y139.819 E7.02808
G1 X153.468 Y140.465 E7.0683
G1 X153.054 Y140.75 E7.0878
G1 X152.451 Y141.124 E7.11533
G1 X152.099 Y141.32 E7.13096
G1 X151.459 Y141.637 E7.15867
G1 X151.091 Y141.798 E7.17425
G1 X150.427 Y142.052 E7.20184
G1 X149.955 Y142.207 E7.22111
G1 X149.062 Y142.44 E7.25692
G1 X148.69 Y142.513 E7.27162
G1 X148.125 Y142.602 E7.29381
G1 X147.726 Y142.649 E7.3094
G1 X147.078 Y142.697 E7.33461
G1 X146.747 Y142.707 E7.34746
G1 X146.273 Y142.706 E7.36585
G1 X146.002 Y142.697 E7.37637
G1 X145.384 Y142.651 E7.40041
G1 X144.887 Y142.593 E7.41982
G1 X143.851 Y142.397 E7.46073
G1 X143.262 Y142.242 E7.48436
G1 X142.265 Y141.903 E7.52522
G1 X141.804 Y141.709 E7.54462
G1 X141.168 Y141.405 E7.57197
G1 X140.719 Y141.164 E7.59174
G1 X139.844 Y140.614 E7.63184
G1 X139.443 Y140.321 E7.65111
G1 X138.874 Y139.861 E7.67949
G1 X138.575 Y139.594 E7.69505
G1 X138.095 Y139.124 E7.72111
G1 X137.82 Y138.83 E7.73673
G1 X137.383 Y138.318 E7.76284
G1 X137.136 Y138.001 E7.77843
G1 X136.714 Y137.402 E7.80686
G1 X136.499 Y137.062 E7.82247
G1 X136.161 Y136.469 E7.84895
G1 X135.978 Y136.111 E7.86455
G1 X135.686 Y135.466 E7.89202
G1 X135.538 Y135.093 E7.90759
G1 X135.315 Y134.444 E7.93421
G1 X135.173 Y133.961 E7.95374
G1 X134.946 Y132.923 E7.99497
G1 X134.874 Y132.425 E8.01449
G1 X134.814 Y131.856 E8.03669
G1 X134.796 Y131.588 E8.04711
G1 X134.779 Y131.013 E8.06943
G1 X134.783 Y130.611 E8.08502
G1 X134.826 Y129.886 E8.1132
G1 X134.869 Y129.486 E8.12881
G1 X134.972 Y128.813 E8.15522
G1 X135.071 Y128.32 E8.17473
G1 X135.216 Y127.793 E8.19594
G1 X134.669 Y127.017 E8.23277
G1 X134.454 Y126.677 E8.24838
G1 X134.109 Y126.07 E8.27547
G1 X133.927 Y125.712 E8.29105
G1 X133.648 Y125.097 E8.31725
G1 X133.499 Y124.724 E8.33283
G1 X133.264 Y124.039 E8.36093
G1 X133.152 Y123.654 E8.37648
G1 X132.991 Y122.993 E8.40288
G1 X132.914 Y122.597 E8.41853
G1 X132.826 Y122.023 E8.44106
G1 X132.795 Y121.753 E8.4516
G1 X132.751 Y121.165 E8.47448
G1 X132.733 Y120.657 E8.4942
G1 X132.771 Y119.591 E8.53559
G1 X132.824 Y119.099 E8.55479
G1 X132.928 Y118.423 E8.58132
G1 X133.008 Y118.026 E8.59703
G1 X133.189 Y117.314 E8.62553
G1 X132.936 Y116.978 E8.64185
G1 X132.65 Y116.56 E8.6615
G1 X132.115 Y115.646 E8.70259
G1 X131.893 Y115.196 E8.72206
G1 X131.625 Y114.585 E8.74794
G1 X131.48 Y114.21 E8.76354
G1 X131.25 Y113.516 E8.79191
G1 X131.143 Y113.131 E8.80741
G1 X131.012 Y112.579 E8.82942
G1 X130.959 Y112.311 E8.84002
G1 X130.868 Y111.735 E8.86265
G1 X130.821 Y111.336 E8.87823
G1 X130.773 Y110.688 E8.90344
G1 X130.763 Y110.358 E8.91625
G1 X130.764 Y109.884 E8.93464
G1 X130.773 Y109.613 E8.94516
G1 X130.819 Y108.998 E8.96909
G1 X130.877 Y108.499 E8.98858
G1 X131.077 Y107.444 E9.03024
G1 X131.206 Y106.958 E9.04975
G1 X131.409 Y106.313 E9.07598
G1 X131.547 Y105.935 E9.09159
G1 X131.818 Y105.289 E9.11877
G1 X131.991 Y104.925 E9.13441
G1 X132.321 Y104.307 E9.16159
G1 X132.526 Y103.963 E9.17712
G1 X132.797 Y103.553 E9.19619
G0 F1080 X132.91 Y103.382
G0 X133.205 Y102.978
M204 S500
G0 F9000 X133.571 Y103.245
M204 S800
G1 F1200 X134.201 Y102.498 E9.2341
G1 X134.553 Y102.135 E9.25372
G1 X135.044 Y101.674 E9.27985
G1 X135.352 Y101.412 E9.29554
G1 X135.876 Y101.008 E9.32121
G1 X136.289 Y100.719 E9.34077
G1 X137.135 Y100.211 E9.37905
G1 X137.58 Y99.985 E9.39842
G1 X138.146 Y99.729 E9.42252
G1 X138.52 Y99.579 E9.43815
G1 X139.163 Y99.356 E9.46455
G1 X139.628 Y99.22 E9.48335
G1 X140.485 Y99.027 E9.51743
G1 X140.871 Y98.965 E9.5326
G1 X141.351 Y98.905 E9.55137
G1 X141.682 Y98.875 E9.56426
G1 X142.158 Y98.848 E9.58276
G1 X142.425 Y98.842 E9.59312
G1 X142.983 Y98.851 E9.61477
G1 X143.386 Y98.874 E9.63043
G1 X144.047 Y98.944 E9.65622
G1 X144.446 Y99.005 E9.67188
G1 X145.105 Y99.138 E9.69796
G1 X145.493 Y99.236 E9.71349
G1 X146.087 Y99.414 E9.73755
G1 X146.468 Y99.547 E9.7532
G1 X147.103 Y99.804 E9.77978
G1 X147.466 Y99.972 E9.7953
G1 X148.042 Y100.272 E9.8205
G1 X148.39 Y100.474 E9.83611
G1 X148.94 Y100.828 E9.86148
G1 X149.267 Y101.061 E9.87706
G1 X149.79 Y101.473 E9.90289
G1 X150.172 Y101.804 E9.9225
G1 X150.864 Y102.493 E9.96039
G1 X151.194 Y102.871 E9.97986
G1 X151.6 Y103.383 E10.00521
G1 X151.835 Y103.709 E10.0208
G1 X152.196 Y104.262 E10.04642
G1 X152.399 Y104.608 E10.06198
G1 X152.707 Y105.195 E10.0877
G1 X152.919 Y105.65 E10.10718
G1 X153.273 Y106.576 E10.14564
G1 X153.419 Y107.057 E10.16514
G1 X153.575 Y107.666 E10.18953
G1 X153.657 Y108.06 E10.20515
G1 X153.749 Y108.61 E10.22678
G1 X153.783 Y108.879 E10.2373
G1 X153.83 Y109.428 E10.25868
G1 X153.849 Y109.829 E10.27425
G1 X153.85 Y110.472 E10.2992
G1 X153.828 Y110.969 E10.3185
G1 X153.711 Y111.971 E10.35764
G1 X153.596 Y112.575 E10.38149
G1 X153.353 Y113.501 E10.41864
G1 X153.765 Y114.034 E10.44477
G1 X154.041 Y114.45 E10.46414
G1 X154.355 Y114.971 E10.48774
G1 X154.548 Y115.325 E10.50338
G1 X154.849 Y115.947 E10.53019
G1 X155.043 Y116.405 E10.54949
G1 X155.36 Y117.329 E10.58739
G1 X155.516 Y117.912 E10.6108
G1 X155.692 Y118.79 E10.64555
G1 X155.758 Y119.28 E10.66473
G1 X155.82 Y120.13 E10.69779
G1 X155.826 Y120.614 E10.71657
G1 X155.804 Y121.266 E10.74188
G1 X155.763 Y121.774 E10.76166
G1 X155.608 Y122.782 E10.80122
G1 X155.497 Y123.265 E10.82045
G1 X155.346 Y123.812 E10.84247
G1 X155.518 Y124.023 E10.85303
G1 X156.092 Y124.839 E10.89173
G1 X156.404 Y125.357 E10.9152
G1 X156.849 Y126.227 E10.95311
G1 X157.083 Y126.776 E10.97626
G1 X157.41 Y127.729 E11.01535
G1 X157.562 Y128.302 E11.03835
G1 X157.729 Y129.127 E11.07101
G1 X157.797 Y129.612 E11.09001
G1 X157.864 Y130.489 E11.12413
G1 X157.871 Y130.988 E11.14349
G1 X157.848 Y131.662 E11.16966
G1 X157.807 Y132.16 E11.18905
G1 X157.66 Y133.123 E11.22684
G1 X157.527 Y133.715 E11.25038
G1 X157.238 Y134.675 E11.28928
G1 X157.059 Y135.145 E11.30879
G1 X156.815 Y135.71 E11.33267
G1 X156.639 Y136.073 E11.34832
G1 X156.303 Y136.686 E11.37544
G1 X156.094 Y137.026 E11.39092
G1 X155.732 Y137.559 E11.41592
G1 X155.49 Y137.882 E11.43158
G1 X155.057 Y138.405 E11.45792
G1 X154.786 Y138.702 E11.47352
G1 X154.343 Y139.146 E11.49785
G1 X153.973 Y139.485 E11.51732
G1 X153.211 Y140.092 E11.55512
G1 X152.797 Y140.377 E11.57462
G1 X152.231 Y140.728 E11.60046
G1 X151.879 Y140.924 E11.61609
G1 X151.278 Y141.222 E11.64211
G1 X150.91 Y141.383 E11.6577
G1 X150.286 Y141.621 E11.68361
G1 X149.814 Y141.776 E11.70288
G1 X148.975 Y141.996 E11.73653
G1 X148.603 Y142.069 E11.75124
G1 X148.072 Y142.152 E11.77209
