;FLAVOR:Marlin
;TIME:6697
;Filament used: 2.15446m
;Layer height: 0.16
;MINX:131.391
;MINY:178.752
;MINZ:0.2
;MAXX:171.24
;MAXY:219.767
;MAXZ:19.58
;Generated with Cura_SteamEngine 5.2.2
M140 S100
M105
M190 S100
M104 S240
M105
M109 S240
M82 ;absolute extrusion mode
G28; Fahr zum Nullpunkt
G29; Probe Time
G92 E0; setze den Extruder auf Null
M 501; Daten aus EEProm lesen
M 420 S1; Bettnivelierung Aktivieren
G1 Z2.0 F3000; Druckkopf 2mm nach oben fahren
G1 X10.1 Y20 Z0.28 F5000.0; Fahre an die Startposition X10.1 Y20 Z0.28
G1 X10.1 Y200.0 Z0.28 F1500.0 E15; Ziehe eine Linie von der Startposition aus nach Y200
G1 X10.4 Y200.0 Z0.28 F5000.0; Bissl zur Seite bewegen
G1 X10.4 Y20 Z0.28 F1500.0 E30; eine 2. Linie nach vorne ziehen
G92 E0; setze den Extruder auf Null
G1 Z1.0 F3000; Fahr die Düse 2mm nach oben
G92 E0
G92 E0
G1 F2400 E-0.8
;LAYER_COUNT:119
;LAYER:0
M107
M204 S500
M205 X8 Y8
G1 F300 Z0.7
G0 F6000 X136.616 Y185.149 Z0.7
M204 S800
;TYPE:SKIRT
G1 F300 Z0.2
G1 F2400 E0
G1 F1200 X138.304 Y184.056 E0.08111
G1 X138.35 Y184.018 E0.08352
G1 X140.681 Y182.503 E0.19566
G1 X141.718 Y181.799 E0.24622
G1 X142.391 Y181.371 E0.27839
G1 X144.021 Y180.364 E0.35567
G1 X144.551 Y180.047 E0.38058
G1 X144.894 Y179.882 E0.39593
G1 X145.453 Y179.672 E0.42002
G1 X145.946 Y179.515 E0.44089
G1 X146.754 Y179.291 E0.47471
G1 X147.329 Y179.175 E0.49837
G1 X148.787 Y178.906 E0.55817
G1 X149.778 Y178.814 E0.59832
G1 X151.004 Y178.752 E0.64783
G1 X151.821 Y178.754 E0.68079
G1 X152.832 Y178.787 E0.72159
G1 X154.035 Y178.927 E0.77044
G1 X154.868 Y179.051 E0.80441
G1 X155.235 Y179.115 E0.81944
G1 X156.157 Y179.306 E0.85742
G1 X156.974 Y179.521 E0.8915
G1 X157.33 Y179.626 E0.90647
G1 X158.431 Y179.998 E0.95334
G1 X159.225 Y180.313 E0.9878
G1 X159.902 Y180.611 E1.01764
G1 X160.58 Y180.938 E1.048
G1 X161.297 Y181.321 E1.08079
G1 X162.253 Y181.884 E1.12554
G1 X162.581 Y182.094 E1.14125
G1 X163.303 Y182.604 E1.1769
G1 X163.944 Y183.087 E1.20928
G1 X164.838 Y183.831 E1.25619
G1 X165.211 Y184.158 E1.2762
G1 X168.228 Y186.719 E1.43583
G1 X168.568 Y187.061 E1.45528
G1 X168.956 Y187.498 E1.47885
G1 X169.115 Y187.7 E1.48922
G1 X169.341 Y188.027 E1.50525
G1 X169.633 Y188.508 E1.52795
G1 X169.907 Y189.045 E1.55227
G1 X170.075 Y189.443 E1.56969
G1 X170.267 Y189.969 E1.59228
G1 X170.383 Y190.451 E1.61228
G1 X170.461 Y190.853 E1.62879
G1 X170.795 Y192.933 E1.71377
G1 X170.955 Y196.419 E1.85453
G1 X171.128 Y198.87 E1.95364
G1 X171.17 Y199.763 E1.9897
G1 X171.229 Y201.636 E2.06529
G1 X171.24 Y202.332 E2.09336
G1 X171.192 Y202.813 E2.11286
G1 X170.972 Y203.829 E2.15479
G1 X170.761 Y204.692 E2.19063
G1 X170.197 Y206.293 E2.2591
G1 X169.989 Y206.774 E2.28023
G1 X169.439 Y207.901 E2.33082
G1 X169.121 Y208.498 E2.3581
G1 X168.597 Y209.401 E2.40021
G1 X168.286 Y209.895 E2.42376
G1 X167.902 Y210.461 E2.45135
G1 X167.583 Y210.9 E2.47324
G1 X167.112 Y211.512 E2.50439
G1 X166.503 Y212.214 E2.54187
G1 X165.497 Y213.274 E2.60082
G1 X164.902 Y213.831 E2.6337
G1 X164.228 Y214.41 E2.66954
G1 X163.519 Y214.96 E2.70573
G1 X163.125 Y215.249 E2.72544
G1 X162.512 Y215.667 E2.75537
G1 X161.69 Y216.185 E2.79456
G1 X161.111 Y216.517 E2.82148
G1 X160.407 Y216.883 E2.85349
G1 X159.639 Y217.24 E2.88765
G1 X158.611 Y217.657 E2.93239
G1 X154.78 Y219.017 E3.09637
G1 X154.079 Y219.28 E3.12657
G1 X153.479 Y219.481 E3.15209
G1 X153.057 Y219.595 E3.16973
G1 X152.799 Y219.648 E3.18035
G1 X152.285 Y219.72 E3.20129
G1 X151.92 Y219.751 E3.21606
G1 X151.061 Y219.767 E3.25072
G1 X150.504 Y219.707 E3.27331
G1 X150.077 Y219.638 E3.29076
G1 X149.378 Y219.462 E3.31984
G1 X148.937 Y219.318 E3.33855
G1 X146.955 Y218.557 E3.42419
G1 X143.846 Y216.95 E3.56535
G1 X141.751 Y215.931 E3.65932
G1 X140.675 Y215.377 E3.70814
G1 X139.195 Y214.582 E3.7759
G1 X138.59 Y214.246 E3.80382
G1 X138.214 Y213.98 E3.8224
G1 X138.021 Y213.809 E3.8328
G1 X137.208 Y213.039 E3.87796
G1 X136.708 Y212.532 E3.90669
G1 X135.887 Y211.598 E3.95685
G1 X135.556 Y211.175 E3.97851
G1 X134.91 Y210.263 E4.02359
G1 X134.638 Y209.853 E4.04344
G1 X134.065 Y208.924 E4.08747
G1 X133.67 Y208.212 E4.12031
G1 X133.45 Y207.778 E4.13994
G1 X133.273 Y207.406 E4.15655
G1 X132.798 Y206.291 E4.20544
G1 X132.553 Y205.658 E4.23282
G1 X132.281 Y204.868 E4.26652
G1 X132.067 Y204.115 E4.29809
G1 X131.851 Y203.211 E4.33558
G1 X131.632 Y202.114 E4.38071
G1 X131.559 Y201.616 E4.40101
G1 X131.442 Y200.491 E4.44663
G1 X131.391 Y199.274 E4.49576
G1 X131.424 Y197.828 E4.55411
G1 X131.469 Y197.022 E4.58667
G1 X131.543 Y196.222 E4.61907
G1 X131.657 Y195.416 E4.65191
G1 X132.398 Y191.458 E4.81433
G1 X132.551 Y190.577 E4.8504
G1 X132.669 Y190.095 E4.87042
G1 X132.87 Y189.49 E4.89613
G1 X133.094 Y188.951 E4.91968
G1 X133.318 Y188.494 E4.94021
G1 X133.6 Y188.029 E4.96214
G1 X134.003 Y187.482 E4.98955
G1 X134.181 Y187.271 E5.00068
G1 X134.672 Y186.766 E5.02909
G1 X134.997 Y186.473 E5.04674
G1 X136.081 Y185.587 E5.10321
G0 F1080 X136.616 Y185.149
M204 S500
G0 F6000 X136.887 Y185.524
M204 S800
G1 F1200 X138.559 Y184.441 E5.18357
G1 X138.601 Y184.405 E5.1858
G1 X140.968 Y182.867 E5.29966
G1 X142.019 Y182.154 E5.35089
G1 X142.634 Y181.764 E5.38026
G1 X144.258 Y180.761 E5.45725
G1 X144.788 Y180.444 E5.48216
G1 X145.056 Y180.315 E5.49416
G1 X145.615 Y180.105 E5.51825
G1 X146.073 Y179.959 E5.53764
G1 X146.846 Y179.744 E5.57
G1 X147.412 Y179.629 E5.5933
G1 X148.846 Y179.365 E5.65211
G1 X149.89 Y179.269 E5.6944
G1 X150.916 Y179.216 E5.73584
G1 X151.806 Y179.216 E5.77174
G1 X152.866 Y179.256 E5.81453
G1 X153.967 Y179.384 E5.85924
G1 X154.788 Y179.507 E5.89272
G1 X155.202 Y179.579 E5.90967
G1 X155.951 Y179.732 E5.94051
G1 X156.795 Y179.951 E5.97568
G1 X157.262 Y180.09 E5.99533
G1 X158.365 Y180.466 E6.04234
G1 X158.987 Y180.714 E6.06935
G1 X159.701 Y181.027 E6.10079
G1 X160.379 Y181.354 E6.13116
G1 X161.078 Y181.728 E6.16313
G1 X162.007 Y182.276 E6.20664
G1 X162.314 Y182.471 E6.22131
G1 X163.026 Y182.974 E6.25647
G1 X163.649 Y183.442 E6.2879
G1 X164.5 Y184.149 E6.33253
G1 X164.912 Y184.51 E6.35462
G1 X167.861 Y187.013 E6.51065
G1 X168.223 Y187.368 E6.5311
G1 X168.677 Y187.879 E6.55867
G1 X169.02 Y188.383 E6.58326
G1 X169.29 Y188.843 E6.60477
G1 X169.483 Y189.229 E6.62218
G1 X169.641 Y189.601 E6.63848
G1 X169.825 Y190.106 E6.66016
G1 X169.951 Y190.637 E6.68218
G1 X170.005 Y190.926 E6.69404
G1 X170.334 Y192.974 E6.7777
G1 X170.492 Y196.429 E6.91721
G1 X170.666 Y198.892 E7.01681
G1 X170.708 Y199.778 E7.05259
G1 X170.767 Y201.643 E7.12785
G1 X170.778 Y202.339 E7.15593
G1 X170.741 Y202.715 E7.17117
G1 X170.511 Y203.774 E7.21488
G1 X170.321 Y204.55 E7.2471
G1 X169.761 Y206.139 E7.31506
G1 X169.6 Y206.516 E7.3316
G1 X169.057 Y207.633 E7.3817
G1 X168.721 Y208.266 E7.4106
G1 X168.206 Y209.155 E7.45204
G1 X167.895 Y209.649 E7.47559
G1 X167.528 Y210.19 E7.50196
G1 X167.216 Y210.621 E7.52342
G1 X166.83 Y211.128 E7.54912
G1 X166.106 Y211.965 E7.59376
G1 X165.252 Y212.867 E7.64387
G1 X164.534 Y213.541 E7.68359
G1 X164.007 Y213.994 E7.71162
G1 X163.246 Y214.587 E7.75054
G1 X162.805 Y214.91 E7.77258
G1 X162.265 Y215.277 E7.79892
G1 X161.522 Y215.747 E7.83438
G1 X160.819 Y216.15 E7.86707
G1 X160.195 Y216.473 E7.89541
G1 X159.464 Y216.812 E7.92791
G1 X158.457 Y217.222 E7.97177
G1 X154.626 Y218.582 E8.13574
G1 X153.869 Y218.865 E8.16834
G1 X153.359 Y219.035 E8.19003
G1 X152.839 Y219.175 E8.21175
G1 X152.221 Y219.262 E8.23692
G1 X151.785 Y219.295 E8.25456
G1 X151.077 Y219.304 E8.28312
G1 X150.676 Y219.264 E8.29938
G1 X150.176 Y219.187 E8.31978
G1 X149.491 Y219.014 E8.34828
G1 X149.103 Y218.887 E8.36475
G1 X147.142 Y218.134 E8.44948
G1 X144.028 Y216.524 E8.59088
G1 X141.962 Y215.52 E8.68353
G1 X140.894 Y214.97 E8.73199
G1 X139.419 Y214.178 E8.79952
G1 X138.814 Y213.842 E8.82743
G1 X138.52 Y213.634 E8.84196
G1 X138.287 Y213.426 E8.85456
G1 X137.535 Y212.713 E8.89636
G1 X137.122 Y212.299 E8.91995
G1 X136.309 Y211.383 E8.96935
G1 X135.933 Y210.908 E8.99378
G1 X135.287 Y209.996 E9.03886
G1 X135.031 Y209.61 E9.05755
G1 X134.508 Y208.766 E9.0976
G1 X134.082 Y208.002 E9.13288
G1 X133.887 Y207.619 E9.15022
G1 X133.662 Y207.143 E9.17145
G1 X133.203 Y206.059 E9.21894
G1 X132.962 Y205.432 E9.24603
G1 X132.691 Y204.633 E9.28006
G1 X132.532 Y204.07 E9.30366
G1 X132.317 Y203.179 E9.34063
G1 X132.089 Y202.047 E9.38721
G1 X132.016 Y201.549 E9.40751
G1 X131.894 Y200.339 E9.45657
G1 X131.852 Y199.256 E9.50028
G1 X131.886 Y197.854 E9.55685
G1 X131.935 Y196.99 E9.59176
G1 X131.992 Y196.363 E9.61715
G1 X132.111 Y195.501 E9.65225
G1 X132.853 Y191.543 E9.81468
G1 X133.035 Y190.523 E9.85648
G1 X133.116 Y190.212 E9.86944
G1 X133.298 Y189.664 E9.89273
G1 X133.509 Y189.154 E9.91499
G1 X133.726 Y188.71 E9.93493
G1 X134.03 Y188.223 E9.95808
G1 X134.438 Y187.67 E9.9858
G1 X134.984 Y187.107 E10.01744
G1 X135.289 Y186.831 E10.03403
G1 X136.352 Y185.962 E10.08941
G0 F1080 X136.887 Y185.524
M204 S500
G0 F6000 X137.16 Y185.898
M204 S800
G1 F1200 X138.813 Y184.828 E10.16884
G1 X138.853 Y184.793 E10.17098
G1 X141.2 Y183.268 E10.28388
G1 X142.267 Y182.544 E10.33589
G1 X142.876 Y182.157 E10.365
G1 X144.496 Y181.157 E10.44179
G1 X145.121 Y180.783 E10.47117
G1 X145.841 Y180.515 E10.50216
G1 X146.199 Y180.404 E10.51727
G1 X146.938 Y180.197 E10.54823
G1 X147.496 Y180.084 E10.57119
G1 X148.964 Y179.818 E10.63137
G1 X149.864 Y179.734 E10.66783
G1 X151.003 Y179.676 E10.71384
G1 X151.791 Y179.678 E10.74562
G1 X152.813 Y179.715 E10.78687
G1 X153.899 Y179.841 E10.83097
G1 X154.709 Y179.962 E10.864
G1 X155.11 Y180.032 E10.88042
G1 X155.859 Y180.185 E10.91126
G1 X156.678 Y180.398 E10.94539
G1 X157.114 Y180.527 E10.96373
G1 X158.135 Y180.873 E11.00722
G1 X158.854 Y181.159 E11.03843
G1 X159.5 Y181.443 E11.06689
G1 X160.178 Y181.77 E11.09726
G1 X160.859 Y182.135 E11.12842
G1 X161.762 Y182.667 E11.1707
G1 X161.996 Y182.814 E11.18184
G1 X162.75 Y183.344 E11.21902
G1 X163.353 Y183.797 E11.24944
G1 X164.229 Y184.525 E11.29538
G1 X164.613 Y184.862 E11.31599
G1 X167.562 Y187.365 E11.47201
G1 X167.822 Y187.617 E11.48662
G1 X168.312 Y188.165 E11.51627
G1 X168.623 Y188.62 E11.5385
G1 X168.878 Y189.052 E11.55874
G1 X169.059 Y189.412 E11.57499
G1 X169.207 Y189.759 E11.59021
G1 X169.382 Y190.239 E11.61081
G1 X169.497 Y190.723 E11.63088
G1 X169.549 Y190.999 E11.64221
G1 X169.874 Y193.025 E11.72498
G1 X170.033 Y196.489 E11.86485
G1 X170.205 Y198.914 E11.96291
G1 X170.246 Y199.792 E11.99836
G1 X170.305 Y201.65 E12.07334
G1 X170.316 Y202.346 E12.10142
G1 X170.289 Y202.617 E12.11241
G1 X170.062 Y203.664 E12.15562
G1 X169.877 Y204.42 E12.18701
G1 X169.325 Y205.986 E12.25399
G1 X169.159 Y206.369 E12.27083
G1 X168.623 Y207.468 E12.32015
G1 X168.343 Y207.996 E12.34426
G1 X167.815 Y208.909 E12.3868
G1 X167.482 Y209.436 E12.41194
G1 X167.175 Y209.889 E12.43402
G1 X166.848 Y210.341 E12.45652
G1 X166.414 Y210.907 E12.48529
G1 X165.805 Y211.609 E12.52277
G1 X164.865 Y212.6 E12.57787
G1 X164.233 Y213.191 E12.61277
G1 X163.706 Y213.644 E12.6408
G1 X162.973 Y214.215 E12.67828
G1 X162.545 Y214.528 E12.69967
G1 X162.018 Y214.886 E12.72537
G1 X161.275 Y215.356 E12.76083
G1 X160.651 Y215.715 E12.78987
G1 X159.938 Y216.085 E12.82227
G1 X159.29 Y216.385 E12.85107
G1 X158.354 Y216.767 E12.89185
G1 X154.491 Y218.139 E13.0572
G1 X153.72 Y218.428 E13.09042
G1 X153.311 Y218.567 E13.10784
G1 X152.751 Y218.721 E13.13127
G1 X152.08 Y218.813 E13.15859
G1 X151.779 Y218.833 E13.17076
G1 X151.097 Y218.842 E13.19827
G1 X150.651 Y218.795 E13.21636
G1 X150.214 Y218.72 E13.23424
G1 X149.603 Y218.566 E13.25966
G1 X149.315 Y218.473 E13.27186
G1 X147.329 Y217.711 E13.35767
G1 X144.236 Y216.112 E13.49811
G1 X142.173 Y215.109 E13.59064
G1 X141.112 Y214.563 E13.63877
G1 X139.644 Y213.774 E13.70599
G1 X139.039 Y213.438 E13.73391
G1 X138.827 Y213.288 E13.74438
G1 X138.605 Y213.09 E13.75638
G1 X137.862 Y212.387 E13.79764
G1 X137.449 Y211.973 E13.82123
G1 X136.612 Y211.026 E13.87221
G1 X136.31 Y210.641 E13.89195
G1 X135.644 Y209.699 E13.93848
G1 X135.424 Y209.366 E13.95458
G1 X134.873 Y208.474 E13.99687
G1 X134.494 Y207.792 E14.02834
G1 X134.285 Y207.381 E14.04694
G1 X134.108 Y207.009 E14.06356
G1 X133.634 Y205.893 E14.11246
G1 X133.399 Y205.282 E14.13887
G1 X133.155 Y204.569 E14.16927
G1 X132.965 Y203.899 E14.19736
G1 X132.766 Y203.071 E14.23171
G1 X132.547 Y201.98 E14.27659
G1 X132.467 Y201.431 E14.29897
G1 X132.361 Y200.397 E14.3409
G1 X132.313 Y199.161 E14.39079
G1 X132.345 Y197.915 E14.44107
G1 X132.395 Y197.032 E14.47674
G1 X132.458 Y196.349 E14.50441
G1 X132.565 Y195.586 E14.53548
G1 X133.307 Y191.628 E14.69792
G1 X133.462 Y190.735 E14.73447
G1 X133.585 Y190.255 E14.75446
G1 X133.698 Y189.913 E14.76899
G1 X133.924 Y189.357 E14.7932
G1 X134.158 Y188.891 E14.81423
G1 X134.402 Y188.497 E14.83293
G1 X134.79 Y187.97 E14.85932
G1 X135.241 Y187.501 E14.88557
G1 X135.532 Y187.232 E14.90155
G1 X136.625 Y186.336 E14.95856
G0 F1080 X137.16 Y185.898
M204 S500
G0 F6000 X137.401 Y186.297
M204 S800
G1 F1200 X139.065 Y185.214 E15.03864
G1 X139.105 Y185.18 E15.04076
G1 X141.459 Y183.65 E15.15401
G1 X142.515 Y182.934 E15.20547
G1 X143.119 Y182.55 E15.23434
G1 X144.733 Y181.554 E15.31084
G1 X145.32 Y181.203 E15.33843
G1 X145.979 Y180.956 E15.36682
G1 X146.326 Y180.848 E15.38147
G1 X146.976 Y180.663 E15.40873
G1 X147.58 Y180.538 E15.43361
G1 X149.007 Y180.278 E15.49212
G1 X149.937 Y180.192 E15.52979
G1 X151.002 Y180.138 E15.57281
G1 X151.776 Y180.139 E15.60403
G1 X152.7 Y180.169 E15.64132
G1 X153.832 Y180.298 E15.68727
G1 X154.63 Y180.417 E15.71982
G1 X155.017 Y180.485 E15.73567
G1 X155.805 Y180.647 E15.76812
G1 X156.582 Y180.851 E15.80052
G1 X156.966 Y180.965 E15.81668
G1 X158.023 Y181.324 E15.8617
G1 X158.668 Y181.582 E15.88973
G1 X159.3 Y181.86 E15.91758
G1 X160.006 Y182.201 E15.9492
G1 X160.667 Y182.556 E15.97946
G1 X161.516 Y183.058 E16.01925
G1 X161.782 Y183.226 E16.03194
G1 X162.473 Y183.714 E16.06606
G1 X163.058 Y184.153 E16.09556
G1 X163.924 Y184.872 E16.14096
G1 X164.323 Y185.222 E16.16237
G1 X167.303 Y187.754 E16.32011
G1 X167.498 Y187.946 E16.33114
G1 X167.92 Y188.419 E16.35671
G1 X168.227 Y188.856 E16.37825
G1 X168.443 Y189.218 E16.39526
G1 X168.616 Y189.555 E16.41054
G1 X168.773 Y189.918 E16.42649
G1 X168.948 Y190.411 E16.44759
G1 X169.036 Y190.776 E16.46274
G1 X169.093 Y191.072 E16.4749
G1 X169.407 Y193.029 E16.55484
G1 X169.57 Y196.494 E16.69476
G1 X169.743 Y198.936 E16.79351
G1 X169.785 Y199.807 E16.82868
G1 X169.843 Y201.657 E16.90334
G1 X169.855 Y202.435 E16.93473
G1 X169.613 Y203.555 E16.98095
G1 X169.442 Y204.254 E17.00997
G1 X168.869 Y205.884 E17.07967
G1 X168.743 Y206.167 E17.09216
G1 X168.215 Y207.251 E17.1408
G1 X167.922 Y207.803 E17.166
G1 X167.424 Y208.662 E17.20605
G1 X167.099 Y209.177 E17.23062
G1 X166.779 Y209.649 E17.25362
G1 X166.481 Y210.061 E17.27413
G1 X166.095 Y210.568 E17.29983
G1 X165.435 Y211.33 E17.3405
G1 X164.55 Y212.263 E17.39237
G1 X163.955 Y212.82 E17.42524
G1 X163.377 Y213.316 E17.45596
G1 X162.699 Y213.842 E17.49058
G1 X162.285 Y214.146 E17.51129
G1 X161.771 Y214.496 E17.53638
G1 X161.001 Y214.982 E17.57311
G1 X160.394 Y215.329 E17.60131
G1 X159.743 Y215.666 E17.63088
G1 X159.148 Y215.943 E17.65735
G1 X158.148 Y216.351 E17.70091
G1 X154.317 Y217.711 E17.86489
G1 X153.593 Y217.982 E17.89607
G1 X153.118 Y218.143 E17.9163
G1 X152.696 Y218.257 E17.93394
G1 X152.092 Y218.347 E17.95857
G1 X151.773 Y218.371 E17.97147
G1 X151.16 Y218.379 E17.9962
G1 X150.725 Y218.339 E18.01382
G1 X150.327 Y218.272 E18.0301
G1 X149.716 Y218.118 E18.05552
G1 X149.463 Y218.035 E18.06626
G1 X147.484 Y217.271 E18.15182
G1 X144.436 Y215.695 E18.29023
G1 X142.385 Y214.698 E18.38222
G1 X141.331 Y214.156 E18.43002
G1 X139.868 Y213.37 E18.49701
G1 X139.193 Y212.995 E18.52816
G1 X138.922 Y212.755 E18.54276
G1 X138.189 Y212.06 E18.5835
G1 X137.746 Y211.614 E18.60886
G1 X136.975 Y210.74 E18.65587
G1 X136.687 Y210.374 E18.67466
G1 X136.029 Y209.444 E18.72061
G1 X135.829 Y209.143 E18.73519
G1 X135.276 Y208.25 E18.77755
G1 X134.918 Y207.607 E18.80724
G1 X134.702 Y207.182 E18.82647
G1 X134.512 Y206.782 E18.84433
G1 X134.065 Y205.727 E18.89055
G1 X133.836 Y205.133 E18.91623
G1 X133.592 Y204.42 E18.94662
G1 X133.414 Y203.791 E18.97299
G1 X133.209 Y202.937 E19.00842
G1 X133.01 Y201.952 E19.04895
