;FLAVOR:Marlin
;TIME:1512
;Filament used: 0.528965m
;Layer height: 0.16
;MINX:128.691
;MINY:96.264
;MINZ:0.2
;MAXX:169.898
;MAXY:137.473
;MAXZ:5.66
;Generated with Cura_SteamEngine 5.2.2
M140 S100
M105
M190 S100
M104 S240
M105
M109 S240
M82 ;absolute extrusion mode
G28; Fahr zum Nullpunkt
G29; Probe Time
G92 E0; setze den Extruder auf Null
M 501; Daten aus EEProm lesen
M 420 S1; Bettnivelierung Aktivieren
G1 Z2.0 F3000; Druckkopf 2mm nach oben fahren
G1 X10.1 Y20 Z0.28 F5000.0; Fahre an die Startposition X10.1 Y20 Z0.28
G1 X10.1 Y200.0 Z0.28 F1500.0 E15; Ziehe eine Linie von der Startposition aus nach Y200
G1 X10.4 Y200.0 Z0.28 F5000.0; Bissl zur Seite bewegen
G1 X10.4 Y20 Z0.28 F1500.0 E30; eine 2. Linie nach vorne ziehen
G92 E0; setze den Extruder auf Null
G1 Z1.0 F3000; Fahr die Düse 2mm nach oben
G92 E0
G92 E0
G1 F2400 E-0.8
;LAYER_COUNT:32
;LAYER:0
M107
M204 S500
M205 X8 Y8
G1 F300 Z0.7
G0 F6000 X133.044 Y104.197 Z0.7
M204 S800
;TYPE:SKIRT
G1 F300 Z0.2
G1 F2400 E0
G1 F1200 X133.337 Y103.829 E0.01897
G1 X133.847 Y103.23 E0.05071
G1 X134.307 Y102.726 E0.07823
G1 X134.808 Y102.213 E0.10715
G1 X135.302 Y101.74 E0.13474
G1 X135.743 Y101.345 E0.15862
G1 X136.397 Y100.796 E0.19306
G1 X136.848 Y100.444 E0.21614
G1 X137.407 Y100.037 E0.24403
G1 X138.144 Y99.539 E0.27991
G1 X138.606 Y99.25 E0.30189
G1 X139.107 Y98.958 E0.32528
G1 X139.892 Y98.533 E0.36129
G1 X140.401 Y98.279 E0.38423
G1 X140.992 Y98.009 E0.41044
G1 X141.76 Y97.69 E0.44399
G1 X142.346 Y97.47 E0.46923
G1 X142.959 Y97.261 E0.49536
G1 X143.724 Y97.029 E0.5276
G1 X144.208 Y96.9 E0.54781
G1 X145.035 Y96.708 E0.58205
G1 X145.624 Y96.592 E0.60627
G1 X146.344 Y96.475 E0.63569
G1 X147.038 Y96.387 E0.66391
G1 X147.872 Y96.311 E0.69769
G1 X148.342 Y96.284 E0.71668
G1 X149.106 Y96.264 E0.7475
G1 X149.866 Y96.27 E0.77816
G1 X150.409 Y96.292 E0.80008
G1 X151.263 Y96.355 E0.83462
G1 X151.733 Y96.406 E0.85369
G1 X152.62 Y96.534 E0.88984
G1 X153.313 Y96.658 E0.91824
G1 X153.908 Y96.786 E0.94279
G1 X154.629 Y96.965 E0.97275
G1 X155.262 Y97.146 E0.99931
G1 X155.987 Y97.38 E1.03004
G1 X156.494 Y97.562 E1.05177
G1 X157.29 Y97.877 E1.0863
G1 X157.787 Y98.093 E1.10815
G1 X158.504 Y98.436 E1.14021
G1 X159.156 Y98.776 E1.16987
G1 X159.641 Y99.05 E1.19234
G1 X160.355 Y99.484 E1.22605
G1 X160.798 Y99.773 E1.24738
G1 X161.434 Y100.221 E1.27876
G1 X162.049 Y100.687 E1.30988
G1 X162.592 Y101.127 E1.33808
G1 X162.951 Y101.439 E1.35726
G1 X163.569 Y102.01 E1.3912
G1 X164.06 Y102.499 E1.41915
G1 X164.593 Y103.066 E1.45054
G1 X164.951 Y103.473 E1.4724
G1 X165.363 Y103.973 E1.49854
G1 X165.957 Y104.748 E1.53792
G1 X166.183 Y105.064 E1.55359
G1 X166.642 Y105.752 E1.58696
G1 X167.036 Y106.39 E1.6172
G1 X167.271 Y106.8 E1.63626
G1 X167.717 Y107.64 E1.67463
G1 X167.92 Y108.056 E1.6933
G1 X168.299 Y108.907 E1.73087
G1 X168.493 Y109.387 E1.75176
G1 X168.74 Y110.058 E1.7806
G1 X168.949 Y110.688 E1.80737
G1 X169.169 Y111.436 E1.83882
G1 X169.322 Y112.032 E1.86364
G1 X169.481 Y112.745 E1.89311
G1 X169.609 Y113.425 E1.92102
G1 X169.703 Y114.039 E1.94607
G1 X169.795 Y114.809 E1.97735
G1 X169.851 Y115.482 E2.00459
G1 X169.887 Y116.201 E2.03363
G1 X169.898 Y116.832 E2.05909
G1 X169.889 Y117.48 E2.08523
G1 X169.85 Y118.258 E2.11665
G1 X169.777 Y119.112 E2.15122
G1 X169.735 Y119.47 E2.16576
G1 X169.608 Y120.313 E2.20015
G1 X169.482 Y120.994 E2.22808
G1 X169.35 Y121.594 E2.25286
G1 X169.151 Y122.367 E2.28506
G1 X168.946 Y123.062 E2.31429
G1 X168.777 Y123.575 E2.33607
G1 X168.509 Y124.306 E2.36748
G1 X168.238 Y124.969 E2.39637
G1 X167.91 Y125.697 E2.42858
G1 X167.666 Y126.196 E2.45098
G1 X167.34 Y126.81 E2.47902
G1 X166.922 Y127.536 E2.51281
G1 X166.657 Y127.961 E2.53302
G1 X166.202 Y128.643 E2.56608
G1 X165.879 Y129.095 E2.58849
G1 X165.357 Y129.772 E2.62298
G1 X165.035 Y130.164 E2.64344
G1 X164.507 Y130.765 E2.67571
G1 X164.104 Y131.194 E2.69945
G1 X163.501 Y131.792 E2.7337
G1 X163.022 Y132.235 E2.76002
G1 X162.616 Y132.586 E2.78167
G1 X161.897 Y133.169 E2.81901
G1 X161.447 Y133.508 E2.84173
G1 X160.884 Y133.904 E2.8695
G1 X160.254 Y134.315 E2.89984
G1 X159.649 Y134.681 E2.92836
G1 X159.093 Y134.994 E2.9541
G1 X158.502 Y135.301 E2.98096
G1 X157.804 Y135.633 E3.01214
G1 X157.214 Y135.889 E3.03808
G1 X156.54 Y136.156 E3.06732
G1 X155.908 Y136.382 E3.09439
G1 X155.177 Y136.615 E3.12534
G1 X154.643 Y136.766 E3.14773
G1 X153.885 Y136.954 E3.17923
G1 X153.241 Y137.091 E3.20578
G1 X152.57 Y137.211 E3.23328
G1 X151.92 Y137.304 E3.25977
G1 X151.106 Y137.393 E3.29279
G1 X150.505 Y137.437 E3.3171
G1 X149.783 Y137.467 E3.34625
G1 X149.142 Y137.473 E3.37211
G1 X148.481 Y137.456 E3.39878
G1 X147.594 Y137.403 E3.43462
G1 X147.15 Y137.362 E3.4526
G1 X146.308 Y137.256 E3.48684
G1 X145.764 Y137.17 E3.50905
G1 X144.966 Y137.015 E3.54184
G1 X144.304 Y136.861 E3.56926
G1 X143.774 Y136.72 E3.59138
G1 X142.875 Y136.448 E3.62926
G1 X142.299 Y136.251 E3.65382
G1 X141.787 Y136.058 E3.67589
G1 X141.045 Y135.75 E3.7083
G1 X140.401 Y135.457 E3.73683
G1 X139.923 Y135.22 E3.75835
G1 X139.139 Y134.798 E3.79427
G1 X138.654 Y134.514 E3.81694
G1 X137.967 Y134.081 E3.84969
G1 X137.474 Y133.747 E3.87371
G1 X136.854 Y133.295 E3.90466
G1 X136.366 Y132.914 E3.92964
G1 X135.736 Y132.386 E3.96279
G1 X135.342 Y132.034 E3.9841
G1 X134.768 Y131.483 E4.0162
G1 X134.244 Y130.944 E4.04652
G1 X133.881 Y130.545 E4.06828
G1 X133.351 Y129.923 E4.10124
G1 X132.978 Y129.454 E4.12541
G1 X132.54 Y128.864 E4.15505
G1 X132.145 Y128.292 E4.18309
G1 X131.796 Y127.752 E4.20902
G1 X131.427 Y127.132 E4.23813
G1 X131.1 Y126.542 E4.26534
G1 X130.712 Y125.775 E4.30001
G1 X130.49 Y125.295 E4.32134
G1 X130.235 Y124.7 E4.34745
G1 X129.928 Y123.907 E4.38175
G1 X129.73 Y123.339 E4.40601
G1 X129.563 Y122.811 E4.42835
G1 X129.317 Y121.921 E4.4656
G1 X129.184 Y121.362 E4.48877
G1 X129.056 Y120.745 E4.51419
G1 X128.911 Y119.889 E4.54921
G1 X128.834 Y119.32 E4.57237
G1 X128.757 Y118.551 E4.60354
G1 X128.711 Y117.856 E4.63164
G1 X128.692 Y117.279 E4.65493
G1 X128.691 Y116.474 E4.6874
G1 X128.71 Y115.905 E4.71036
G1 X128.762 Y115.119 E4.74213
G1 X128.828 Y114.461 E4.76881
G1 X128.922 Y113.767 E4.79706
G1 X129.039 Y113.072 E4.82549
G1 X129.171 Y112.425 E4.85212
G1 X129.324 Y111.786 E4.87862
G1 X129.531 Y111.035 E4.91005
G1 X129.691 Y110.516 E4.93195
G1 X129.96 Y109.74 E4.96508
G1 X130.204 Y109.11 E4.99233
G1 X130.504 Y108.408 E5.02313
G1 X130.775 Y107.83 E5.04888
G1 X131.015 Y107.354 E5.07038
G1 X131.411 Y106.63 E5.10366
G1 X131.728 Y106.097 E5.12868
G1 X132.256 Y105.274 E5.16812
G1 X132.437 Y105.015 E5.18087
G1 X132.632 Y104.753 E5.19404
G0 F1080 X133.044 Y104.197
M204 S500
G0 F6000 X133.405 Y104.485
M204 S800
G1 F1200 X133.698 Y104.117 E5.21301
G1 X134.189 Y103.541 E5.24354
G1 X134.597 Y103.092 E5.26801
G1 X135.177 Y102.498 E5.3015
G1 X135.61 Y102.084 E5.32567
G1 X136.051 Y101.689 E5.34955
G1 X136.682 Y101.16 E5.38276
G1 X137.133 Y100.808 E5.40584
G1 X137.666 Y100.42 E5.43243
G1 X138.342 Y99.962 E5.46536
G1 X138.84 Y99.649 E5.48909
G1 X139.327 Y99.365 E5.51183
G1 X140.161 Y98.914 E5.55007
G1 X140.542 Y98.724 E5.56725
G1 X141.236 Y98.407 E5.59802
G1 X141.923 Y98.122 E5.62802
G1 X142.446 Y97.925 E5.65057
G1 X143.162 Y97.681 E5.68108
G1 X143.789 Y97.491 E5.7075
G1 X144.381 Y97.333 E5.73222
G1 X145.139 Y97.158 E5.7636
G1 X145.766 Y97.036 E5.78936
G1 X146.472 Y96.923 E5.8182
G1 X147.023 Y96.853 E5.84061
G1 X147.841 Y96.777 E5.87374
G1 X148.418 Y96.744 E5.89706
G1 X149.102 Y96.726 E5.92466
G1 X149.919 Y96.733 E5.95761
G1 X150.389 Y96.753 E5.97659
G1 X151.214 Y96.815 E6.00996
G1 X151.741 Y96.873 E6.03134
G1 X152.485 Y96.98 E6.06166
G1 X153.217 Y97.11 E6.09165
G1 X153.743 Y97.222 E6.11334
G1 X154.575 Y97.429 E6.14793
G1 X155.121 Y97.586 E6.17084
G1 X155.831 Y97.815 E6.20093
G1 X156.388 Y98.016 E6.22482
G1 X157.106 Y98.301 E6.25598
G1 X157.603 Y98.517 E6.27784
G1 X158.291 Y98.846 E6.3086
G1 X158.929 Y99.179 E6.33763
G1 X159.401 Y99.445 E6.35948
G1 X160.115 Y99.879 E6.39318
G1 X160.591 Y100.191 E6.41614
G1 X161.156 Y100.59 E6.44404
G1 X161.759 Y101.047 E6.47456
G1 X162.289 Y101.476 E6.50206
G1 X162.684 Y101.82 E6.52319
G1 X163.199 Y102.295 E6.55145
G1 X163.724 Y102.816 E6.58129
G1 X164.207 Y103.328 E6.60968
G1 X164.604 Y103.778 E6.63388
G1 X164.996 Y104.255 E6.65879
G1 X165.581 Y105.017 E6.69754
G1 X165.837 Y105.376 E6.71532
G1 X166.218 Y105.946 E6.74298
G1 X166.635 Y106.62 E6.77495
G1 X166.87 Y107.03 E6.79401
G1 X167.301 Y107.842 E6.83109
G1 X167.529 Y108.311 E6.85212
G1 X167.871 Y109.081 E6.88611
G1 X168.059 Y109.546 E6.90634
G1 X168.306 Y110.217 E6.93518
G1 X168.527 Y110.886 E6.9636
G1 X168.721 Y111.55 E6.9915
G1 X168.887 Y112.2 E7.01856
G1 X169.03 Y112.845 E7.04521
G1 X169.152 Y113.495 E7.07189
G1 X169.246 Y114.109 E7.09694
G1 X169.328 Y114.788 E7.12453
G1 X169.394 Y115.575 E7.15639
G1 X169.425 Y116.209 E7.18199
G1 X169.436 Y116.895 E7.20966
G1 X169.427 Y117.473 E7.23298
G1 X169.394 Y118.159 E7.26068
G1 X169.318 Y119.058 E7.29707
G1 X169.276 Y119.416 E7.31161
G1 X169.142 Y120.299 E7.34764
G1 X169.041 Y120.842 E7.36992
G1 X168.885 Y121.552 E7.39924
G1 X168.723 Y122.181 E7.42544
G1 X168.487 Y122.98 E7.45904
G1 X168.343 Y123.416 E7.47756
G1 X168.075 Y124.147 E7.50897
G1 X167.817 Y124.779 E7.5365
G1 X167.516 Y125.449 E7.56613
G1 X167.257 Y125.98 E7.58996
G1 X166.939 Y126.58 E7.61735
G1 X166.558 Y127.244 E7.64823
G1 X166.273 Y127.704 E7.67006
G1 X165.788 Y128.43 E7.70528
G1 X165.548 Y128.766 E7.72193
G1 X165.033 Y129.437 E7.75605
G1 X164.641 Y129.914 E7.78095
G1 X164.123 Y130.501 E7.81253
G1 X163.768 Y130.878 E7.83342
G1 X163.224 Y131.417 E7.86431
G1 X162.719 Y131.886 E7.89211
G1 X162.273 Y132.271 E7.91587
G1 X161.619 Y132.8 E7.9498
G1 X161.169 Y133.139 E7.97253
G1 X160.677 Y133.486 E7.99681
G1 X160.014 Y133.92 E8.02878
G1 X159.421 Y134.279 E8.05674
G1 X158.88 Y134.584 E8.08179
G1 X158.289 Y134.891 E8.10865
G1 X157.671 Y135.186 E8.13627
G1 X157.043 Y135.46 E8.16391
G1 X156.435 Y135.702 E8.19031
G1 X155.823 Y135.923 E8.21655
G1 X155.05 Y136.171 E8.2493
G1 X154.531 Y136.318 E8.27106
G1 X153.846 Y136.489 E8.29954
G1 X153.145 Y136.639 E8.32845
G1 X152.561 Y136.744 E8.35239
G1 X151.801 Y136.853 E8.38335
G1 X151.129 Y136.927 E8.41062
G1 X150.485 Y136.975 E8.43667
G1 X149.778 Y137.005 E8.46522
G1 X149.137 Y137.011 E8.49107
G1 X148.508 Y136.995 E8.51645
G1 X147.637 Y136.943 E8.55165
G1 X147.138 Y136.896 E8.57186
G1 X146.381 Y136.8 E8.60264
G1 X145.78 Y136.704 E8.62719
G1 X145.131 Y136.578 E8.65386
G1 X144.36 Y136.399 E8.68579
G1 X143.907 Y136.278 E8.7047
G1 X143.08 Y136.029 E8.73954
G1 X142.462 Y135.819 E8.76586
G1 X141.95 Y135.626 E8.78794
G1 X141.223 Y135.324 E8.81969
G1 X140.606 Y135.043 E8.84704
G1 X140.128 Y134.806 E8.86856
G1 X139.306 Y134.362 E8.90624
G1 X138.901 Y134.123 E8.92521
G1 X138.168 Y133.66 E8.96018
G1 X137.746 Y133.373 E8.98077
G1 X137.082 Y132.888 E9.01393
G1 X136.707 Y132.595 E9.03313
G1 X135.991 Y131.995 E9.07081
G1 X135.61 Y131.652 E9.09149
G1 X135.099 Y131.161 E9.12007
G1 X134.625 Y130.675 E9.14746
G1 X134.188 Y130.194 E9.17367
G1 X133.749 Y129.679 E9.20096
G1 X133.307 Y129.123 E9.22961
G1 X132.92 Y128.601 E9.25583
G1 X132.525 Y128.029 E9.28386
G1 X132.153 Y127.451 E9.31159
G1 X131.831 Y126.908 E9.33705
G1 X131.504 Y126.318 E9.36426
G1 X131.155 Y125.63 E9.39538
G1 X130.915 Y125.113 E9.41837
G1 X130.638 Y124.464 E9.44684
G1 X130.364 Y123.755 E9.4775
G1 X130.15 Y123.139 E9.5038
G1 X130.003 Y122.672 E9.52355
G1 X129.762 Y121.799 E9.56008
G1 X129.646 Y121.312 E9.58027
G1 X129.497 Y120.591 E9.60997
G1 X129.377 Y119.881 E9.63901
G1 X129.285 Y119.201 E9.66669
G1 X129.222 Y118.573 E9.69215
G1 X129.173 Y117.84 E9.72178
G1 X129.153 Y117.211 E9.74717
G1 X129.153 Y116.49 E9.77625
G1 X129.172 Y115.921 E9.79921
G1 X129.227 Y115.096 E9.83256
G1 X129.279 Y114.578 E9.85356
G1 X129.378 Y113.843 E9.88348
G1 X129.495 Y113.148 E9.91191
G1 X129.621 Y112.532 E9.93727
G1 X129.769 Y111.909 E9.9631
G1 X129.976 Y111.158 E9.99452
G1 X130.132 Y110.653 E10.01584
G1 X130.416 Y109.837 E10.05069
G1 X130.629 Y109.291 E10.07433
G1 X130.898 Y108.659 E10.10204
G1 X131.215 Y107.982 E10.13219
G1 X131.453 Y107.514 E10.15337
G1 X131.816 Y106.852 E10.18382
G1 X132.152 Y106.29 E10.21023
G1 X132.634 Y105.539 E10.24623
G1 X132.815 Y105.28 E10.25897
G1 X132.993 Y105.04 E10.27102
G0 F1080 X133.405 Y104.485
M204 S500
G0 F6000 X133.767 Y104.773
M204 S800
G1 F1200 X134.085 Y104.374 E10.2916
G1 X134.531 Y103.852 E10.3193
G1 X134.968 Y103.371 E10.34551
G1 X135.469 Y102.858 E10.37444
G1 X135.918 Y102.428 E10.39951
G1 X136.388 Y102.008 E10.42494
G1 X136.933 Y101.551 E10.45363
G1 X137.448 Y101.149 E10.47998
G1 X137.925 Y100.802 E10.50377
G1 X138.635 Y100.322 E10.53834
G1 X139.073 Y100.047 E10.5592
G1 X139.512 Y99.79 E10.57972
G1 X140.368 Y99.327 E10.61898
G1 X140.785 Y99.12 E10.63775
G1 X141.413 Y98.834 E10.66559
G1 X142.085 Y98.555 E10.69494
G1 X142.644 Y98.345 E10.71902
G1 X143.296 Y98.123 E10.74681
G1 X143.962 Y97.922 E10.77487
G1 X144.446 Y97.793 E10.79507
G1 X145.283 Y97.6 E10.82972
G1 X145.839 Y97.492 E10.85256
G1 X146.491 Y97.387 E10.8792
G1 X147.123 Y97.307 E10.9049
G1 X147.925 Y97.234 E10.93738
G1 X148.431 Y97.205 E10.95783
G1 X149.057 Y97.188 E10.98309
G1 X149.9 Y97.195 E11.01709
G1 X150.407 Y97.217 E11.03756
G1 X151.164 Y97.274 E11.06818
G1 X151.675 Y97.33 E11.08892
G1 X152.458 Y97.443 E11.12083
G1 X153.12 Y97.562 E11.14796
G1 X153.685 Y97.683 E11.17126
G1 X154.447 Y97.873 E11.20294
G1 X154.98 Y98.026 E11.22531
G1 X155.675 Y98.25 E11.25476
G1 X156.218 Y98.446 E11.27805
G1 X156.922 Y98.725 E11.30859
G1 X157.419 Y98.941 E11.33045
G1 X158.078 Y99.256 E11.35991
G1 X158.703 Y99.582 E11.38835
G1 X159.161 Y99.84 E11.40955
G1 X159.909 Y100.295 E11.44487
G1 X160.325 Y100.568 E11.46494
G1 X160.845 Y100.934 E11.49059
G1 X161.469 Y101.406 E11.52214
G1 X161.986 Y101.825 E11.54899
G1 X162.371 Y102.16 E11.56957
G1 X162.886 Y102.635 E11.59783
G1 X163.388 Y103.133 E11.62635
G1 X163.899 Y103.676 E11.65643
G1 X164.282 Y104.112 E11.67984
G1 X164.63 Y104.536 E11.70196
G1 X165.181 Y105.253 E11.73844
G1 X165.453 Y105.633 E11.75729
G1 X165.857 Y106.238 E11.78663
G1 X166.214 Y106.815 E11.814
G1 X166.487 Y107.293 E11.83621
G1 X166.886 Y108.045 E11.87054
G1 X167.107 Y108.499 E11.89091
G1 X167.443 Y109.255 E11.92428
G1 X167.626 Y109.706 E11.94391
G1 X167.886 Y110.415 E11.97437
G1 X168.084 Y111.016 E11.9999
G1 X168.274 Y111.665 E12.02717
G1 X168.436 Y112.3 E12.05361
G1 X168.579 Y112.945 E12.08026
G1 X168.695 Y113.564 E12.10566
G1 X168.795 Y114.217 E12.13231
G1 X168.87 Y114.843 E12.15774
G1 X168.933 Y115.598 E12.1883
G1 X168.963 Y116.217 E12.21329
G1 X168.974 Y116.888 E12.24036
G1 X168.964 Y117.506 E12.2653
G1 X168.93 Y118.179 E12.29248
G1 X168.859 Y119.004 E12.32588
G1 X168.812 Y119.402 E12.34204
G1 X168.695 Y120.175 E12.37358
G1 X168.579 Y120.795 E12.39902
G1 X168.437 Y121.437 E12.42554
G1 X168.264 Y122.106 E12.45341
G1 X168.048 Y122.836 E12.48412
G1 X167.909 Y123.257 E12.502
G1 X167.641 Y123.988 E12.53341
G1 X167.395 Y124.59 E12.55964
G1 X167.079 Y125.293 E12.59073
G1 X166.849 Y125.764 E12.61187
G1 X166.539 Y126.35 E12.63861
G1 X166.137 Y127.049 E12.67114
G1 X165.91 Y127.415 E12.68851
G1 X165.412 Y128.161 E12.72469
G1 X165.147 Y128.531 E12.74305
G1 X164.643 Y129.185 E12.77635
G1 X164.294 Y129.609 E12.7985
G1 X163.787 Y130.184 E12.82942
G1 X163.432 Y130.561 E12.85031
G1 X162.872 Y131.115 E12.88209
G1 X162.449 Y131.508 E12.90538
G1 X161.982 Y131.912 E12.93028
G1 X161.341 Y132.431 E12.96355
G1 X160.86 Y132.793 E12.98783
G1 X160.378 Y133.131 E13.01158
G1 X159.775 Y133.525 E13.04063
G1 X159.194 Y133.877 E13.06804
G1 X158.667 Y134.174 E13.09244
G1 X158.076 Y134.481 E13.1193
G1 X157.435 Y134.786 E13.14793
G1 X156.907 Y135.016 E13.17116
G1 X156.227 Y135.286 E13.20067
G1 X155.626 Y135.502 E13.22643
G1 X154.924 Y135.726 E13.25616
G1 X154.419 Y135.869 E13.27733
G1 X153.693 Y136.05 E13.30751
G1 X153.049 Y136.187 E13.33407
G1 X152.439 Y136.296 E13.35906
G1 X151.751 Y136.394 E13.38709
G1 X151.037 Y136.472 E13.41606
G1 X150.465 Y136.514 E13.4392
G1 X149.774 Y136.543 E13.4671
G1 X149.092 Y136.549 E13.49461
G1 X148.535 Y136.534 E13.51708
G1 X147.679 Y136.483 E13.55167
G1 X147.196 Y136.438 E13.57124
G1 X146.49 Y136.349 E13.59994
