;FLAVOR:Marlin
;TIME:1750
;Filament used: 0.779799m
;Layer height: 0.18
;MINX:129.164
;MINY:68.81
;MINZ:0.2
;MAXX:179.741
;MAXY:127.646
;MAXZ:4.52
;Generated with Cura_SteamEngine 5.2.2
M140 S100
M105
M190 S100
M104 S240
M105
M109 S240
M82 ;absolute extrusion mode
G28; Fahr zum Nullpunkt
G29; Probe Time
G92 E0; setze den Extruder auf Null
M 501; Daten aus EEProm lesen
M 420 S1; Bettnivelierung Aktivieren
G1 Z2.0 F3000; Druckkopf 2mm nach oben fahren
G1 X10.1 Y20 Z0.28 F5000.0; Fahre an die Startposition X10.1 Y20 Z0.28
G1 X10.1 Y200.0 Z0.28 F1500.0 E15; Ziehe eine Linie von der Startposition aus nach Y200
G1 X10.4 Y200.0 Z0.28 F5000.0; Bissl zur Seite bewegen
G1 X10.4 Y20 Z0.28 F1500.0 E30; eine 2. Linie nach vorne ziehen
G92 E0; setze den Extruder auf Null
G1 Z1.0 F3000; Fahr die Düse 2mm nach oben
G92 E0
G92 E0
G1 F2400 E-0.8
;LAYER_COUNT:25
;LAYER:0
M107
M204 S500
M205 X8 Y8
G1 F300 Z0.7
G0 F6000 X129.344 Y70.104 Z0.7
M204 S800
;TYPE:SKIRT
G1 F300 Z0.2
G1 F2400 E0
G1 F1200 X129.542 Y69.743 E0.01661
G1 X129.805 Y69.428 E0.03316
G1 X130.125 Y69.169 E0.04977
G1 X130.488 Y68.977 E0.06633
G1 X130.882 Y68.859 E0.08292
G1 X131.231 Y68.82 E0.09708
G1 X131.611 Y68.81 E0.11242
G1 X133.304 Y68.81 E0.18071
G1 X134.008 Y68.82 E0.20911
G1 X134.365 Y68.856 E0.22358
G1 X135.621 Y69.089 E0.27511
G1 X138.393 Y69.564 E0.38855
G1 X141.136 Y69.954 E0.5003
G1 X143.873 Y70.266 E0.61142
G1 X146.599 Y70.497 E0.72177
G1 X149.412 Y70.656 E0.83542
G1 X152.155 Y70.734 E0.9461
G1 X154.934 Y70.734 E1.0582
G1 X157.677 Y70.656 E1.16888
G1 X160.486 Y70.497 E1.28237
G1 X163.223 Y70.264 E1.39317
G1 X165.946 Y69.955 E1.50371
G1 X168.7 Y69.562 E1.61592
G1 X171.449 Y69.091 E1.72842
G1 X172.167 Y68.95 E1.75794
G1 X172.712 Y68.853 E1.78026
G1 X173.045 Y68.82 E1.79376
G1 X173.605 Y68.81 E1.81635
G1 X174.601 Y68.81 E1.85653
G1 X175.299 Y68.819 E1.88469
G1 X175.708 Y68.864 E1.90128
G1 X176.1 Y68.988 E1.91787
G1 X176.461 Y69.184 E1.93444
G1 X176.777 Y69.447 E1.95102
G1 X177.036 Y69.766 E1.96759
G1 X177.229 Y70.129 E1.98418
G1 X177.348 Y70.522 E2.00074
G1 X177.388 Y70.877 E2.01515
G1 X177.398 Y71.257 E2.03048
G1 X177.398 Y78.089 E2.30606
G1 X177.388 Y78.806 E2.33498
G1 X177.348 Y79.413 E2.35952
G1 X177.192 Y81.232 E2.43316
G1 X177.032 Y84.056 E2.54725
G1 X176.954 Y86.79 E2.65758
G1 X176.952 Y89.568 E2.76963
G1 X177.028 Y92.3 E2.87987
G1 X177.187 Y95.12 E2.9938
G1 X177.416 Y97.822 E3.10318
G1 X177.732 Y100.613 E3.21648
G1 X178.119 Y103.335 E3.32738
G1 X178.588 Y106.081 E3.43975
G1 X179.127 Y108.772 E3.55045
G1 X179.458 Y110.265 E3.61213
G1 X179.676 Y111.204 E3.65101
G1 X179.73 Y111.617 E3.66781
G1 X179.741 Y112.03 E3.68448
G1 X179.731 Y113.051 E3.72566
G1 X179.731 Y115.859 E3.83893
G1 X179.741 Y116.563 E3.86733
G1 X179.741 Y124.819 E4.20034
G1 X179.732 Y125.546 E4.22967
G1 X179.687 Y125.955 E4.24627
G1 X179.564 Y126.347 E4.26284
G1 X179.367 Y126.708 E4.27943
G1 X179.105 Y127.024 E4.29599
G1 X178.786 Y127.284 E4.31259
G1 X178.423 Y127.477 E4.32917
G1 X178.03 Y127.596 E4.34573
G1 X177.674 Y127.636 E4.36018
G1 X177.294 Y127.646 E4.37551
G1 X134.204 Y127.646 E6.1136
G1 X133.506 Y127.637 E6.14176
G1 X133.097 Y127.592 E6.15836
G1 X132.705 Y127.468 E6.17494
G1 X132.344 Y127.272 E6.19151
G1 X132.028 Y127.009 E6.20809
G1 X131.769 Y126.69 E6.22467
G1 X131.576 Y126.327 E6.24125
G1 X131.457 Y125.934 E6.25781
G1 X131.417 Y125.577 E6.2723
G1 X131.407 Y125.187 E6.28804
G1 X131.407 Y116.974 E6.61932
G1 X131.417 Y116.297 E6.64663
G1 X131.417 Y113.499 E6.75949
G1 X131.407 Y112.321 E6.80701
G1 X131.424 Y111.511 E6.83969
G1 X131.646 Y108.881 E6.94615
G1 X131.804 Y106.089 E7.05895
G1 X131.882 Y103.356 E7.16923
G1 X131.882 Y100.573 E7.28149
G1 X131.806 Y97.845 E7.39157
G1 X131.647 Y95.022 E7.50562
G1 X131.417 Y92.321 E7.61496
G1 X131.101 Y89.53 E7.72826
G1 X130.718 Y86.831 E7.83822
G1 X130.24 Y84.044 E7.95228
G1 X129.696 Y81.328 E8.06401
G1 X129.225 Y79.241 E8.1503
G1 X129.174 Y78.835 E8.16681
G1 X129.164 Y78.455 E8.18214
G1 X129.164 Y71.569 E8.4599
G1 X129.174 Y70.904 E8.48672
G1 X129.189 Y70.775 E8.49196
G0 F1080 X129.22 Y70.496
G0 X129.344 Y70.104
M204 S500
G0 F6000 X129.804 Y70.209
M204 S800
G1 F1200 X129.999 Y69.902 E8.50663
G1 X130.256 Y69.645 E8.52129
G1 X130.562 Y69.45 E8.53593
G1 X130.904 Y69.327 E8.55059
G1 X131.244 Y69.282 E8.56442
G1 X131.611 Y69.272 E8.57923
G1 X133.298 Y69.272 E8.64728
G1 X134.002 Y69.282 E8.67568
G1 X134.281 Y69.31 E8.68699
G1 X135.562 Y69.548 E8.73954
G1 X138.284 Y70.015 E8.85094
G1 X141.085 Y70.413 E8.96506
G1 X143.813 Y70.724 E9.07581
G1 X146.605 Y70.961 E9.18883
G1 X149.373 Y71.118 E9.30066
G1 X152.142 Y71.196 E9.4124
G1 X154.947 Y71.196 E9.52554
G1 X157.716 Y71.118 E9.63728
G1 X160.484 Y70.961 E9.74911
G1 X163.276 Y70.723 E9.86214
G1 X166.032 Y70.41 E9.97402
G1 X168.768 Y70.02 E10.08549
G1 X171.534 Y69.546 E10.19869
G1 X172.248 Y69.405 E10.22804
G1 X172.793 Y69.308 E10.25037
G1 X173.053 Y69.282 E10.26091
G1 X173.613 Y69.272 E10.28351
G1 X174.595 Y69.272 E10.32312
G1 X175.293 Y69.281 E10.35127
G1 X175.654 Y69.326 E10.36595
G1 X175.996 Y69.448 E10.38059
G1 X176.303 Y69.642 E10.39524
G1 X176.561 Y69.898 E10.4099
G1 X176.756 Y70.204 E10.42454
G1 X176.88 Y70.546 E10.43921
G1 X176.926 Y70.89 E10.45321
G1 X176.936 Y71.257 E10.46802
G1 X176.936 Y78.082 E10.74331
G1 X176.926 Y78.799 E10.77224
G1 X176.888 Y79.373 E10.79544
G1 X176.727 Y81.253 E10.87155
G1 X176.571 Y84.007 E10.98282
G1 X176.492 Y86.764 E11.09407
G1 X176.49 Y89.592 E11.20814
G1 X176.567 Y92.35 E11.31943
G1 X176.722 Y95.102 E11.43061
G1 X176.957 Y97.874 E11.54282
G1 X177.272 Y100.662 E11.656
G1 X177.667 Y103.438 E11.7691
G1 X178.128 Y106.134 E11.87942
G1 X178.676 Y108.873 E11.99209
G1 X179.008 Y110.366 E12.05379
G1 X179.226 Y111.308 E12.09279
G1 X179.268 Y111.631 E12.10593
G1 X179.279 Y112.025 E12.12182
G1 X179.269 Y113.046 E12.16301
G1 X179.269 Y115.859 E12.27648
G1 X179.279 Y116.569 E12.30512
G1 X179.279 Y124.813 E12.63765
G1 X179.27 Y125.54 E12.66698
G1 X179.226 Y125.901 E12.68165
G1 X179.104 Y126.243 E12.69629
G1 X178.91 Y126.551 E12.71097
G1 X178.654 Y126.808 E12.72561
G1 X178.348 Y127.004 E12.74026
G1 X178.006 Y127.128 E12.75494
G1 X177.661 Y127.174 E12.76898
G1 X177.294 Y127.184 E12.78379
G1 X134.21 Y127.184 E14.52163
G1 X133.512 Y127.175 E14.54979
G1 X133.151 Y127.13 E14.56446
G1 X132.809 Y127.008 E14.57911
G1 X132.502 Y126.814 E14.59376
G1 X132.244 Y126.558 E14.60842
G1 X132.049 Y126.252 E14.62305
G1 X131.925 Y125.91 E14.63773
G1 X131.879 Y125.565 E14.65177
G1 X131.869 Y125.187 E14.66702
G1 X131.869 Y116.981 E14.99802
G1 X131.879 Y116.304 E15.02533
G1 X131.879 Y113.499 E15.13847
G1 X131.869 Y112.328 E15.18571
G1 X131.879 Y111.664 E15.21249
G1 X132.109 Y108.894 E15.32461
G1 X132.265 Y106.134 E15.43612
G1 X132.344 Y103.382 E15.54717
G1 X132.344 Y100.554 E15.66124
G1 X132.267 Y97.795 E15.77257
G1 X132.112 Y95.043 E15.88375
G1 X131.872 Y92.223 E15.99791
G1 X131.564 Y89.507 E16.10816
G1 X131.166 Y86.706 E16.22228
G1 X130.704 Y84.011 E16.33257
G1 X130.149 Y81.238 E16.44664
G1 X129.676 Y79.139 E16.53343
G1 X129.636 Y78.822 E16.54632
G1 X129.626 Y78.455 E16.56113
G1 X129.626 Y71.576 E16.8386
G1 X129.636 Y70.911 E16.86543
G1 X129.641 Y70.878 E16.86677
G0 F1080 X129.681 Y70.551
G0 X129.804 Y70.209
M204 S500
G0 F6000 X130.264 Y70.329
M204 S800
G1 F1200 X130.453 Y70.086 E16.87919
G1 X130.699 Y69.9 E16.89163
G1 X130.984 Y69.783 E16.90406
G1 X131.257 Y69.743 E16.91519
G1 X131.577 Y69.734 E16.9281
G1 X133.291 Y69.734 E16.99724
G1 X134.096 Y69.745 E17.02971
G1 X135.465 Y70 E17.08588
G1 X138.247 Y70.477 E17.19973
G1 X141.011 Y70.87 E17.31234
G1 X143.762 Y71.183 E17.42403
G1 X146.577 Y71.422 E17.53798
G1 X149.337 Y71.578 E17.64949
G1 X152.164 Y71.658 E17.76356
G1 X154.925 Y71.658 E17.87493
G1 X157.752 Y71.578 E17.98901
G1 X160.512 Y71.422 E18.10051
G1 X163.327 Y71.182 E18.21447
G1 X166.079 Y70.87 E18.32619
G1 X168.841 Y70.476 E18.43872
G1 X171.624 Y69.999 E18.55262
G1 X172.329 Y69.859 E18.58161
G1 X172.965 Y69.746 E18.60766
G1 X173.622 Y69.734 E18.63417
G1 X174.589 Y69.734 E18.67317
G1 X175.287 Y69.743 E18.70133
G1 X175.593 Y69.787 E18.7138
G1 X175.876 Y69.907 E18.7262
G1 X176.12 Y70.097 E18.73867
G1 X176.307 Y70.342 E18.75111
G1 X176.424 Y70.627 E18.76353
G1 X176.465 Y70.903 E18.77479
G1 X176.474 Y71.224 E18.78774
G1 X176.474 Y78.076 E19.06413
G1 X176.464 Y78.793 E19.09305
G1 X176.428 Y79.334 E19.11492
G1 X176.267 Y81.214 E19.19103
G1 X176.111 Y83.97 E19.30237
G1 X176.03 Y86.797 E19.41645
G1 X176.028 Y89.558 E19.52782
G1 X176.107 Y92.386 E19.64193
G1 X176.262 Y95.141 E19.75324
G1 X176.501 Y97.959 E19.86731
G1 X176.811 Y100.703 E19.9787
G1 X177.204 Y103.47 E20.09143
G1 X177.675 Y106.225 E20.20417
G1 X178.225 Y108.973 E20.31721
G1 X178.557 Y110.466 E20.3789
G1 X178.802 Y111.526 E20.42279
G1 X178.817 Y112.021 E20.44276
G1 X178.807 Y113.042 E20.48395
G1 X178.807 Y115.859 E20.59758
G1 X178.817 Y116.576 E20.6265
G1 X178.817 Y124.808 E20.95855
G1 X178.808 Y125.535 E20.98787
G1 X178.764 Y125.84 E21.0003
G1 X178.644 Y126.124 E21.01274
G1 X178.455 Y126.367 E21.02516
G1 X178.21 Y126.554 E21.03759
G1 X177.925 Y126.672 E21.05003
G1 X177.648 Y126.713 E21.06133
G1 X177.327 Y126.722 E21.07428
G1 X134.216 Y126.722 E22.81321
G1 X133.518 Y126.713 E22.84137
G1 X133.212 Y126.669 E22.85384
G1 X132.929 Y126.549 E22.86624
G1 X132.685 Y126.359 E22.87871
G1 X132.498 Y126.114 E22.89115
G1 X132.381 Y125.829 E22.90357
G1 X132.34 Y125.552 E22.91487
G1 X132.331 Y125.219 E22.9283
G1 X132.331 Y116.987 E23.26035
G1 X132.341 Y116.31 E23.28766
G1 X132.341 Y113.499 E23.40105
G1 X132.331 Y112.335 E23.448
G1 X132.345 Y111.589 E23.4781
G1 X132.569 Y108.933 E23.58561
G1 X132.725 Y106.175 E23.69704
G1 X132.806 Y103.348 E23.81111
G1 X132.806 Y100.587 E23.92248
G1 X132.727 Y97.759 E24.0366
G1 X132.572 Y95.004 E24.1479
G1 X132.332 Y92.184 E24.26206
G1 X132.022 Y89.442 E24.37337
G1 X131.629 Y86.675 E24.4861
G1 X131.151 Y83.888 E24.60015
G1 X130.602 Y81.147 E24.71291
G1 X130.1 Y78.923 E24.80488
G1 X130.088 Y78.489 E24.82239
G1 X130.088 Y71.583 E25.10095
G1 X130.097 Y70.994 E25.12471
G0 F1080 X130.098 Y70.918
G0 X130.143 Y70.613
G0 X130.264 Y70.329
M204 S500
G0 F6000 X130.721 Y70.478
M204 S800
G1 F1200 X130.901 Y70.318 E25.13443
G1 X131.162 Y70.208 E25.14585
G1 X131.59 Y70.196 E25.16312
G1 X133.284 Y70.196 E25.23145
G1 X134.053 Y70.207 E25.26247
G1 X135.397 Y70.458 E25.31762
G1 X138.154 Y70.93 E25.43045
G1 X140.955 Y71.328 E25.54456
G1 X143.736 Y71.645 E25.65746
G1 X146.52 Y71.881 E25.77016
G1 X149.329 Y72.04 E25.88365
G1 X152.151 Y72.12 E25.99752
G1 X154.938 Y72.12 E26.10994
G1 X157.76 Y72.04 E26.22382
G1 X160.569 Y71.881 E26.3373
G1 X163.356 Y71.644 E26.45012
G1 X166.135 Y71.328 E26.56294
G1 X168.935 Y70.929 E26.67702
G1 X171.684 Y70.458 E26.78952
G1 X172.41 Y70.314 E26.81938
G1 X173.011 Y70.207 E26.844
G1 X173.63 Y70.196 E26.86897
G1 X174.583 Y70.196 E26.90741
G1 X175.281 Y70.205 E26.93557
G1 X175.519 Y70.248 E26.94533
G1 X175.729 Y70.365 E26.95502
G1 X175.89 Y70.545 E26.96476
G1 X176 Y70.807 E26.97623
G1 X176.012 Y71.237 E26.99358
G1 X176.012 Y78.069 E27.26915
G1 X176.002 Y78.786 E27.29808
G1 X175.967 Y79.294 E27.31862
G1 X175.808 Y81.153 E27.39388
G1 X175.648 Y83.977 E27.50797
G1 X175.568 Y86.784 E27.62124
G1 X175.566 Y89.571 E27.73366
G1 X175.644 Y92.378 E27.84692
G1 X175.803 Y95.201 E27.96097
G1 X176.038 Y97.978 E28.07339
G1 X176.354 Y100.768 E28.18664
G1 X176.749 Y103.548 E28.2999
G1 X177.226 Y106.336 E28.414
G1 X177.774 Y109.073 E28.52659
G1 X178.105 Y110.566 E28.58827
G1 X178.343 Y111.59 E28.63068
G1 X178.355 Y112.016 E28.64787
G1 X178.345 Y113.037 E28.68905
G1 X178.345 Y115.859 E28.80288
G1 X178.355 Y116.582 E28.83205
G1 X178.355 Y124.802 E29.16361
G1 X178.346 Y125.529 E29.19294
G1 X178.303 Y125.766 E29.20265
G1 X178.186 Y125.977 E29.21239
G1 X178.006 Y126.137 E29.2221
G1 X177.744 Y126.248 E29.23358
G1 X177.314 Y126.26 E29.25093
G1 X134.222 Y126.26 E30.9891
G1 X133.524 Y126.251 E31.01725
G1 X133.286 Y126.208 E31.02701
G1 X133.076 Y126.091 E31.03671
G1 X132.915 Y125.911 E31.04645
G1 X132.805 Y125.648 E31.05795
G1 X132.793 Y125.207 E31.07574
G1 X132.793 Y116.994 E31.40702
G1 X132.803 Y116.317 E31.43433
G1 X132.803 Y113.499 E31.548
G1 X132.793 Y112.342 E31.59467
G1 X132.803 Y111.678 E31.62146
G1 X133.028 Y108.992 E31.73018
G1 X133.188 Y106.168 E31.84427
G1 X133.268 Y103.361 E31.95754
G1 X133.268 Y100.574 E32.06996
G1 X133.189 Y97.746 E32.18407
G1 X133.031 Y94.944 E32.29728
G1 X132.793 Y92.145 E32.41058
G1 X132.479 Y89.377 E32.52295
G1 X132.081 Y86.576 E32.63707
G1 X131.61 Y83.829 E32.74949
G1 X131.055 Y81.056 E32.86356
G1 X130.561 Y78.865 E32.95415
G1 X130.55 Y78.476 E32.96985
G1 X130.55 Y71.59 E33.24761
G1 X130.557 Y71.137 E33.26588
G0 F1080 X130.56 Y70.925
G0 X130.603 Y70.688
G0 X130.721 Y70.478
M204 S500
G1 F2400 E32.46588
G1 F300 Z0.7
G0 F6000 X134.255 Y73.157 Z0.7
M204 S800
G1 F300 Z0.2
G1 F2400 E33.26588
G1 F1200 X134.55 Y73.157 E33.27778
G1 X134.55 Y74.674 E33.33897
G1 X134.255 Y74.674 E33.35087
G1 X134.255 Y73.403 E33.40214
G0 F1080 X134.255 Y73.157
M204 S500
G1 F2400 E32.60214
G1 F300 Z0.7
G0 F6000 X172.514 Y73.157 Z0.7
M204 S800
G1 F300 Z0.2
G1 F2400 E33.40214
G1 F1200 X172.823 Y73.157 E33.4146
G1 X172.823 Y74.674 E33.47579
G1 X172.517 Y74.674 E33.48813
G1 X172.514 Y73.404 E33.53936
G0 F1080 X172.514 Y73.157
M204 S500
G0 F6000 X172.501 Y71.819
M204 S800
;TYPE:SUPPORT-INTERFACE
G1 F1200 X173.173 Y71.147 E33.57769
G1 X175.061 Y71.147 E33.65385
G1 X175.061 Y74.685 E33.79656
G1 X173.274 Y74.685 E33.86864
G1 X173.274 Y72.708 E33.94838
G1 X172.503 Y72.706 E33.97948
G1 X172.502 Y72.511 E33.98735
G0 F1080 X172.501 Y71.819
M204 S500
G1 F2400 E33.18735
G1 F300 Z0.7
G0 F6000 X134.561 Y71.819 Z0.7
M204 S800
G1 F300 Z0.2
G1 F2400 E33.98735
G1 F1200 X134.561 Y72.706 E34.02313
G1 X133.804 Y72.708 E34.05366
G1 X133.804 Y74.685 E34.13341
G1 X131.501 Y74.685 E34.2263
G1 X131.501 Y71.147 E34.36901
G1 X133.889 Y71.147 E34.46533
G1 X134.072 Y71.33 E34.47577
G0 F1080 X134.561 Y71.819
M204 S500
G0 F6000 X134.09 Y72.486
M204 S800
G1 F1200 X132.97 Y71.366 E34.53966
M204 S500
G0 F6000 X131.719 Y71.983
M204 S800
G1 F1200 X133.583 Y73.846 E34.64596
M204 S500
G0 F6000 X132.334 Y74.464
M204 S800
G1 F1200 X131.719 Y73.85 E34.68102
M204 S500
G1 F2400 E33.88102
G1 F300 Z0.7
G0 F6000 X172.72 Y71.914 Z0.7
M204 S800
G1 F300 Z0.2
G1 F2400 E34.68102
G1 F1200 X173.293 Y72.488 E34.71373
M204 S500
G0 F6000 X173.493 Y72.688
M204 S800
G1 F1200 X174.84 Y74.035 E34.79057
M204 S500
G1 F2400 E33.99057
G1 F300 Z0.7
G0 F6000 X174.84 Y72.168 Z0.7
M204 S800
G1 F300 Z0.2
G1 F2400 E34.79057
G1 F1200 X174.038 Y71.366 E34.83632
M204 S500
G1 F2400 E34.03632
G1 F300 Z0.7
;MESH:Steckerhalter.3mf
G0 F6000 X174.069 Y76.997 Z0.7
M204 S800
;TYPE:WALL-INNER
G1 F300 Z0.2
G1 F2400 E34.83632
G1 F962.5 X132.493 Y76.997 E36.92715
G1 X132.493 Y77.573 E36.95612
G1 X173.953 Y77.573 E39.04111
G0 F1080 X174.069 Y77.573
G0 X174.069 Y77.285
G0 X174.069 Y76.997
M204 S500
G0 F6000 X174.588 Y76.478
M204 S800
G1 F1200 X131.974 Y76.478 E40.76
G1 X131.974 Y78.092 E40.8251
G1 X174.588 Y78.092 E42.54399
G1 X174.588 Y77.285 E42.57654
G1 X174.588 Y77.17 E42.58118
G0 F1080 X174.588 Y76.478
M204 S500
G0 F6000 X175.05 Y76.016
M204 S800
;TYPE:WALL-OUTER
G1 F1200 X131.512 Y76.016 E44.33734
G1 X131.512 Y78.554 E44.43971
G1 X175.05 Y78.554 E46.19587
G1 X175.05 Y77.285 E46.24706
G1 X175.05 Y76.708 E46.27033
G0 F1080 X175.05 Y76.016
M204 S500
G0 F6000 X174.85 Y76.016
G0 X173.999 Y76.931
G1 F2400 E45.47033
G1 F300 Z0.7
;MESH:Kabelklemme.3mf
G0 F6000 X173.999 Y77.067 Z0.7
G0 X174.13 Y116.602
M204 S800
;TYPE:WALL-INNER
G1 F300 Z0.2
G1 F2400 E46.27033
G1 F1200 X174.085 Y116.278 E46.28353
G1 X174.086 Y113.079 E46.41256
G1 X174.167 Y112.834 E46.42297
G1 X137.398 Y112.834 E47.90609
G1 X137.479 Y113.079 E47.9165
G1 X137.478 Y116.28 E48.04562
G1 X137.432 Y116.604 E48.05882
G1 X137.247 Y116.973 E48.07547
G1 X136.867 Y117.299 E48.09566
G1 F991.8 X136.522 Y117.528 E48.11587
G1 F847.7 X135.524 Y117.528 E48.17286
G1 F836.2 X135.124 Y117.541 E48.19602
G1 F820.1 X134.786 Y117.541 E48.21597
G1 X134.786 Y118.461 E48.27027
G1 X135.208 Y118.206 E48.29937
G1 F836.2 X135.524 Y118.18 E48.31772
