;FLAVOR:Marlin
;TIME:1416
;Filament used: 0.742501m
;Layer height: 0.18
;MINX:123.605
;MINY:120.39
;MINZ:0.2
;MAXX:175.039
;MAXY:153.518
;MAXZ:4.52
;Generated with Cura_SteamEngine 5.2.2
M140 S100
M105
M190 S100
M104 S240
M105
M109 S240
M82 ;absolute extrusion mode
G28; Fahr zum Nullpunkt
G29; Probe Time
G92 E0; setze den Extruder auf Null
M 501; Daten aus EEProm lesen
M 420 S1; Bettnivelierung Aktivieren
G1 Z2.0 F3000; Druckkopf 2mm nach oben fahren
G1 X10.1 Y20 Z0.28 F5000.0; Fahre an die Startposition X10.1 Y20 Z0.28
G1 X10.1 Y200.0 Z0.28 F1500.0 E15; Ziehe eine Linie von der Startposition aus nach Y200
G1 X10.4 Y200.0 Z0.28 F5000.0; Bissl zur Seite bewegen
G1 X10.4 Y20 Z0.28 F1500.0 E30; eine 2. Linie nach vorne ziehen
G92 E0; setze den Extruder auf Null
G1 Z1.0 F3000; Fahr die Düse 2mm nach oben
G92 E0
G92 E0
G1 F2400 E-0.8
;LAYER_COUNT:25
;LAYER:0
M107
M204 S500
M205 X8 Y8
G1 F300 Z0.7
G0 F6000 X124.246 Y121.008 Z0.7
M204 S800
;TYPE:SKIRT
G1 F300 Z0.2
G1 F2400 E0
G1 F1200 X124.566 Y120.749 E0.01661
G1 X124.929 Y120.557 E0.03317
G1 X125.323 Y120.439 E0.04976
G1 X125.672 Y120.4 E0.06392
G1 X126.052 Y120.39 E0.07926
G1 X127.745 Y120.39 E0.14755
G1 X128.449 Y120.4 E0.17595
G1 X128.806 Y120.436 E0.19042
G1 X130.062 Y120.669 E0.24195
G1 X132.834 Y121.144 E0.35539
G1 X135.577 Y121.534 E0.46714
G1 X138.314 Y121.846 E0.57826
G1 X141.04 Y122.077 E0.68861
G1 X143.853 Y122.236 E0.80226
G1 X146.596 Y122.314 E0.91294
G1 X149.375 Y122.314 E1.02504
G1 X152.118 Y122.236 E1.13572
G1 X154.927 Y122.077 E1.24921
G1 X157.664 Y121.844 E1.36001
G1 X160.387 Y121.535 E1.47055
G1 X163.141 Y121.142 E1.58276
G1 X165.89 Y120.671 E1.69526
G1 X166.608 Y120.53 E1.72478
G1 X167.153 Y120.433 E1.7471
G1 X167.486 Y120.4 E1.7606
G1 X168.046 Y120.39 E1.78319
G1 X169.042 Y120.39 E1.82337
G1 X169.739 Y120.399 E1.85149
G1 X170.148 Y120.444 E1.86808
G1 X170.54 Y120.568 E1.88467
G1 X170.901 Y120.764 E1.90124
G1 X171.217 Y121.027 E1.91782
G1 X171.476 Y121.346 E1.93439
G1 X171.669 Y121.709 E1.95098
G1 X171.807 Y122.211 E1.97198
G1 X171.875 Y122.677 E1.99097
G1 X172.11 Y124.502 E2.06519
G1 X172.536 Y127.202 E2.17545
G1 X173.046 Y129.937 E2.28767
G1 X173.63 Y132.635 E2.39902
G1 X174.283 Y135.296 E2.50954
G1 X174.954 Y137.742 E2.61184
G1 X175.028 Y138.236 E2.63199
G1 X175.036 Y138.53 E2.64386
G1 X175.031 Y141.703 E2.77184
G1 X175.039 Y142.338 E2.79746
G1 X175.039 Y150.691 E3.13439
G1 X175.03 Y151.418 E3.16371
G1 X174.985 Y151.827 E3.18031
G1 X174.862 Y152.219 E3.19688
G1 X174.665 Y152.58 E3.21347
G1 X174.403 Y152.896 E3.23003
G1 X174.084 Y153.156 E3.24663
G1 X173.721 Y153.349 E3.26321
G1 X173.328 Y153.468 E3.27977
G1 X172.972 Y153.508 E3.29422
G1 X172.592 Y153.518 E3.30956
G1 X129.502 Y153.518 E5.04765
G1 X128.804 Y153.509 E5.0758
G1 X128.395 Y153.464 E5.0924
G1 X128.003 Y153.34 E5.10898
G1 X127.642 Y153.144 E5.12555
G1 X127.326 Y152.881 E5.14214
G1 X127.067 Y152.562 E5.15871
G1 X126.874 Y152.199 E5.17529
G1 X126.755 Y151.806 E5.19186
G1 X126.717 Y151.513 E5.20377
G1 X126.66 Y150.501 E5.24466
G1 X126.633 Y149.852 E5.27086
G1 X126.435 Y147.06 E5.38376
G1 X126.161 Y144.298 E5.49572
G1 X125.807 Y141.529 E5.60832
G1 X125.383 Y138.827 E5.71864
G1 X124.882 Y136.13 E5.82929
G1 X124.293 Y133.389 E5.94237
G1 X123.676 Y130.869 E6.04702
G1 X123.616 Y130.429 E6.06493
G1 X123.605 Y130.028 E6.08112
G1 X123.605 Y123.149 E6.35859
G1 X123.615 Y122.484 E6.38541
G1 X123.661 Y122.076 E6.40198
G1 X123.785 Y121.684 E6.41856
G1 X123.848 Y121.57 E6.42381
G0 F1080 X123.983 Y121.323
G0 X124.246 Y121.008
M204 S500
G0 F6000 X124.697 Y121.225
M204 S800
G1 F1200 X125.003 Y121.03 E6.43845
G1 X125.345 Y120.907 E6.45311
G1 X125.685 Y120.862 E6.46694
G1 X126.052 Y120.852 E6.48175
G1 X127.739 Y120.852 E6.5498
G1 X128.443 Y120.862 E6.5782
G1 X128.722 Y120.89 E6.58951
G1 X130.003 Y121.128 E6.64206
G1 X132.725 Y121.595 E6.75346
G1 X135.526 Y121.993 E6.86758
G1 X138.254 Y122.304 E6.97833
G1 X141.046 Y122.541 E7.09135
G1 X143.814 Y122.698 E7.20318
G1 X146.583 Y122.776 E7.31492
G1 X149.388 Y122.776 E7.42806
G1 X152.157 Y122.698 E7.5398
G1 X154.925 Y122.541 E7.65163
G1 X157.717 Y122.303 E7.76466
G1 X160.473 Y121.99 E7.87654
G1 X163.209 Y121.6 E7.98801
G1 X165.975 Y121.126 E8.10121
G1 X166.689 Y120.985 E8.13057
G1 X167.234 Y120.888 E8.15289
G1 X167.494 Y120.862 E8.16343
G1 X168.054 Y120.852 E8.18603
G1 X169.036 Y120.852 E8.22564
G1 X169.733 Y120.861 E8.25375
G1 X170.094 Y120.906 E8.26843
G1 X170.436 Y121.028 E8.28307
G1 X170.743 Y121.222 E8.29772
G1 X171.001 Y121.478 E8.31238
G1 X171.196 Y121.784 E8.32702
G1 X171.35 Y122.277 E8.34785
G1 X171.416 Y122.736 E8.36656
G1 X171.646 Y124.521 E8.43915
G1 X172.082 Y127.288 E8.55214
G1 X172.588 Y130.002 E8.6635
G1 X173.186 Y132.767 E8.77761
G1 X173.832 Y135.401 E8.887
G1 X174.508 Y137.864 E8.99002
G1 X174.566 Y138.251 E9.00581
G1 X174.574 Y138.53 E9.01707
G1 X174.569 Y141.703 E9.14505
G1 X174.577 Y142.344 E9.17091
G1 X174.577 Y150.685 E9.50735
G1 X174.568 Y151.412 E9.53668
G1 X174.524 Y151.773 E9.55135
G1 X174.402 Y152.115 E9.566
G1 X174.208 Y152.423 E9.58068
G1 X173.952 Y152.68 E9.59531
G1 X173.646 Y152.876 E9.60997
G1 X173.304 Y153 E9.62464
G1 X172.959 Y153.046 E9.63868
G1 X172.592 Y153.056 E9.65349
G1 X129.508 Y153.056 E11.39134
G1 X128.81 Y153.047 E11.41949
G1 X128.449 Y153.002 E11.43417
G1 X128.107 Y152.88 E11.44881
G1 X127.8 Y152.686 E11.46346
G1 X127.542 Y152.43 E11.47812
G1 X127.347 Y152.124 E11.49276
G1 X127.223 Y151.782 E11.50743
G1 X127.179 Y151.486 E11.5195
G1 X127.121 Y150.482 E11.56007
G1 X127.091 Y149.772 E11.58873
G1 X126.895 Y147.017 E11.70014
G1 X126.624 Y144.275 E11.81128
G1 X126.265 Y141.47 E11.92535
G1 X125.837 Y138.741 E12.03677
G1 X125.334 Y136.033 E12.14787
G1 X124.755 Y133.337 E12.2591
G1 X124.124 Y130.759 E12.36615
G1 X124.078 Y130.415 E12.38015
G1 X124.067 Y130.028 E12.39577
G1 X124.067 Y123.156 E12.67296
G1 X124.077 Y122.491 E12.69978
G1 X124.122 Y122.131 E12.71442
G1 X124.245 Y121.789 E12.72908
G1 X124.264 Y121.76 E12.73048
G0 F1080 X124.44 Y121.482
G0 X124.697 Y121.225
M204 S500
G0 F6000 X124.894 Y121.666
M204 S800
G1 F1200 X125.14 Y121.48 E12.74292
G1 X125.425 Y121.363 E12.75534
G1 X125.698 Y121.323 E12.76647
G1 X126.018 Y121.314 E12.77939
G1 X127.732 Y121.314 E12.84852
G1 X128.537 Y121.325 E12.881
G1 X129.906 Y121.58 E12.93717
G1 X132.688 Y122.057 E13.05102
G1 X135.452 Y122.45 E13.16363
G1 X138.203 Y122.763 E13.27531
G1 X141.018 Y123.002 E13.38926
G1 X143.778 Y123.158 E13.50077
G1 X146.605 Y123.238 E13.61485
G1 X149.366 Y123.238 E13.72622
G1 X152.193 Y123.158 E13.84029
G1 X154.953 Y123.002 E13.9518
G1 X157.768 Y122.762 E14.06576
G1 X160.52 Y122.45 E14.17747
G1 X163.282 Y122.056 E14.29001
G1 X166.065 Y121.579 E14.4039
G1 X166.77 Y121.439 E14.43289
G1 X167.406 Y121.326 E14.45895
G1 X168.063 Y121.314 E14.48545
G1 X169.03 Y121.314 E14.52446
G1 X169.727 Y121.323 E14.55258
G1 X170.033 Y121.367 E14.56505
G1 X170.316 Y121.487 E14.57744
G1 X170.56 Y121.677 E14.58992
G1 X170.747 Y121.922 E14.60235
G1 X170.893 Y122.344 E14.62036
G1 X170.958 Y122.795 E14.63874
G1 X171.193 Y124.618 E14.71288
G1 X171.624 Y127.353 E14.82456
G1 X172.142 Y130.128 E14.93843
G1 X172.727 Y132.833 E15.05006
G1 X173.395 Y135.555 E15.16312
G1 X174.062 Y137.986 E15.2648
G1 X174.104 Y138.265 E15.27618
G1 X174.112 Y138.529 E15.28683
G1 X174.107 Y141.702 E15.41482
G1 X174.115 Y142.35 E15.44096
G1 X174.115 Y150.68 E15.77696
G1 X174.106 Y151.407 E15.80629
G1 X174.062 Y151.712 E15.81872
G1 X173.942 Y151.996 E15.83115
G1 X173.753 Y152.239 E15.84357
G1 X173.508 Y152.426 E15.856
G1 X173.223 Y152.544 E15.86844
G1 X172.946 Y152.585 E15.87974
G1 X172.625 Y152.594 E15.89269
G1 X129.514 Y152.594 E17.63163
G1 X128.816 Y152.585 E17.65978
G1 X128.51 Y152.541 E17.67225
G1 X128.227 Y152.421 E17.68465
G1 X127.983 Y152.231 E17.69713
G1 X127.796 Y151.986 E17.70956
G1 X127.65 Y151.63 E17.72508
G1 X127.583 Y150.462 E17.77227
G1 X127.553 Y149.752 E17.80093
G1 X127.355 Y146.964 E17.91367
G1 X127.079 Y144.183 E18.0264
G1 X126.728 Y141.445 E18.13774
G1 X126.29 Y138.651 E18.25182
G1 X125.779 Y135.903 E18.36456
G1 X125.204 Y133.228 E18.47493
G1 X124.573 Y130.65 E18.58199
G1 X124.54 Y130.401 E18.59212
G1 X124.529 Y130.028 E18.60717
G1 X124.529 Y123.163 E18.88408
G1 X124.539 Y122.498 E18.9109
G1 X124.573 Y122.269 E18.92024
G0 F1080 X124.584 Y122.193
G0 X124.705 Y121.909
G0 X124.894 Y121.666
M204 S500
G0 F6000 X125.162 Y122.058
M204 S800
G1 F1200 X125.342 Y121.898 E18.92996
G1 X125.603 Y121.788 E18.94138
G1 X126.031 Y121.776 E18.95865
G1 X127.725 Y121.776 E19.02698
G1 X128.494 Y121.787 E19.058
G1 X129.838 Y122.038 E19.11315
G1 X132.595 Y122.51 E19.22598
G1 X135.396 Y122.908 E19.34009
G1 X138.177 Y123.225 E19.45299
G1 X140.961 Y123.461 E19.56569
G1 X143.77 Y123.62 E19.67918
G1 X146.592 Y123.7 E19.79305
G1 X149.379 Y123.7 E19.90547
G1 X152.201 Y123.62 E20.01935
G1 X155.01 Y123.461 E20.13283
G1 X157.797 Y123.224 E20.24565
G1 X160.576 Y122.908 E20.35847
G1 X163.376 Y122.509 E20.47255
G1 X166.125 Y122.038 E20.58505
G1 X166.851 Y121.894 E20.61491
G1 X167.452 Y121.787 E20.63953
G1 X168.071 Y121.776 E20.6645
G1 X169.024 Y121.776 E20.70294
G1 X169.721 Y121.785 E20.73106
G1 X169.959 Y121.828 E20.74082
G1 X170.169 Y121.945 E20.75051
G1 X170.33 Y122.125 E20.76025
G1 X170.435 Y122.411 E20.77254
G1 X170.5 Y122.855 E20.79064
G1 X170.733 Y124.664 E20.86421
G1 X171.17 Y127.438 E20.97749
G1 X171.689 Y130.218 E21.09156
G1 X172.278 Y132.943 E21.20401
G1 X172.941 Y135.646 E21.31627
G1 X173.65 Y138.23 E21.42435
G1 X173.645 Y141.701 E21.56436
G1 X173.653 Y142.355 E21.59074
G1 X173.653 Y150.674 E21.9263
G1 X173.644 Y151.401 E21.95563
G1 X173.601 Y151.638 E21.96534
G1 X173.484 Y151.849 E21.97508
G1 X173.304 Y152.009 E21.98479
G1 X173.042 Y152.12 E21.99627
G1 X172.612 Y152.132 E22.01362
G1 X129.52 Y152.132 E23.75179
G1 X128.822 Y152.123 E23.77994
G1 X128.584 Y152.08 E23.7897
G1 X128.374 Y151.963 E23.7994
G1 X128.213 Y151.783 E23.80914
G1 X128.106 Y151.528 E23.82029
G1 X128.045 Y150.443 E23.86413
G1 X128.015 Y149.733 E23.89279
G1 X127.816 Y146.932 E24.00606
G1 X127.541 Y144.158 E24.1185
G1 X127.182 Y141.353 E24.23256
G1 X126.75 Y138.6 E24.34497
G1 X126.233 Y135.819 E24.45907
G1 X125.648 Y133.098 E24.57133
G1 X125.003 Y130.463 E24.68075
G1 X124.991 Y130.05 E24.69742
G1 X124.991 Y123.17 E24.97493
G1 X124.998 Y122.717 E24.99321
G0 F1080 X125.001 Y122.505
G0 X125.044 Y122.268
G0 X125.162 Y122.058
M204 S500
G1 F2400 E24.19321
G1 F300 Z0.7
G0 F6000 X128.696 Y124.736 Z0.7
M204 S800
G1 F300 Z0.2
G1 F2400 E24.99321
G1 F1200 X128.991 Y124.736 E25.0051
G1 X128.991 Y126.253 E25.06629
G1 X128.829 Y126.253 E25.07283
G1 X128.827 Y126.2 E25.07497
G1 X128.696 Y126.058 E25.08276
G1 X128.696 Y124.976 E25.12641
G0 F1080 X128.696 Y124.736
M204 S500
G1 F2400 E24.32641
G1 F300 Z0.7
G0 F6000 X166.953 Y124.736 Z0.7
M204 S800
G1 F300 Z0.2
G1 F2400 E25.12641
G1 F1200 X167.263 Y124.736 E25.13891
G1 X167.263 Y126.253 E25.2001
G1 X166.953 Y126.253 E25.2126
G1 X166.953 Y124.983 E25.26383
G0 F1080 X166.953 Y124.736
M204 S500
G0 F6000 X166.942 Y123.399
M204 S800
;TYPE:SUPPORT-INTERFACE
G1 F1200 X167.614 Y122.727 E25.30216
G1 X169.502 Y122.727 E25.37832
G1 X169.502 Y126.264 E25.52099
G1 X167.714 Y126.264 E25.59311
G1 X167.714 Y124.287 E25.67285
G1 X166.942 Y124.285 E25.70399
G1 X166.942 Y124.091 E25.71182
G0 F1080 X166.942 Y123.399
M204 S500
G1 F2400 E24.91182
G1 F300 Z0.7
G0 F6000 X129.002 Y123.399 Z0.7
M204 S800
G1 F300 Z0.2
G1 F2400 E25.71182
G1 F1200 X129.002 Y124.285 E25.74756
G1 X128.245 Y124.287 E25.77809
G1 X128.245 Y126.264 E25.85784
G1 X125.942 Y126.264 E25.95073
G1 X125.942 Y122.727 E26.0934
G1 X128.33 Y122.727 E26.18972
G1 X128.513 Y122.91 E26.20016
G0 F1080 X129.002 Y123.399
M204 S500
G0 F6000 X128.024 Y124.29
M204 S800
G1 F1200 X126.68 Y122.946 E26.27683
M204 S500
G0 F6000 X126.161 Y124.294
M204 S800
G1 F1200 X127.91 Y126.043 E26.3766
M204 S500
G1 F2400 E25.5766
G1 F300 Z0.7
G0 F6000 X167.749 Y122.947 Z0.7
M204 S800
G1 F300 Z0.2
G1 F2400 E26.3766
G1 F1200 X169.281 Y124.479 E26.46399
M204 S500
G0 F6000 X167.932 Y124.997
M204 S800
G1 F1200 X168.979 Y126.043 E26.52369
M204 S500
G1 F2400 E25.72369
G1 F300 Z0.7
;MESH:Steckerhalter.3mf
G0 F6000 X168.51 Y128.576 Z0.7
M204 S800
;TYPE:WALL-INNER
G1 F300 Z0.2
G1 F2400 E26.52369
G1 F962.5 X126.934 Y128.576 E28.61452
G1 X126.934 Y129.152 E28.64348
G1 X168.394 Y129.152 E30.72848
G0 F1080 X168.51 Y129.152
G0 X168.51 Y128.576
M204 S500
G0 F6000 X169.029 Y128.057
M204 S800
G1 F1200 X126.415 Y128.057 E32.44737
G1 X126.415 Y129.671 E32.51247
G1 X169.029 Y129.671 E34.23136
G1 X169.029 Y128.749 E34.26855
G0 F1080 X169.029 Y128.057
M204 S500
G0 F6000 X169.491 Y127.595
M204 S800
;TYPE:WALL-OUTER
G1 F1200 X125.953 Y127.595 E36.02471
G1 X125.953 Y130.133 E36.12708
G1 X169.491 Y130.133 E37.88324
G1 X169.491 Y128.287 E37.9577
G0 F1080 X169.491 Y127.595
M204 S500
G0 F6000 X169.291 Y127.595
G0 X168.44 Y128.51
G1 F2400 E37.1577
G1 F300 Z0.7
;MESH:Kabelklemme.3mf
G0 F6000 X168.44 Y128.646 Z0.7
G0 X170.855 Y138.628
M204 S800
;TYPE:WALL-OUTER
G1 F300 Z0.2
G1 F2400 E37.9577
G1 F850.3 X172.597 Y138.626 E38.05686
G1 F852.9 X172.912 Y138.931 E38.08174
G1 X172.832 Y138.931 E38.08628
G1 X172.791 Y139.001 E38.09089
G1 X172.832 Y139.071 E38.09549
G1 X172.912 Y139.071 E38.10003
G1 X172.939 Y139.026 E38.10301
G0 F1080 X172.953 Y139.001
M204 S500
G1 F2400 E37.30301
G1 F300 Z0.7
G0 F6000 X171.66 Y144.333 Z0.7
M204 S800
;TYPE:WALL-INNER
G1 F300 Z0.2
G1 F2400 E38.10301
G1 F820.1 X171.66 Y143.413 E38.15731
G1 X171.322 Y143.413 E38.17726
G1 F836.2 X170.91 Y143.4 E38.20112
G1 F997.1 X170.366 Y143.171 E38.22977
G1 F1200 X169.985 Y142.844 E38.25002
G1 X169.8 Y142.474 E38.26671
G1 X169.755 Y142.15 E38.2799
G1 X169.755 Y139.456 E38.38857
G1 X132.421 Y139.457 E39.89448
G1 X132.42 Y142.152 E40.00319
G1 X132.374 Y142.476 E40.01639
G1 X132.189 Y142.845 E40.03304
G1 X131.809 Y143.171 E40.05323
G1 F991.8 X131.464 Y143.4 E40.07344
G1 F847.7 X130.822 Y143.4 E40.1101
G1 F836.2 X130.422 Y143.413 E40.13327
G1 F820.1 X130.084 Y143.413 E40.15321
G1 X130.084 Y144.333 E40.20751
G1 X130.506 Y144.078 E40.23661
G1 F836.2 X130.822 Y144.052 E40.25497
G1 F843.8 X131.539 Y144.046 E40.2961
G1 F986.5 X132.052 Y144.146 E40.32174
G1 F1200 X170.122 Y144.146 E41.85734
G1 F997.1 X170.91 Y144.052 E41.89587
G1 F836.2 X171.238 Y144.078 E41.91491
G1 F820.1 X171.66 Y144.333 E41.94401
M204 S500
G0 F6000 X171.061 Y144.608
M204 S800
G1 F1200 X171.435 Y144.833 E41.96162
G1 F1108.8 X171.653 Y145.301 E41.98415
G1 F1028.6 X171.653 Y149.517 E42.18255
G1 F1106.6 X171.412 Y149.891 E42.20202
G1 F1104.4 X171.04 Y150.132 E42.22144
G1 F1026.7 X130.822 Y150.132 E44.11757
G1 F1108.8 X130.331 Y149.892 E44.14143
G1 F1104.4 X130.091 Y149.519 E44.16087
G1 F1026.7 X130.091 Y145.301 E44.35973
G1 F1108.8 X130.309 Y144.833 E44.38227
G1 F1200 X130.648 Y144.629 E44.39823
G1 X130.822 Y144.608 E44.4053
G1 X170.369 Y144.608 E46.00047
G0 F1080 X171.061 Y144.608
M204 S500
G0 F6000 X171.093 Y145.145
M204 S800
;TYPE:WALL-OUTER
G1 F1200 X171.153 Y145.301 E46.00722
G1 X171.15 Y149.441 E46.17421
G1 X171.086 Y149.565 E46.17984
G1 X170.962 Y149.629 E46.18546
G1 X130.822 Y149.632 E47.80456
G1 X130.658 Y149.565 E47.81171
G1 X130.594 Y149.441 E47.81734
G1 X130.591 Y145.301 E47.98433
G1 X130.651 Y145.145 E47.99107
G1 X130.822 Y145.07 E47.9986
G1 X170.421 Y145.07 E49.59588
G0 F1080 X170.968 Y145.07
G0 X171.093 Y145.145
M204 S500
G0 F6000 X171.153 Y145.301
G0 X171.153 Y145.334
G1 F2400 E48.79588
G0 F6000 X171.842 Y145.334
G0 X171.77 Y144.453
G0 X170.062 Y142.999
G0 X169.991 Y142.566
G1 F2400 E49.59588
G0 F6000 X170.355 Y142.567
M204 S800
;TYPE:WALL-INNER
G1 F1200 X170.244 Y142.345 E49.60589
G1 X170.217 Y142.15 E49.61383
G1 X170.217 Y138.994 E49.74113
G1 X131.959 Y138.995 E51.28431
G1 X131.958 Y142.152 E51.41165
G1 X131.931 Y142.346 E51.41955
G1 X131.82 Y142.568 E51.42957
G1 X131.591 Y142.763 E51.4417
G1 X131.356 Y142.844 E51.45172
G1 X129.515 Y142.844 E51.52598
G1 X129.515 Y144.526 E51.59383
G1 F1108.8 X129.553 Y145.301 E51.6277
G1 F1022.9 X129.557 Y149.575 E51.82995
G1 F1100 X129.517 Y150.229 E51.85878
G1 F1200 X129.517 Y150.706 E51.87802
G1 X129.994 Y150.706 E51.89726
