;FLAVOR:Marlin
;TIME:1585
;Filament used: 0.39434m
;Layer height: 0.12
;MINX:145.104
;MINY:122.709
;MINZ:0.2
;MAXX:157.494
;MAXY:139.228
;MAXZ:27.1
;Generated with Cura_SteamEngine 5.2.2
M140 S100
M105
M190 S100
M104 S235
M105
M109 S235
M82 ;absolute extrusion mode
G28; Fahr zum Nullpunkt
G29; Probe Time
G92 E0; setze den Extruder auf Null
M 501; Daten aus EEProm lesen
M 420 S1; Bettnivelierung Aktivieren
G1 Z2.0 F3000; Druckkopf 2mm nach oben fahren
G1 X10.1 Y20 Z0.28 F5000.0; Fahre an die Startposition X10.1 Y20 Z0.28
G1 X10.1 Y200.0 Z0.28 F1500.0 E15; Ziehe eine Linie von der Startposition aus nach Y200
G1 X10.4 Y200.0 Z0.28 F5000.0; Bissl zur Seite bewegen
G1 X10.4 Y20 Z0.28 F1500.0 E30; eine 2. Linie nach vorne ziehen
G92 E0; setze den Extruder auf Null
G1 Z1.0 F3000; Fahr die Düse 2mm nach oben
G92 E0
G92 E0
G1 F2400 E-0.8
;LAYER_COUNT:221
;LAYER:0
M107
M204 S500
G1 F300 Z0.7
G0 F6000 X145.731 Y125.443 Z0.7
M204 S800
;TYPE:SKIRT
G1 F300 Z0.2
G1 F2400 E0
G1 F1200 X146.06 Y125.09 E0.01854
G1 X146.344 Y124.863 E0.0325
G1 X146.686 Y124.623 E0.04855
G1 X147.261 Y124.241 E0.07507
G1 X147.842 Y123.868 E0.1016
G1 X148.253 Y123.648 E0.1195
G1 X148.746 Y123.433 E0.14017
G1 X150.006 Y122.921 E0.19241
G1 X150.467 Y122.776 E0.21098
G1 X150.946 Y122.71 E0.22955
G1 X151.229 Y122.709 E0.24042
G1 X151.78 Y122.733 E0.26161
G1 X152.135 Y122.758 E0.27528
G1 X152.612 Y122.832 E0.29383
G1 X152.93 Y122.927 E0.30658
G1 X153.904 Y123.283 E0.34641
G1 X155.031 Y123.713 E0.39275
G1 X155.466 Y123.922 E0.41129
G1 X155.861 Y124.199 E0.42982
G1 X156.205 Y124.539 E0.44841
G1 X156.488 Y124.93 E0.46695
G1 X156.703 Y125.362 E0.48548
G1 X156.811 Y125.688 E0.49868
G1 X156.984 Y126.336 E0.52444
G1 X157.053 Y126.67 E0.53754
G1 X157.123 Y127.156 E0.55641
G1 X157.378 Y129.134 E0.63302
G1 X157.455 Y129.668 E0.65375
G1 X157.484 Y130.027 E0.66758
G1 X157.494 Y130.53 E0.68691
G1 X157.472 Y130.955 E0.70326
G1 X157.334 Y132.045 E0.74547
G1 X157.022 Y134.78 E0.85121
G1 X156.952 Y135.61 E0.88321
G1 X156.854 Y136.59 E0.92105
G1 X156.766 Y137.064 E0.93957
G1 X156.601 Y137.518 E0.95812
G1 X156.364 Y137.939 E0.97668
G1 X156.061 Y138.315 E0.99523
G1 X155.699 Y138.635 E1.01379
G1 X155.29 Y138.892 E1.03235
G1 X154.845 Y139.078 E1.05088
G1 X154.374 Y139.188 E1.06946
G1 X154.03 Y139.218 E1.08272
G1 X153.71 Y139.227 E1.09502
G1 X149.885 Y139.228 E1.24196
G1 X149.187 Y139.218 E1.26878
G1 X148.707 Y139.171 E1.28731
G1 X148.24 Y139.045 E1.30589
G1 X147.801 Y138.845 E1.32442
G1 X147.401 Y138.575 E1.34296
G1 X147.05 Y138.242 E1.36154
G1 X146.76 Y137.857 E1.38006
G1 X146.537 Y137.428 E1.39863
G1 X146.387 Y136.969 E1.41718
G1 X146.324 Y136.591 E1.43191
G1 X146.054 Y133.908 E1.5355
G1 X145.701 Y131.182 E1.64109
G1 X145.141 Y127.717 E1.77593
G1 X145.104 Y127.235 E1.7945
G1 X145.147 Y126.754 E1.81305
G1 X145.268 Y126.287 E1.83158
G1 X145.365 Y126.069 E1.84075
G0 F1080 X145.464 Y125.846
G0 X145.731 Y125.443
M204 S500
G0 F6000 X146.189 Y125.582
M204 S800
G1 F1200 X146.597 Y125.223 E1.86163
G1 X146.93 Y124.989 E1.87726
G1 X147.499 Y124.611 E1.9035
G1 X148.08 Y124.238 E1.93003
G1 X148.429 Y124.052 E1.94522
G1 X148.98 Y123.812 E1.96831
G1 X150.172 Y123.328 E2.01773
G1 X150.598 Y123.198 E2.03484
G1 X151.21 Y123.148 E2.05843
G1 X151.749 Y123.172 E2.07915
G1 X152.104 Y123.197 E2.09282
G1 X152.607 Y123.278 E2.1124
G1 X153.747 Y123.694 E2.15901
G1 X154.874 Y124.124 E2.20535
G1 X155.274 Y124.319 E2.22245
G1 X155.632 Y124.583 E2.23953
G1 X155.938 Y124.906 E2.25663
G1 X156.181 Y125.279 E2.27373
G1 X156.386 Y125.801 E2.29527
G1 X156.559 Y126.449 E2.32104
G1 X156.617 Y126.733 E2.33217
G1 X156.687 Y127.212 E2.35077
G1 X156.943 Y129.197 E2.42766
G1 X157.02 Y129.731 E2.44838
G1 X157.045 Y130.036 E2.46014
G1 X157.055 Y130.539 E2.47946
G1 X157.035 Y130.899 E2.49332
G1 X156.901 Y131.959 E2.53436
G1 X156.585 Y134.733 E2.64161
G1 X156.514 Y135.566 E2.67373
G1 X156.416 Y136.546 E2.71156
G1 X156.332 Y136.983 E2.72866
G1 X156.171 Y137.398 E2.74576
G1 X155.939 Y137.777 E2.76283
G1 X155.643 Y138.109 E2.77992
G1 X155.292 Y138.383 E2.79702
G1 X154.898 Y138.59 E2.81412
G1 X154.473 Y138.723 E2.83123
G1 X154.018 Y138.778 E2.84883
G1 X153.628 Y138.788 E2.86382
G1 X149.891 Y138.788 E3.00738
G1 X149.193 Y138.778 E3.0342
G1 X148.751 Y138.731 E3.05127
G1 X148.324 Y138.607 E3.06835
G1 X147.926 Y138.408 E3.08545
G1 X147.57 Y138.141 E3.10254
G1 X147.267 Y137.815 E3.11964
G1 X147.028 Y137.44 E3.13672
G1 X146.859 Y137.028 E3.15383
G1 X146.761 Y136.547 E3.17269
G1 X146.485 Y133.808 E3.27844
G1 X146.137 Y131.122 E3.38249
G1 X145.576 Y127.647 E3.51771
G1 X145.544 Y127.203 E3.53481
G1 X145.593 Y126.76 E3.55193
G1 X145.72 Y126.334 E3.56901
G1 X145.793 Y126.19 E3.57521
G0 F1080 X145.921 Y125.937
G0 X146.189 Y125.582
M204 S500
G0 F6000 X146.648 Y125.745
M204 S800
G1 F1200 X146.85 Y125.583 E3.58516
G1 X147.174 Y125.356 E3.60035
G1 X147.737 Y124.981 E3.62634
G1 X148.318 Y124.608 E3.65286
G1 X148.605 Y124.455 E3.66536
G1 X149.146 Y124.22 E3.68802
G1 X150.338 Y123.736 E3.73744
G1 X150.725 Y123.622 E3.75294
G1 X151.192 Y123.588 E3.77092
G1 X151.718 Y123.611 E3.79115
G1 X152.073 Y123.636 E3.80482
G1 X152.628 Y123.754 E3.82662
G1 X153.59 Y124.105 E3.86596
G1 X154.717 Y124.535 E3.91229
G1 X155.078 Y124.715 E3.92779
G1 X155.396 Y124.963 E3.94328
G1 X155.66 Y125.269 E3.95881
G1 X155.858 Y125.621 E3.97432
G1 X155.961 Y125.915 E3.98629
G1 X156.165 Y126.681 E4.01674
G1 X156.25 Y127.269 E4.03957
G1 X156.507 Y129.26 E4.11668
G1 X156.584 Y129.794 E4.13741
G1 X156.605 Y130.044 E4.14705
G1 X156.615 Y130.547 E4.16638
G1 X156.599 Y130.844 E4.1778
G1 X156.461 Y131.934 E4.22001
G1 X156.15 Y134.662 E4.32548
G1 X156.076 Y135.522 E4.35864
G1 X155.978 Y136.502 E4.39648
G1 X155.898 Y136.898 E4.412
G1 X155.742 Y137.27 E4.42749
G1 X155.516 Y137.604 E4.44299
G1 X155.229 Y137.887 E4.45847
G1 X154.891 Y138.108 E4.47398
G1 X154.517 Y138.258 E4.48946
G1 X154.005 Y138.338 E4.50937
G1 X153.628 Y138.348 E4.52386
G1 X149.898 Y138.348 E4.66715
G1 X149.2 Y138.338 E4.69397
G1 X148.799 Y138.292 E4.70947
G1 X148.415 Y138.168 E4.72497
G1 X148.063 Y137.972 E4.74045
G1 X147.756 Y137.709 E4.75598
G1 X147.507 Y137.392 E4.77146
G1 X147.325 Y137.032 E4.78696
G1 X147.199 Y136.503 E4.80785
G1 X146.923 Y133.764 E4.9136
G1 X146.572 Y131.053 E5.01862
G1 X146.01 Y127.576 E5.15392
G1 X145.985 Y127.174 E5.16939
G1 X146.041 Y126.774 E5.18491
G1 X146.173 Y126.393 E5.2004
G1 X146.214 Y126.324 E5.20348
G0 F1080 X146.378 Y126.045
G0 X146.648 Y125.745
M204 S500
G0 F6000 X146.837 Y126.178
M204 S800
G1 F1200 X147.103 Y125.942 E5.21714
G1 X147.383 Y125.745 E5.2303
G1 X147.975 Y125.352 E5.25759
G1 X148.556 Y124.979 E5.28412
G1 X148.78 Y124.858 E5.2939
G1 X149.273 Y124.643 E5.31456
G1 X150.503 Y124.144 E5.36555
G1 X150.847 Y124.047 E5.37928
G1 X151.173 Y124.027 E5.39183
G1 X151.643 Y124.047 E5.4099
G1 X152.042 Y124.075 E5.42526
G1 X152.478 Y124.168 E5.44239
G1 X153.433 Y124.516 E5.48144
G1 X154.56 Y124.946 E5.52777
G1 X154.878 Y125.11 E5.54152
G1 X155.151 Y125.34 E5.55523
G1 X155.366 Y125.625 E5.56895
G1 X155.536 Y126.028 E5.58575
G1 X155.732 Y126.761 E5.6149
G1 X155.814 Y127.325 E5.63679
G1 X156.072 Y129.323 E5.71418
G1 X156.163 Y129.954 E5.73867
G1 X156.177 Y130.668 E5.76611
G1 X156.027 Y131.859 E5.81222
G1 X155.707 Y134.669 E5.92087
G1 X155.638 Y135.478 E5.95206
G1 X155.54 Y136.458 E5.98989
G1 X155.465 Y136.807 E6.00361
G1 X155.314 Y137.131 E6.01734
G1 X155.096 Y137.414 E6.03106
G1 X154.82 Y137.641 E6.04479
G1 X154.5 Y137.801 E6.05853
G1 X153.993 Y137.898 E6.07836
G1 X153.628 Y137.908 E6.09239
G1 X149.904 Y137.908 E6.23545
G1 X149.206 Y137.898 E6.26227
G1 X148.852 Y137.853 E6.27597
G1 X148.516 Y137.73 E6.28972
G1 X148.216 Y137.537 E6.30342
G1 X147.967 Y137.281 E6.31714
G1 X147.78 Y136.976 E6.33089
G1 X147.65 Y136.592 E6.34646
G1 X147.366 Y133.764 E6.45565
G1 X147.007 Y130.993 E6.56298
G1 X146.444 Y127.506 E6.69867
G1 X146.427 Y127.149 E6.7124
G1 X146.488 Y126.81 E6.72564
G0 F1080 X146.49 Y126.798
G0 X146.628 Y126.469
G0 X146.837 Y126.178
M204 S500
G0 F6000 X147.085 Y126.569
M204 S800
G1 F1200 X147.357 Y126.302 E6.74028
G1 X147.661 Y126.088 E6.75456
G1 X148.212 Y125.722 E6.77997
G1 X148.87 Y125.299 E6.81002
G1 X149.477 Y125.035 E6.83545
G1 X150.669 Y124.551 E6.88487
G1 X151.017 Y124.461 E6.89868
G1 X151.656 Y124.489 E6.92325
G1 X152.011 Y124.514 E6.93692
G1 X152.327 Y124.581 E6.94933
G1 X153.277 Y124.927 E6.98817
G1 X154.404 Y125.357 E7.03451
G1 X154.671 Y125.502 E7.04618
G1 X154.891 Y125.711 E7.05784
G1 X155.077 Y126.014 E7.0715
G1 X155.301 Y126.855 E7.10493
G1 X155.377 Y127.381 E7.12535
G1 X155.636 Y129.385 E7.20297
G1 X155.724 Y129.993 E7.22657
G1 X155.737 Y130.65 E7.25181
G1 X155.588 Y131.824 E7.29728
G1 X155.27 Y134.619 E7.40534
G1 X155.2 Y135.434 E7.43676
G1 X155.102 Y136.414 E7.4746
G1 X155.033 Y136.71 E7.48627
G1 X154.889 Y136.978 E7.49796
G1 X154.68 Y137.199 E7.50965
G1 X154.421 Y137.358 E7.52132
G1 X153.981 Y137.459 E7.53866
G1 X153.661 Y137.468 E7.55096
G1 X149.91 Y137.468 E7.69506
G1 X149.212 Y137.458 E7.72188
G1 X148.912 Y137.414 E7.73352
G1 X148.633 Y137.293 E7.74521
G1 X148.395 Y137.104 E7.75688
G1 X148.214 Y136.859 E7.76858
G1 X148.087 Y136.537 E7.78188
G1 X147.799 Y133.675 E7.89238
G1 X147.445 Y130.939 E7.99836
G1 X146.879 Y127.436 E8.13468
G1 X146.873 Y127.252 E8.14175
G0 F1080 X146.87 Y127.132
G0 X146.941 Y126.836
G0 X147.085 Y126.569
M204 S500
G0 F6000 X147.395 Y126.901
M204 S800
G1 F1200 X147.61 Y126.662 E8.1541
G1 X147.905 Y126.455 E8.16794
G1 X148.45 Y126.092 E8.1931
G1 X149.08 Y125.688 E8.22185
G1 X149.642 Y125.443 E8.2454
G1 X150.834 Y124.959 E8.29482
G1 X151.136 Y124.907 E8.30659
G1 X151.626 Y124.928 E8.32543
G1 X152.081 Y124.96 E8.34296
G1 X153.12 Y125.338 E8.38543
G1 X154.247 Y125.768 E8.43177
G1 X154.453 Y125.889 E8.44095
G1 X154.651 Y126.122 E8.45269
G1 X154.859 Y126.903 E8.48374
G1 X154.941 Y127.438 E8.50453
G1 X155.201 Y129.448 E8.58239
G1 X155.278 Y129.982 E8.60312
G1 X155.296 Y130.62 E8.62764
G1 X155.151 Y131.768 E8.67209
G1 X154.832 Y134.569 E8.78038
G1 X154.762 Y135.391 E8.81208
G1 X154.664 Y136.371 E8.84991
G1 X154.601 Y136.601 E8.85907
G1 X154.466 Y136.799 E8.86828
G1 X154.274 Y136.941 E8.87745
G1 X153.968 Y137.019 E8.88958
G1 X153.648 Y137.028 E8.90188
G1 X149.917 Y137.028 E9.04521
G1 X149.219 Y137.018 E9.07202
G1 X148.983 Y136.975 E9.08124
G1 X148.775 Y136.857 E9.09043
G1 X148.617 Y136.678 E9.0996
G1 X148.513 Y136.37 E9.11209
G1 X148.239 Y133.651 E9.21707
G1 X147.879 Y130.869 E9.32483
G1 X147.352 Y127.611 E9.45162
G0 F1080 X147.313 Y127.366
G0 X147.315 Y127.127
G0 X147.395 Y126.901
M204 S500
G1 F2400 E8.65162
G1 F300 Z0.7
G0 F6000 X152.514 Y135.208 Z0.7
M204 S800
G1 F300 Z0.2
G1 F2400 E9.45162
G1 F1200 X152.858 Y135.134 E9.46513
G1 X152.858 Y135.208 E9.46798
G1 X152.544 Y135.208 E9.48004
G0 F1080 X152.514 Y135.208
M204 S500
G0 F6000 X152.242 Y134.811
M204 S800
G1 F1200 X152.864 Y134.677 E9.50448
G1 X153.298 Y134.525 E9.52215
G1 X153.298 Y135.648 E9.56529
G1 X149.886 Y135.648 E9.69636
G1 X149.897 Y134.528 E9.73939
G1 X150.381 Y134.696 E9.75907
G1 X150.847 Y134.798 E9.77739
G1 X151.583 Y134.873 E9.80581
G1 X151.615 Y134.869 E9.80705
G0 F1080 X152.242 Y134.811
M204 S500
G0 F6000 X152.201 Y134.373
M204 S800
G1 F1200 X152.719 Y134.262 E9.8274
G1 X153.287 Y134.063 E9.85052
G1 X153.738 Y133.805 E9.87048
G1 X153.738 Y136.088 E9.95819
G1 X149.442 Y136.088 E10.12322
G1 X149.464 Y133.833 E10.20985
G1 X149.974 Y134.087 E10.23174
G1 X150.475 Y134.266 E10.25218
G1 X150.967 Y134.372 E10.27151
G1 X151.477 Y134.418 E10.29118
G0 F1080 X151.607 Y134.429
G0 X152.201 Y134.373
M204 S500
G1 F2400 E9.49118
G1 F300 Z0.7
G0 F6000 X150.662 Y135.208 Z0.7
M204 S800
G1 F300 Z0.2
G1 F2400 E10.29118
G1 F1200 X150.331 Y135.208 E10.3039
G1 X150.331 Y135.136 E10.30666
G1 X150.633 Y135.202 E10.31854
G0 F1080 X150.662 Y135.208
M204 S500
G1 F2400 E9.51854
G1 F300 Z0.7
G0 F6000 X148.495 Y127.636 Z0.7
M204 S800
G1 F300 Z0.2
G1 F2400 E10.31854
G1 F1200 X148.308 Y127.315 E10.33281
G1 X149.516 Y126.513 E10.38851
G1 X151.112 Y125.849 E10.45492
G1 X151.519 Y125.971 E10.47124
G1 X151.899 Y125.893 E10.48614
G1 X153.748 Y126.575 E10.56185
G1 X153.776 Y126.833 E10.57182
G1 X153.181 Y126.537 E10.59735
G1 X152.62 Y126.34 E10.62019
G1 X151.835 Y126.215 E10.65072
G1 X151.232 Y126.233 E10.6739
G1 X150.57 Y126.337 E10.69964
G1 X150.01 Y126.534 E10.72245
G1 X149.534 Y126.769 E10.74284
G1 X149.135 Y127.032 E10.7612
G1 X149.017 Y127.133 E10.76717
G0 F1080 X148.729 Y127.379
G0 X148.495 Y127.636
M204 S500
G1 F2400 E9.96717
G1 F300 Z0.7
;MESH:Achse W??rfel.3mf
G0 F6000 X149.819 Y128.888 Z0.7
M204 S800
;TYPE:WALL-INNER
G1 F300 Z0.2
G1 F2400 E10.76717
G1 F937.8 X149.615 Y129.176 E10.78451
G1 F932.9 X149.473 Y129.49 E10.80154
G1 F931.2 X149.378 Y129.77 E10.81618
G1 F939.5 X149.329 Y130.033 E10.82931
G1 F941.2 X149.308 Y130.383 E10.84648
G1 F937.8 X149.353 Y130.733 E10.86383
G1 F939.5 X149.417 Y130.994 E10.87701
G1 X149.545 Y131.331 E10.8947
G1 X149.723 Y131.629 E10.91173
G1 F932.9 X149.954 Y131.901 E10.92937
G1 F929.6 X150.215 Y132.132 E10.94665
G1 F939.5 X150.446 Y132.288 E10.96033
G1 F942.9 X150.701 Y132.415 E10.97426
G1 X150.963 Y132.507 E10.98783
G1 F941.2 X151.239 Y132.566 E11.00166
G1 F939.5 X151.588 Y132.602 E11.01887
G1 F941.2 X151.934 Y132.57 E11.03589
G1 X152.213 Y132.508 E11.04989
G1 F936.2 X152.545 Y132.392 E11.06721
G1 F934.5 X152.904 Y132.185 E11.08765
G1 F939.5 X153.178 Y131.953 E11.10527
G1 X153.362 Y131.747 E11.11882
G1 X153.527 Y131.521 E11.13255
G1 F942.9 X153.657 Y131.272 E11.14628
G1 F939.5 X153.784 Y130.947 E11.1634
G1 F934.5 X153.861 Y130.526 E11.18451
G1 F929.6 X153.861 Y130.2 E11.20068
G1 F934.5 X153.82 Y129.829 E11.21909
G1 X153.69 Y129.425 E11.24003
G1 F937.8 X153.53 Y129.122 E11.25687
G1 F942.9 X153.363 Y128.887 E11.27097
G1 X153.178 Y128.684 E11.2844
G1 F939.5 X152.966 Y128.505 E11.29801
G1 F941.2 X152.734 Y128.347 E11.31176
G1 F942.9 X152.481 Y128.223 E11.32553
G1 F931.2 X152.151 Y128.112 E11.34277
G1 F932.9 X151.735 Y128.04 E11.36363
G1 F936.2 X151.388 Y128.054 E11.38073
G1 F931.2 X151.034 Y128.108 E11.39846
G1 F939.5 X150.69 Y128.226 E11.4163
G1 F944.5 X150.452 Y128.345 E11.42929
G1 F941.2 X150.219 Y128.5 E11.443
G1 F932.9 X150.011 Y128.684 E11.45672
G1 F931.2 X149.819 Y128.888 E11.47059
M204 S500
G1 F2400 E10.67059
G0 F6000 X149.969 Y129.017
G0 X150.99 Y128.547
G0 X151.728 Y128.446
G0 X152.327 Y128.62
G0 X152.952 Y128.964
G1 F2400 E11.47059
G0 F6000 X152.83 Y129.119
M204 S800
G1 F946.2 X153.104 Y129.476 E11.49251
G1 F937.8 X153.288 Y129.974 E11.51861
G1 F931.2 X153.293 Y130.501 E11.5447
G1 F934.5 X153.245 Y130.78 E11.55866
G1 F941.2 X153.088 Y131.186 E11.57999
G1 F944.5 X152.76 Y131.586 E11.60523
G1 F942.9 X152.416 Y131.837 E11.62605
G1 F941.2 X151.966 Y132 E11.64949
G1 F942.9 X151.542 Y132.043 E11.67033
G1 X151.101 Y131.965 E11.69223
G1 X150.652 Y131.772 E11.71612
G1 X150.227 Y131.375 E11.74456
G1 X149.988 Y130.977 E11.76725
G1 X149.868 Y130.446 E11.79387
G1 X149.883 Y130.125 E11.80958
G1 F939.5 X149.919 Y129.928 E11.81941
G1 F936.2 X150.101 Y129.462 E11.84404
G1 X150.24 Y129.262 E11.85604
G1 F939.5 X150.636 Y128.876 E11.88317
G1 F944.5 X151.068 Y128.672 E11.90649
G1 F942.9 X151.666 Y128.593 E11.93598
G1 F931.2 X152.001 Y128.664 E11.95293
G1 F929.6 X152.395 Y128.785 E11.97337
G1 F941.2 X152.83 Y129.119 E12.00023
M204 S500
G0 F6000 X152.483 Y129.484
M104 S230
M204 S800
;TYPE:WALL-OUTER
G1 F1200 X152.645 Y129.702 E12.01067
G1 X152.786 Y130.054 E12.02523
G1 X152.786 Y130.564 E12.04482
G1 X152.65 Y130.927 E12.05972
G1 X152.398 Y131.234 E12.07497
G1 X152.191 Y131.381 E12.08473
G1 X151.827 Y131.516 E12.09964
G1 X151.549 Y131.538 E12.11035
G1 X151.184 Y131.47 E12.12462
G1 X150.937 Y131.352 E12.13513
G1 X150.582 Y131.007 E12.15415
G1 X150.456 Y130.767 E12.16456
G1 X150.373 Y130.408 E12.17872
G1 X150.383 Y130.15 E12.18864
G1 X150.397 Y130.081 E12.19134
G1 X150.576 Y129.641 E12.20959
G1 X150.934 Y129.289 E12.22888
G1 X151.173 Y129.17 E12.23913
G1 X151.679 Y129.097 E12.25877
G1 X152.028 Y129.201 E12.27276
G0 F1080 X152.169 Y129.242
G0 X152.483 Y129.484
M204 S500
G0 F6000 X152.602 Y129.644
G1 F2400 E11.47276
G0 F6000 X153.16 Y129.223
G1 F2400 E12.27276
