;FLAVOR:Marlin
;TIME:1602
;Filament used: 0.4246m
;Layer height: 0.12
;MINX:142.032
;MINY:118.145
;MINZ:0.2
;MAXX:171.997
;MAXY:130.468
;MAXZ:18.7
;Generated with Cura_SteamEngine 5.2.2
M140 S100
M105
M190 S100
M104 S235
M105
M109 S235
M82 ;absolute extrusion mode
G28; Fahr zum Nullpunkt
G29; Probe Time
G92 E0; setze den Extruder auf Null
M 501; Daten aus EEProm lesen
M 420 S1; Bettnivelierung Aktivieren
G1 Z2.0 F3000; Druckkopf 2mm nach oben fahren
G1 X10.1 Y20 Z0.28 F5000.0; Fahre an die Startposition X10.1 Y20 Z0.28
G1 X10.1 Y200.0 Z0.28 F1500.0 E15; Ziehe eine Linie von der Startposition aus nach Y200
G1 X10.4 Y200.0 Z0.28 F5000.0; Bissl zur Seite bewegen
G1 X10.4 Y20 Z0.28 F1500.0 E30; eine 2. Linie nach vorne ziehen
G92 E0; setze den Extruder auf Null
G1 Z1.0 F3000; Fahr die Düse 2mm nach oben
G92 E0
G92 E0
G1 F2400 E-0.8
;LAYER_COUNT:151
;LAYER:0
M107
M204 S500
G1 F300 Z0.7
G0 F6000 X143.422 Y120.182 Z0.7
M204 S800
;TYPE:SKIRT
G1 F300 Z0.2
G1 F2400 E0
G1 F1200 X143.874 Y119.658 E0.02658
G1 X144.277 Y119.28 E0.04781
G1 X144.925 Y118.792 E0.07897
G1 X145.488 Y118.452 E0.10424
G1 X145.852 Y118.279 E0.11972
G1 X146.243 Y118.181 E0.13521
G1 X146.508 Y118.159 E0.14542
G1 X147.361 Y118.145 E0.17819
G1 X149.763 Y118.145 E0.27047
G1 X150.571 Y118.16 E0.30151
G1 X151.942 Y118.257 E0.35431
G1 X154.749 Y118.416 E0.46232
G1 X157.497 Y118.495 E0.56793
G1 X160.281 Y118.495 E0.67487
G1 X162.498 Y118.432 E0.76008
G1 X164.621 Y118.388 E0.84165
G1 X166.772 Y118.388 E0.92428
G1 X167.452 Y118.398 E0.95041
G1 X167.853 Y118.444 E0.96591
G1 X168.352 Y118.623 E0.98628
G1 X168.802 Y118.853 E1.00569
G1 X169.322 Y119.185 E1.02939
G1 X169.766 Y119.541 E1.05125
G1 X170.135 Y119.879 E1.07048
G1 X170.692 Y120.525 E1.10324
G1 X170.983 Y120.948 E1.12297
G1 X171.25 Y121.396 E1.143
G1 X171.604 Y122.193 E1.1765
G1 X171.781 Y122.767 E1.19958
G1 X171.888 Y123.24 E1.21821
G1 X171.928 Y123.487 E1.22782
G1 X171.982 Y123.97 E1.24649
G1 X171.997 Y124.349 E1.26106
G1 X171.99 Y124.742 E1.27616
G1 X171.937 Y125.356 E1.29984
G1 X171.76 Y126.179 E1.33218
G1 X171.588 Y126.706 E1.35347
G1 X171.34 Y127.27 E1.37714
G1 X171.139 Y127.658 E1.39393
G1 X170.695 Y128.327 E1.42477
G1 X170.311 Y128.788 E1.44782
G1 X169.934 Y129.163 E1.46825
G1 X169.556 Y129.495 E1.48757
G1 X168.96 Y129.909 E1.51545
G1 X168.469 Y130.185 E1.53709
G1 X168.099 Y130.347 E1.55261
G1 X167.513 Y130.446 E1.57544
G1 X166.447 Y130.468 E1.6164
G1 X164.261 Y130.468 E1.70037
G1 X163.441 Y130.453 E1.73188
G1 X162.054 Y130.355 E1.78529
G1 X159.248 Y130.197 E1.89326
G1 X156.499 Y130.119 E1.9989
G1 X153.733 Y130.119 E2.10516
G1 X152.558 Y130.159 E2.15033
G1 X149.408 Y130.225 E2.27136
G1 X147.256 Y130.225 E2.35403
G1 X146.576 Y130.215 E2.38016
G1 X146.175 Y130.169 E2.39566
G1 X145.678 Y129.992 E2.41593
G1 X145.226 Y129.761 E2.43543
G1 X144.698 Y129.424 E2.45949
G1 X144.168 Y128.985 E2.48593
G1 X143.979 Y128.806 E2.49593
G1 X143.575 Y128.374 E2.51865
G1 X143.415 Y128.18 E2.52831
G1 X143.053 Y127.682 E2.55196
G1 X142.785 Y127.217 E2.57258
G1 X142.532 Y126.696 E2.59483
G1 X142.243 Y125.866 E2.62859
G1 X142.15 Y125.447 E2.64508
G1 X142.083 Y125.01 E2.66206
G1 X142.037 Y124.461 E2.68323
G1 X142.032 Y124.201 E2.69322
G1 X142.058 Y123.61 E2.71594
G1 X142.085 Y123.358 E2.72568
G1 X142.189 Y122.746 E2.74953
G1 X142.267 Y122.435 E2.76184
G1 X142.479 Y121.806 E2.78734
G1 X142.694 Y121.328 E2.80748
G1 X142.894 Y120.947 E2.82401
G1 X143.006 Y120.778 E2.8318
G0 F1080 X143.268 Y120.385
G0 X143.422 Y120.182
M204 S500
G0 F6000 X143.688 Y120.547
M204 S800
G1 F1200 X144.189 Y119.966 E2.86127
G1 X144.557 Y119.621 E2.88064
G1 X145.176 Y119.154 E2.91043
G1 X145.715 Y118.829 E2.93461
G1 X146.039 Y118.68 E2.94831
G1 X146.515 Y118.599 E2.96686
G1 X147.368 Y118.585 E2.99963
G1 X149.757 Y118.585 E3.09141
G1 X150.45 Y118.595 E3.11803
G1 X151.936 Y118.698 E3.17525
G1 X154.713 Y118.856 E3.28211
G1 X157.485 Y118.935 E3.38864
G1 X160.293 Y118.935 E3.49651
G1 X162.507 Y118.872 E3.58159
G1 X164.63 Y118.828 E3.66317
G1 X166.766 Y118.828 E3.74522
G1 X167.446 Y118.838 E3.77135
G1 X167.8 Y118.883 E3.78506
G1 X168.152 Y119.014 E3.79948
G1 X168.578 Y119.232 E3.81787
G1 X169.063 Y119.541 E3.83996
G1 X169.377 Y119.788 E3.85531
G1 X169.822 Y120.189 E3.87832
G1 X170.344 Y120.795 E3.90904
G1 X170.689 Y121.306 E3.93273
G1 X170.862 Y121.607 E3.94607
G1 X171.192 Y122.347 E3.97719
G1 X171.353 Y122.868 E3.99814
G1 X171.431 Y123.198 E4.01117
G1 X171.503 Y123.622 E4.02769
G1 X171.534 Y123.88 E4.03767
G1 X171.555 Y124.234 E4.05129
G1 X171.55 Y124.734 E4.0705
G1 X171.501 Y125.292 E4.09202
G1 X171.334 Y126.068 E4.12251
G1 X171.202 Y126.472 E4.13884
G1 X171 Y126.959 E4.15909
G1 X170.761 Y127.431 E4.17942
G1 X170.338 Y128.07 E4.20886
G1 X169.933 Y128.544 E4.23281
G1 X169.624 Y128.851 E4.24954
G1 X169.282 Y129.149 E4.26697
G1 X168.718 Y129.542 E4.29337
G1 X168.254 Y129.802 E4.31381
G1 X167.924 Y129.94 E4.32755
G1 X167.504 Y130.006 E4.34388
G1 X166.438 Y130.028 E4.38484
G1 X164.267 Y130.028 E4.46824
G1 X163.562 Y130.018 E4.49533
G1 X162.06 Y129.914 E4.55316
G1 X159.285 Y129.757 E4.65994
G1 X156.512 Y129.679 E4.76651
G1 X153.718 Y129.679 E4.87384
G1 X152.549 Y129.719 E4.91877
G1 X149.399 Y129.785 E5.03981
G1 X147.262 Y129.785 E5.1219
G1 X146.582 Y129.775 E5.14803
G1 X146.228 Y129.73 E5.16173
G1 X145.878 Y129.6 E5.17608
G1 X145.447 Y129.38 E5.19467
G1 X144.958 Y129.067 E5.21697
G1 X144.369 Y128.58 E5.24633
G1 X143.831 Y128.004 E5.27661
G1 X143.42 Y127.439 E5.30345
G1 X143.103 Y126.877 E5.32824
G1 X142.936 Y126.52 E5.34338
G1 X142.668 Y125.752 E5.37462
G1 X142.584 Y125.373 E5.38954
G1 X142.522 Y124.974 E5.40505
G1 X142.468 Y124.324 E5.4301
G1 X142.502 Y123.53 E5.46063
G1 X142.623 Y122.82 E5.4883
G1 X142.684 Y122.576 E5.49796
G1 X142.868 Y122.031 E5.52006
G1 X143.031 Y121.641 E5.5363
G1 X143.271 Y121.175 E5.55644
G1 X143.286 Y121.153 E5.55746
G0 F1080 X143.688 Y120.547
M204 S500
G0 F6000 X144.039 Y120.814
M204 S800
G1 F1200 X144.472 Y120.312 E5.58293
G1 X144.837 Y119.96 E5.60241
G1 X145.42 Y119.521 E5.63044
G1 X145.942 Y119.206 E5.65386
G1 X146.221 Y119.084 E5.66556
G1 X146.522 Y119.039 E5.67725
G1 X147.375 Y119.025 E5.71002
G1 X149.751 Y119.025 E5.8013
G1 X150.444 Y119.035 E5.82792
G1 X151.898 Y119.137 E5.88392
G1 X154.68 Y119.294 E5.99096
G1 X157.507 Y119.375 E6.0996
G1 X160.269 Y119.375 E6.20571
G1 X162.516 Y119.312 E6.29206
G1 X164.639 Y119.268 E6.37364
G1 X166.759 Y119.268 E6.45508
G1 X167.439 Y119.278 E6.4812
G1 X167.81 Y119.332 E6.4956
G1 X168.406 Y119.644 E6.52145
G1 X168.852 Y119.935 E6.5419
G1 X169.171 Y120.19 E6.55759
G1 X169.505 Y120.496 E6.57499
G1 X169.993 Y121.062 E6.6037
G1 X170.258 Y121.447 E6.62166
G1 X170.468 Y121.804 E6.63757
G1 X170.78 Y122.504 E6.66701
G1 X170.901 Y122.882 E6.68226
G1 X171.003 Y123.299 E6.69875
G1 X171.066 Y123.675 E6.71339
G1 X171.118 Y124.135 E6.73118
G1 X171.11 Y124.727 E6.75392
G1 X171.064 Y125.23 E6.77333
G1 X170.908 Y125.952 E6.8017
G1 X170.747 Y126.433 E6.82119
G1 X170.596 Y126.786 E6.83594
G1 X170.382 Y127.207 E6.85408
G1 X169.986 Y127.803 E6.88157
G1 X169.623 Y128.232 E6.90316
G1 X169.314 Y128.539 E6.91989
G1 X169.052 Y128.767 E6.93323
G1 X168.537 Y129.132 E6.95748
G1 X168.038 Y129.418 E6.97957
G1 X167.756 Y129.53 E6.99123
G1 X167.495 Y129.566 E7.00135
G1 X166.429 Y129.588 E7.04231
G1 X164.274 Y129.588 E7.1251
G1 X163.569 Y129.578 E7.15218
G1 X162.094 Y129.475 E7.20898
G1 X159.316 Y129.319 E7.31587
G1 X156.489 Y129.239 E7.42451
G1 X153.703 Y129.239 E7.53154
G1 X152.539 Y129.279 E7.57628
G1 X149.389 Y129.345 E7.69732
G1 X147.269 Y129.345 E7.77876
G1 X146.589 Y129.335 E7.80488
G1 X146.221 Y129.281 E7.81917
G1 X145.714 Y129.022 E7.84104
G1 X145.218 Y128.712 E7.86351
G1 X144.678 Y128.264 E7.89047
G1 X144.169 Y127.72 E7.91908
G1 X143.79 Y127.199 E7.94383
G1 X143.501 Y126.69 E7.96632
G1 X143.368 Y126.406 E7.97837
G1 X143.094 Y125.636 E8.00976
G1 X143.018 Y125.298 E8.02307
G1 X142.96 Y124.937 E8.03712
G1 X142.908 Y124.314 E8.06113
G1 X142.94 Y123.575 E8.08955
G1 X143.072 Y122.802 E8.11967
G1 X143.32 Y122.081 E8.14897
G1 X143.472 Y121.738 E8.16338
G1 X143.623 Y121.451 E8.17584
G1 X143.642 Y121.423 E8.17714
G0 F1080 X144.039 Y120.814
M204 S500
G0 F6000 X144.367 Y121.115
M204 S800
G1 F1200 X144.858 Y120.545 E8.20604
G1 X145.156 Y120.27 E8.22161
G1 X145.698 Y119.866 E8.24758
G1 X146.169 Y119.582 E8.26871
G1 X146.429 Y119.481 E8.27943
G1 X147.382 Y119.465 E8.31604
G1 X149.744 Y119.465 E8.40678
G1 X150.437 Y119.475 E8.4334
G1 X151.864 Y119.575 E8.48836
G1 X154.673 Y119.734 E8.59644
G1 X157.495 Y119.815 E8.70489
G1 X160.282 Y119.815 E8.81196
G1 X162.525 Y119.752 E8.89815
G1 X164.648 Y119.708 E8.97973
G1 X166.753 Y119.708 E9.06059
G1 X167.433 Y119.718 E9.08672
G1 X167.75 Y119.797 E9.09927
G1 X168.111 Y119.982 E9.11485
G1 X168.522 Y120.24 E9.13349
G1 X168.833 Y120.48 E9.14858
G1 X169.217 Y120.836 E9.1687
G1 X169.666 Y121.363 E9.1953
G1 X169.926 Y121.745 E9.21305
G1 X170.093 Y122.042 E9.22614
G1 X170.379 Y122.695 E9.25352
G1 X170.497 Y123.07 E9.26862
G1 X170.575 Y123.4 E9.28165
G1 X170.629 Y123.727 E9.29438
G1 X170.66 Y123.985 E9.30437
G1 X170.677 Y124.326 E9.31748
G1 X170.667 Y124.777 E9.33481
G1 X170.62 Y125.203 E9.35128
G1 X170.473 Y125.868 E9.37744
G1 X170.365 Y126.2 E9.39085
G1 X170.168 Y126.662 E9.41014
G1 X169.978 Y127.019 E9.42568
G1 X169.607 Y127.571 E9.45123
G1 X169.312 Y127.92 E9.46878
G1 X168.963 Y128.264 E9.48761
G1 X168.71 Y128.475 E9.50027
G1 X168.226 Y128.808 E9.52283
G1 X167.823 Y129.034 E9.54058
G1 X167.486 Y129.126 E9.554
G1 X166.42 Y129.148 E9.59496
G1 X164.28 Y129.148 E9.67717
G1 X163.575 Y129.138 E9.70426
G1 X162.133 Y129.037 E9.75979
G1 X159.324 Y128.879 E9.86787
G1 X156.502 Y128.799 E9.97632
G1 X153.717 Y128.799 E10.08331
G1 X152.53 Y128.839 E10.12893
G1 X149.38 Y128.905 E10.24997
G1 X147.275 Y128.905 E10.33083
G1 X146.595 Y128.895 E10.35696
G1 X146.278 Y128.816 E10.36951
G1 X145.854 Y128.596 E10.38786
G1 X145.445 Y128.328 E10.40664
G1 X144.974 Y127.938 E10.43013
G1 X144.539 Y127.473 E10.45459
G1 X144.143 Y126.931 E10.48038
G1 X143.928 Y126.558 E10.49692
G1 X143.739 Y126.151 E10.51416
G1 X143.53 Y125.551 E10.53857
G1 X143.459 Y125.264 E10.54992
G1 X143.406 Y124.962 E10.5617
G1 X143.349 Y124.302 E10.58715
G1 X143.386 Y123.579 E10.61496
G1 X143.499 Y122.913 E10.64091
G1 X143.724 Y122.256 E10.66759
G1 X143.862 Y121.943 E10.68073
G1 X143.977 Y121.728 E10.6901
G0 F1080 X144.05 Y121.592
G0 X144.367 Y121.115
M204 S500
G1 F2400 E9.8901
G1 F300 Z0.7
;MESH:Achse (1).3mf
G0 F6000 X146.843 Y127.085 Z0.7
M204 S800
;TYPE:WALL-INNER
G1 F300 Z0.2
G1 F2400 E10.6901
G1 F1200 X150.149 Y127.085 E10.8171
G1 X150.45 Y126.885 E10.83098
G1 X150.67 Y126.71 E10.84178
G1 X150.925 Y126.471 E10.85521
G1 X151.15 Y126.2 E10.86874
G1 X151.309 Y125.973 E10.87938
G1 X151.448 Y125.731 E10.89011
G1 X151.6 Y125.406 E10.90389
G1 X151.704 Y125.083 E10.91692
G1 X151.783 Y124.747 E10.93018
G1 X151.827 Y124.332 E10.94622
G1 X151.823 Y124.085 E10.95571
G1 X151.819 Y123.909 E10.96247
G1 X151.77 Y123.568 E10.9757
G1 X151.705 Y123.285 E10.98686
G1 X151.62 Y123.022 E10.99747
G1 X151.511 Y122.769 E11.00806
G1 X151.351 Y122.459 E11.02146
G1 X151.115 Y122.12 E11.03733
G1 X150.875 Y121.853 E11.05112
G1 X150.615 Y121.61 E11.06479
G1 X150.169 Y121.285 E11.08599
G1 X146.82 Y121.285 E11.21464
G1 X146.372 Y121.609 E11.23588
G1 X146.111 Y121.853 E11.24961
G1 X145.877 Y122.112 E11.26302
G1 X145.64 Y122.455 E11.27903
G1 X145.479 Y122.762 E11.29235
G1 X145.368 Y123.024 E11.30328
G1 X145.255 Y123.37 E11.31726
G1 X145.183 Y123.764 E11.33265
G1 X145.157 Y124.186 E11.34889
G1 X145.183 Y124.605 E11.36502
G1 X145.257 Y125 E11.38046
G1 X145.391 Y125.42 E11.39739
G1 X145.538 Y125.729 E11.41054
G1 X145.679 Y125.973 E11.42136
G1 X145.877 Y126.258 E11.43469
G1 X146.156 Y126.568 E11.45072
G1 X146.258 Y126.656 E11.45589
G0 F1080 X146.473 Y126.842
G0 X146.843 Y127.085
M204 S500
G1 F2400 E10.65589
G0 F6000 X152.009 Y124.346
G1 F2400 E11.45589
G0 F6000 X152.268 Y124.351
M204 S800
G1 F1200 X152.263 Y124.076 E11.46646
G1 X152.258 Y123.873 E11.47426
G1 X152.203 Y123.487 E11.48924
G1 X152.13 Y123.168 E11.50181
G1 X152.032 Y122.866 E11.514
G1 X151.909 Y122.58 E11.52596
G1 X151.728 Y122.232 E11.54103
G1 X151.461 Y121.847 E11.55903
G1 X151.19 Y121.545 E11.57462
G1 X150.896 Y121.27 E11.59008
G1 X150.583 Y121.042 E11.60496
G1 X150.257 Y120.845 E11.61959
G1 X146.73 Y120.845 E11.75508
G1 X146.404 Y121.042 E11.76972
G1 X146.091 Y121.269 E11.78457
G1 X145.797 Y121.544 E11.80003
G1 X145.532 Y121.838 E11.81524
G1 X145.262 Y122.227 E11.83343
G1 X145.081 Y122.573 E11.84843
G1 X144.955 Y122.869 E11.86079
G1 X144.828 Y123.262 E11.87665
G1 X144.746 Y123.71 E11.89415
G1 X144.716 Y124.186 E11.91247
G1 X144.746 Y124.66 E11.93072
G1 X144.83 Y125.108 E11.94823
G1 X144.981 Y125.583 E11.96738
G1 X145.148 Y125.933 E11.98227
G1 X145.307 Y126.209 E11.99451
G1 X145.532 Y126.532 E12.00963
G1 X145.847 Y126.883 E12.02775
G1 X146.207 Y127.193 E12.046
G1 X146.707 Y127.525 E12.06906
G1 X150.281 Y127.525 E12.20635
G1 X150.709 Y127.241 E12.22608
G1 X150.958 Y127.043 E12.23831
G1 X151.245 Y126.774 E12.25342
G1 X151.501 Y126.467 E12.26877
G1 X151.681 Y126.209 E12.28086
G1 X151.838 Y125.934 E12.29302
G1 X152.01 Y125.568 E12.30856
G1 X152.128 Y125.201 E12.32337
G1 X152.159 Y125.069 E12.32858
G0 F1080 X152.217 Y124.821
G0 X152.268 Y124.351
M204 S500
G1 F2400 E11.52858
G0 F6000 X152.009 Y124.346
G0 X151.786 Y122.953
G1 F2400 E12.32858
G0 F6000 X152.444 Y122.711
M204 S800
;TYPE:WALL-OUTER
G1 F1200 X152.307 Y122.392 E12.34191
G1 X152.106 Y122.004 E12.3587
G1 X151.807 Y121.573 E12.37885
G1 X151.505 Y121.237 E12.3962
G1 X151.177 Y120.93 E12.41346
G1 X150.826 Y120.675 E12.43013
G1 X150.379 Y120.405 E12.45019
G1 X146.608 Y120.405 E12.59506
G1 X146.161 Y120.675 E12.61512
G1 X145.811 Y120.929 E12.63173
G1 X145.483 Y121.236 E12.64899
G1 X145.186 Y121.564 E12.66599
G1 X144.885 Y121.999 E12.68631
G1 X144.683 Y122.385 E12.70304
G1 X144.543 Y122.715 E12.71681
G1 X144.4 Y123.154 E12.73455
G1 X144.308 Y123.656 E12.75416
G1 X144.275 Y124.186 E12.77456
G1 X144.308 Y124.714 E12.79488
G1 X144.402 Y125.216 E12.8145
G1 X144.571 Y125.745 E12.83583
G1 X144.758 Y126.137 E12.85252
G1 X144.935 Y126.445 E12.86616
G1 X145.186 Y126.806 E12.88305
G1 X145.539 Y127.198 E12.90332
G1 X145.941 Y127.545 E12.92372
G1 X146.309 Y127.789 E12.94068
G1 X146.635 Y127.965 E12.95491
G1 X150.355 Y127.965 E13.09782
G1 X150.678 Y127.79 E13.11193
G1 X150.968 Y127.597 E13.12531
G1 X151.246 Y127.377 E13.13893
G1 X151.566 Y127.076 E13.15581
G1 X151.851 Y126.734 E13.17291
G1 X152.053 Y126.445 E13.18646
G1 X152.229 Y126.138 E13.20005
G1 X152.42 Y125.729 E13.21739
G1 X152.552 Y125.319 E13.23394
G1 X152.652 Y124.895 E13.25067
G1 X152.708 Y124.37 E13.27096
G1 X152.703 Y124.068 E13.28256
G1 X152.698 Y123.837 E13.29143
G1 X152.636 Y123.411 E13.30797
G0 F1080 X152.636 Y123.407
G0 X152.554 Y123.051
G0 X152.444 Y122.711
M204 S500
G0 F6000 X152.366 Y122.528
G1 F2400 E12.50797
G0 F6000 X151.72 Y122.798
G0 X145.658 Y123.486
M204 S800
;TYPE:SKIN
G1 F2400 E13.30797
G1 F1200 X145.599 Y123.815 E13.32081
G1 X145.576 Y124.187 E13.33513
G1 X145.599 Y124.552 E13.34918
G1 X145.665 Y124.896 E13.36264
G1 X145.78 Y125.263 E13.37741
G1 X145.978 Y125.674 E13.39494
G1 X146.205 Y125.997 E13.4101
G1 X146.449 Y126.269 E13.42414
G1 X146.725 Y126.507 E13.43814
G1 X146.972 Y126.667 E13.44944
G1 X150.017 Y126.667 E13.56642
G1 X150.292 Y126.49 E13.57898
G1 X150.619 Y126.182 E13.59624
G1 X150.901 Y125.846 E13.61309
G1 X151.076 Y125.538 E13.6267
G1 X151.209 Y125.251 E13.63885
G1 X151.299 Y124.971 E13.65015
G1 X151.369 Y124.674 E13.66187
G1 X151.408 Y124.312 E13.67586
G1 X151.405 Y124.087 E13.6845
G1 X151.401 Y123.941 E13.69011
G1 X151.361 Y123.657 E13.70113
G1 X151.302 Y123.396 E13.71141
G1 X151.208 Y123.096 E13.72349
G1 X150.991 Y122.675 E13.74168
G1 X150.784 Y122.378 E13.75559
G1 X150.576 Y122.146 E13.76756
G1 X150.348 Y121.933 E13.77955
G1 X150.031 Y121.703 E13.79459
G1 X146.96 Y121.703 E13.91256
G1 X146.643 Y121.928 E13.9275
G1 X146.41 Y122.146 E13.93976
G1 X146.205 Y122.372 E13.95148
G1 X145.997 Y122.674 E13.96556
G1 X145.925 Y122.81 E13.97148
G0 F1080 X145.857 Y122.94
