;FLAVOR:Marlin
;TIME:532
;Filament used: 0.136223m
;Layer height: 0.12
;MINX:142.461
;MINY:85.176
;MINZ:0.2
;MAXX:165.37
;MAXY:98.555
;MAXZ:9.22
;Generated with Cura_SteamEngine 5.2.2
M140 S90
M105
M190 S90
M104 S230
M105
M109 S230
M82 ;absolute extrusion mode
G28; Fahr zum Nullpunkt
G29; Probe Time
G92 E0; setze den Extruder auf Null
M 501; Daten aus EEProm lesen
M 420 S1; Bettnivelierung Aktivieren
G1 Z2.0 F3000; Druckkopf 2mm nach oben fahren
G1 X10.1 Y20 Z0.28 F5000.0; Fahre an die Startposition X10.1 Y20 Z0.28
G1 X10.1 Y200.0 Z0.28 F1500.0 E15; Ziehe eine Linie von der Startposition aus nach Y200
G1 X10.4 Y200.0 Z0.28 F5000.0; Bissl zur Seite bewegen
G1 X10.4 Y20 Z0.28 F1500.0 E30; eine 2. Linie nach vorne ziehen
G92 E0; setze den Extruder auf Null
G1 Z1.0 F3000; Fahr die Düse 2mm nach oben
G92 E0
G92 E0
G1 F2400 E-0.8
;LAYER_COUNT:74
;LAYER:0
M107
M204 S500
G1 F300 Z0.7
G0 F6000 X143.289 Y88.27 Z0.7
M204 S800
;TYPE:SKIRT
G1 F300 Z0.2
G1 F2400 E0
G1 F1200 X143.658 Y87.702 E0.02602
G1 X143.891 Y87.399 E0.0407
G1 X144.259 Y86.997 E0.06164
G1 X144.541 Y86.726 E0.07666
G1 X144.899 Y86.435 E0.09439
G1 X145.124 Y86.273 E0.10504
G1 X145.47 Y86.051 E0.12083
G1 X145.721 Y85.909 E0.13191
G1 X146.205 Y85.673 E0.1526
G1 X146.671 Y85.498 E0.17172
G1 X146.953 Y85.411 E0.18305
G1 X147.313 Y85.323 E0.19729
G1 X147.559 Y85.276 E0.20691
G1 X148.013 Y85.213 E0.22452
G1 X148.646 Y85.176 E0.24888
G1 X149.215 Y85.205 E0.27077
G1 X152.227 Y85.498 E0.38702
G1 X154.955 Y85.684 E0.49206
G1 X159.126 Y85.82 E0.65238
G1 X159.854 Y85.877 E0.68043
G1 X160.216 Y85.927 E0.69447
G1 X160.576 Y86.012 E0.70868
G1 X161.119 Y86.173 E0.73043
G1 X161.535 Y86.342 E0.74768
G1 X161.973 Y86.552 E0.76634
G1 X162.467 Y86.835 E0.78821
G1 X162.941 Y87.182 E0.81078
G1 X163.184 Y87.383 E0.82289
G1 X163.536 Y87.712 E0.8414
G1 X163.882 Y88.084 E0.86092
G1 X164.113 Y88.386 E0.87553
G1 X164.321 Y88.684 E0.88949
G1 X164.569 Y89.079 E0.9074
G1 X164.879 Y89.723 E0.93486
G1 X165.081 Y90.27 E0.95726
G1 X165.183 Y90.652 E0.97245
G1 X165.3 Y91.208 E0.99428
G1 X165.357 Y91.763 E1.01571
G1 X165.37 Y92.053 E1.02686
G1 X165.36 Y92.624 E1.0488
G1 X165.288 Y93.207 E1.07137
G1 X165.195 Y93.682 E1.08996
G1 X165.078 Y94.099 E1.1066
G1 X164.987 Y94.359 E1.11718
G1 X164.867 Y94.667 E1.12988
G1 X164.673 Y95.087 E1.14765
G1 X164.373 Y95.625 E1.17131
G1 X164.072 Y96.044 E1.19113
G1 X163.914 Y96.242 E1.20086
G1 X163.62 Y96.574 E1.2179
G1 X163.425 Y96.771 E1.22855
G1 X163.198 Y96.976 E1.2403
G1 X162.953 Y97.18 E1.25254
G1 X162.6 Y97.442 E1.26943
G1 X162.15 Y97.727 E1.28989
G1 X161.888 Y97.868 E1.30132
G1 X161.523 Y98.036 E1.31676
G1 X161.015 Y98.237 E1.33775
G1 X160.328 Y98.421 E1.36507
G1 X159.74 Y98.512 E1.38793
G1 X159.259 Y98.55 E1.40646
G1 X158.931 Y98.555 E1.41906
G1 X158.392 Y98.531 E1.43979
G1 X157.113 Y98.36 E1.48936
G1 X156.449 Y98.261 E1.51515
G1 X153.748 Y97.938 E1.61965
G1 X150.959 Y97.683 E1.72724
G1 X148.241 Y97.511 E1.83186
G1 X147.882 Y97.475 E1.84572
G1 X147.294 Y97.379 E1.86861
G1 X146.775 Y97.234 E1.88931
G1 X146.305 Y97.066 E1.90848
G1 X145.937 Y96.907 E1.92388
G1 X145.603 Y96.731 E1.93839
G1 X145.1 Y96.415 E1.9612
G1 X144.688 Y96.097 E1.9812
G1 X144.33 Y95.776 E1.99967
G1 X144.128 Y95.57 E2.01075
G1 X143.837 Y95.235 E2.0278
G1 X143.53 Y94.822 E2.04757
G1 X143.277 Y94.43 E2.06549
G1 X143.022 Y93.922 E2.08733
G1 X142.919 Y93.686 E2.09722
G1 X142.8 Y93.366 E2.11033
G1 X142.675 Y92.961 E2.12662
G1 X142.569 Y92.508 E2.14449
G1 X142.505 Y92.14 E2.15884
G1 X142.466 Y91.614 E2.1791
G1 X142.461 Y91.324 E2.19024
G1 X142.487 Y90.73 E2.21308
G1 X142.573 Y90.177 E2.23458
G1 X142.635 Y89.893 E2.24575
G1 X142.778 Y89.381 E2.26617
G1 X142.961 Y88.919 E2.28526
G0 F1080 X142.967 Y88.904
G0 X143.12 Y88.575
G0 X143.289 Y88.27
M204 S500
G0 F6000 X143.658 Y88.51
M204 S800
G1 F1200 X144.027 Y87.942 E2.31128
G1 X144.218 Y87.692 E2.32337
G1 X144.458 Y87.424 E2.33719
G1 X144.772 Y87.115 E2.35411
G1 X145.26 Y86.708 E2.37852
G1 X145.803 Y86.359 E2.40332
G1 X146.382 Y86.076 E2.42807
G1 X146.943 Y85.866 E2.45109
G1 X147.523 Y85.724 E2.47403
G1 X148.137 Y85.646 E2.4978
G1 X148.641 Y85.617 E2.5172
G1 X149.173 Y85.643 E2.53766
G1 X152.192 Y85.937 E2.65418
G1 X154.938 Y86.124 E2.75991
G1 X159.112 Y86.26 E2.92035
G1 X159.818 Y86.316 E2.94755
G1 X160.329 Y86.398 E2.96743
G1 X160.98 Y86.591 E2.99352
G1 X161.512 Y86.814 E3.01568
G1 X161.777 Y86.946 E3.02705
G1 X162.22 Y87.2 E3.04667
G1 X162.546 Y87.433 E3.06206
G1 X162.903 Y87.722 E3.07971
G1 X163.231 Y88.029 E3.09696
G1 X163.492 Y88.31 E3.1117
G1 X163.763 Y88.653 E3.12849
G1 X163.959 Y88.933 E3.14162
G1 X164.187 Y89.3 E3.15822
G1 X164.472 Y89.892 E3.18346
G1 X164.661 Y90.404 E3.20442
G1 X164.758 Y90.766 E3.21882
G1 X164.865 Y91.275 E3.2388
G1 X164.917 Y91.783 E3.25842
G1 X164.93 Y92.073 E3.26957
G1 X164.921 Y92.598 E3.28974
G1 X164.856 Y93.128 E3.31025
G1 X164.801 Y93.428 E3.32197
G1 X164.712 Y93.792 E3.33637
G1 X164.543 Y94.29 E3.35657
G1 X164.402 Y94.634 E3.37085
G1 X164.2 Y95.042 E3.38834
G1 X163.996 Y95.393 E3.40394
G1 X163.654 Y95.871 E3.42651
G1 X163.209 Y96.373 E3.45229
G1 X162.83 Y96.712 E3.47182
G1 X162.579 Y96.913 E3.48417
G1 X162.211 Y97.174 E3.5015
G1 X161.819 Y97.415 E3.51918
G1 X161.339 Y97.636 E3.53948
G1 X160.872 Y97.819 E3.55875
G1 X160.238 Y97.99 E3.58397
G1 X159.698 Y98.074 E3.60497
G1 X159.252 Y98.11 E3.62216
G1 X158.924 Y98.115 E3.63476
G1 X158.418 Y98.091 E3.65422
G1 X157.178 Y97.925 E3.70228
G1 X156.529 Y97.828 E3.72749
G1 X153.741 Y97.495 E3.83535
G1 X151.027 Y97.246 E3.94005
G1 X148.284 Y97.073 E4.04563
G1 X147.925 Y97.037 E4.05949
G1 X147.474 Y96.963 E4.07705
G1 X147.048 Y96.857 E4.09391
G1 X146.557 Y96.695 E4.11378
G1 X146.112 Y96.503 E4.13239
G1 X145.837 Y96.358 E4.14434
G1 X145.29 Y96.007 E4.1693
G1 X144.976 Y95.765 E4.18453
G1 X144.644 Y95.468 E4.20165
G1 X144.339 Y95.149 E4.2186
G1 X144.173 Y94.952 E4.2285
G1 X143.887 Y94.565 E4.24698
G1 X143.654 Y94.201 E4.26358
G1 X143.415 Y93.725 E4.28405
G1 X143.247 Y93.311 E4.30121
G1 X143.102 Y92.856 E4.31955
G1 X143.002 Y92.433 E4.33625
G1 X142.943 Y92.093 E4.34951
G1 X142.896 Y91.459 E4.37393
G1 X142.926 Y90.773 E4.40031
G1 X143.003 Y90.271 E4.41982
G1 X143.065 Y89.987 E4.43099
G1 X143.196 Y89.519 E4.44966
G1 X143.337 Y89.163 E4.46437
G0 F1080 X143.366 Y89.09
G0 X143.519 Y88.761
G0 X143.658 Y88.51
M204 S500
G0 F6000 X143.966 Y88.843
M204 S800
G1 F1200 X144.461 Y88.081 E4.49927
G1 X144.786 Y87.718 E4.51799
G1 X145.077 Y87.432 E4.53366
G1 X145.517 Y87.066 E4.55565
G1 X146.022 Y86.741 E4.57872
G1 X146.488 Y86.514 E4.59863
G1 X147.058 Y86.291 E4.62215
G1 X147.606 Y86.157 E4.64382
G1 X148.032 Y86.098 E4.66034
G1 X148.644 Y86.058 E4.6839
G1 X149.04 Y86.074 E4.69912
G1 X152.15 Y86.375 E4.81915
G1 X154.925 Y86.564 E4.926
G1 X159.177 Y86.704 E5.08943
G1 X159.782 Y86.754 E5.11276
G1 X160.235 Y86.829 E5.13039
G1 X160.833 Y87.007 E5.15436
G1 X161.204 Y87.157 E5.16974
G1 X161.679 Y87.393 E5.19011
G1 X162.045 Y87.616 E5.20658
G1 X162.38 Y87.86 E5.2225
G1 X162.713 Y88.141 E5.23923
G1 X162.926 Y88.346 E5.25059
G1 X163.166 Y88.606 E5.26418
G1 X163.459 Y88.983 E5.28253
G1 X163.646 Y89.258 E5.2953
G1 X163.838 Y89.588 E5.30997
G1 X164.069 Y90.068 E5.33043
G1 X164.258 Y90.6 E5.35212
G1 X164.356 Y90.978 E5.36712
G1 X164.416 Y91.276 E5.3788
G1 X164.469 Y91.694 E5.39499
G1 X164.49 Y92.092 E5.4103
G1 X164.482 Y92.502 E5.42605
G1 X164.423 Y93.049 E5.44718
G1 X164.368 Y93.349 E5.4589
G1 X164.286 Y93.681 E5.47204
G1 X164.156 Y94.069 E5.48776
G1 X164.049 Y94.343 E5.49906
G1 X163.879 Y94.708 E5.51453
G1 X163.625 Y95.158 E5.53438
G1 X163.308 Y95.599 E5.55524
G1 X162.905 Y96.054 E5.57859
G1 X162.551 Y96.372 E5.59687
G1 X162.321 Y96.557 E5.60821
G1 X161.98 Y96.799 E5.62427
G1 X161.606 Y97.029 E5.64114
G1 X161.054 Y97.279 E5.66442
G1 X160.73 Y97.402 E5.67773
G1 X160.147 Y97.558 E5.70092
G1 X159.656 Y97.636 E5.72001
G1 X159.245 Y97.67 E5.73586
G1 X158.917 Y97.675 E5.74846
G1 X158.396 Y97.644 E5.76851
G1 X157.243 Y97.49 E5.81319
G1 X156.578 Y97.391 E5.83902
G1 X153.793 Y97.058 E5.94677
G1 X151.059 Y96.808 E6.05224
G1 X148.388 Y96.64 E6.15505
G1 X147.851 Y96.583 E6.17579
G1 X147.417 Y96.5 E6.19277
G1 X147.058 Y96.401 E6.20707
G1 X146.654 Y96.258 E6.22354
G1 X146.174 Y96.05 E6.24363
G1 X145.458 Y95.594 E6.27624
G1 X145.052 Y95.248 E6.29673
G1 X144.675 Y94.865 E6.31738
G1 X144.509 Y94.668 E6.32728
G1 X144.244 Y94.307 E6.34448
G1 X144.04 Y93.989 E6.35899
G1 X143.768 Y93.447 E6.38229
G1 X143.584 Y92.951 E6.40261
G1 X143.459 Y92.467 E6.42182
G1 X143.379 Y92.034 E6.43873
G1 X143.336 Y91.455 E6.46103
G1 X143.374 Y90.748 E6.48823
G1 X143.411 Y90.484 E6.49847
G1 X143.495 Y90.081 E6.51429
G1 X143.595 Y89.726 E6.52846
G1 X143.677 Y89.51 E6.53733
G0 F1080 X143.765 Y89.275
G0 X143.966 Y88.843
M204 S500
G0 F6000 X144.352 Y89.057
M204 S800
G1 F1200 X144.813 Y88.347 E6.56985
G1 X145.114 Y88.011 E6.58718
G1 X145.382 Y87.749 E6.60158
G1 X145.779 Y87.421 E6.62136
G1 X146.245 Y87.122 E6.64263
G1 X146.783 Y86.866 E6.66552
G1 X147.202 Y86.709 E6.68271
G1 X147.627 Y86.605 E6.69952
G1 X148.093 Y86.534 E6.71763
G1 X148.59 Y86.502 E6.73676
G1 X149.087 Y86.518 E6.75586
G1 X152.137 Y86.815 E6.87358
G1 X154.908 Y87.004 E6.98028
G1 X159.141 Y87.143 E7.14298
G1 X159.746 Y87.193 E7.1663
G1 X160.134 Y87.258 E7.18141
G1 X160.735 Y87.442 E7.20556
G1 X161.119 Y87.602 E7.22154
G1 X161.455 Y87.772 E7.236
G1 X161.789 Y87.974 E7.251
G1 X162.099 Y88.199 E7.26571
G1 X162.407 Y88.458 E7.28117
G1 X162.676 Y88.72 E7.2956
G1 X162.902 Y88.976 E7.30872
G1 X163.185 Y89.349 E7.3267
G1 X163.441 Y89.779 E7.34593
G1 X163.681 Y90.29 E7.36761
G1 X163.832 Y90.714 E7.3849
G1 X163.924 Y91.065 E7.39884
G1 X164 Y91.461 E7.41433
G1 X164.032 Y91.743 E7.42524
G1 X164.051 Y92.112 E7.43943
G1 X164.036 Y92.579 E7.45738
G1 X163.99 Y92.969 E7.47247
G1 X163.917 Y93.351 E7.48741
G1 X163.832 Y93.663 E7.49983
G1 X163.725 Y93.966 E7.51217
G1 X163.608 Y94.255 E7.52415
G1 X163.482 Y94.519 E7.53539
G1 X163.282 Y94.871 E7.55094
G1 X162.999 Y95.274 E7.56986
G1 X162.591 Y95.745 E7.5938
G1 X162.185 Y96.11 E7.61477
G1 X161.75 Y96.424 E7.63538
G1 X161.396 Y96.642 E7.65135
G1 X160.898 Y96.868 E7.67236
G1 X160.645 Y96.964 E7.68275
G1 X160.113 Y97.112 E7.70397
G1 X159.615 Y97.198 E7.72338
G1 X159.239 Y97.23 E7.73788
G1 X158.911 Y97.235 E7.75048
G1 X158.454 Y97.208 E7.76807
G1 X157.307 Y97.054 E7.81252
G1 X156.654 Y96.957 E7.83788
G1 X153.847 Y96.621 E7.94649
G1 X151.093 Y96.369 E8.05272
G1 X148.415 Y96.201 E8.1558
G1 X148.013 Y96.161 E8.17132
G1 X147.627 Y96.096 E8.18636
G1 X147.275 Y96.007 E8.20031
G1 X146.915 Y95.887 E8.21488
G1 X146.38 Y95.661 E8.2372
G1 X145.896 Y95.357 E8.25915
G1 X145.553 Y95.101 E8.27559
G1 X145.34 Y94.916 E8.28643
G1 X145.071 Y94.646 E8.30107
G1 X144.792 Y94.316 E8.31767
G1 X144.6 Y94.05 E8.33028
G1 X144.396 Y93.718 E8.34525
G1 X144.202 Y93.331 E8.36188
G1 X144.054 Y92.953 E8.37747
G1 X143.956 Y92.645 E8.38989
G1 X143.869 Y92.282 E8.40423
G1 X143.812 Y91.922 E8.41823
G1 X143.777 Y91.45 E8.43641
G1 X143.8 Y90.92 E8.45679
G1 X143.847 Y90.545 E8.47131
G1 X143.945 Y90.095 E8.489
G1 X144.045 Y89.766 E8.50221
G1 X144.062 Y89.724 E8.50395
G0 F1080 X144.164 Y89.461
G0 X144.352 Y89.057
M204 S500
G0 F6000 X144.737 Y89.273
M204 S800
G1 F1200 X145.163 Y88.616 E8.53403
G1 X145.479 Y88.266 E8.55214
G1 X145.732 Y88.026 E8.56554
G1 X146.074 Y87.754 E8.58233
G1 X146.493 Y87.491 E8.60133
G1 X146.874 Y87.305 E8.61762
G1 X147.289 Y87.146 E8.63469
G1 X147.802 Y87.019 E8.65499
G1 X148.212 Y86.964 E8.67089
G1 X148.615 Y86.941 E8.68639
G1 X149.045 Y86.956 E8.70292
G1 X152.095 Y87.253 E8.82064
G1 X154.871 Y87.442 E8.92753
G1 X159.104 Y87.581 E9.09023
G1 X159.709 Y87.631 E9.11355
G1 X160.002 Y87.682 E9.12498
G1 X160.57 Y87.85 E9.14773
G1 X160.873 Y87.973 E9.16029
G1 X161.188 Y88.128 E9.17378
G1 X161.533 Y88.332 E9.18918
G1 X161.819 Y88.538 E9.20272
G1 X162.062 Y88.739 E9.21483
G1 X162.444 Y89.107 E9.23521
G1 X162.816 Y89.588 E9.25857
G1 X163.045 Y89.97 E9.27568
G1 X163.269 Y90.442 E9.29575
G1 X163.388 Y90.765 E9.30897
G1 X163.493 Y91.152 E9.32437
G1 X163.553 Y91.45 E9.33605
G1 X163.598 Y91.842 E9.35121
G1 X163.612 Y92.186 E9.36444
G1 X163.599 Y92.531 E9.3777
G1 X163.565 Y92.839 E9.3896
G1 X163.491 Y93.241 E9.4053
G1 X163.417 Y93.518 E9.41632
G1 X163.268 Y93.943 E9.43362
G1 X163.085 Y94.329 E9.45003
G1 X162.901 Y94.651 E9.46428
G1 X162.642 Y95.018 E9.48153
G1 X162.302 Y95.407 E9.50138
G1 X161.916 Y95.763 E9.52155
G1 X161.519 Y96.049 E9.54035
G1 X161.152 Y96.269 E9.55679
G1 X160.787 Y96.437 E9.57222
G1 X160.42 Y96.574 E9.58727
G1 X159.93 Y96.702 E9.60672
G1 X159.573 Y96.76 E9.62062
G1 X159.232 Y96.79 E9.63377
G1 X158.85 Y96.794 E9.64844
G1 X158.513 Y96.772 E9.66142
G1 X157.372 Y96.619 E9.70564
G1 X156.706 Y96.52 E9.73151
G1 X153.903 Y96.185 E9.83995
G1 X151.121 Y95.93 E9.94727
G1 X148.443 Y95.762 E10.05035
G1 X148.004 Y95.716 E10.06731
G1 X147.643 Y95.65 E10.08141
G1 X147.388 Y95.582 E10.09154
G1 X147.057 Y95.471 E10.10496
G1 X146.586 Y95.27 E10.12463
G1 X146.13 Y94.984 E10.14531
G1 X145.842 Y94.769 E10.15911
G1 X145.629 Y94.584 E10.16995
G1 X145.348 Y94.298 E10.18535
G1 X145.182 Y94.101 E10.19525
G1 X144.957 Y93.792 E10.20993
G1 X144.789 Y93.521 E10.22218
G1 X144.595 Y93.134 E10.23881
G1 X144.472 Y92.816 E10.25191
G1 X144.383 Y92.539 E10.26309
G1 X144.313 Y92.256 E10.27429
G1 X144.251 Y91.889 E10.28859
G1 X144.22 Y91.4 E10.30741
G1 X144.246 Y90.87 E10.32779
G1 X144.283 Y90.606 E10.33803
G1 X144.367 Y90.219 E10.35325
G1 X144.439 Y89.974 E10.36306
G1 X144.452 Y89.942 E10.36438
G0 F1080 X144.563 Y89.646
G0 X144.737 Y89.273
M204 S500
;MESH:H??lse (1).3mf
G0 F6000 X145.637 Y90.291
M204 S800
;TYPE:WALL-OUTER
G1 F1521.6 X145.787 Y89.92 E10.37651
G1 X145.996 Y89.577 E10.38868
G1 F1504.3 X146.152 Y89.364 E10.39677
G1 X146.337 Y89.153 E10.40537
G1 F1512.9 X146.534 Y88.965 E10.41366
G1 X146.78 Y88.767 E10.42329
G1 F1521.6 X147.184 Y88.517 E10.43768
G1 F1530.4 X147.691 Y88.31 E10.45417
G1 F1526 X148.097 Y88.222 E10.46672
G1 F1517.2 X148.346 Y88.188 E10.47436
G1 X148.632 Y88.175 E10.48306
G1 F1508.6 X148.928 Y88.189 E10.49211
G1 F1517.2 X149.294 Y88.238 E10.50333
G1 F1521.6 X149.702 Y88.362 E10.51625
G1 F1512.9 X149.947 Y88.46 E10.52429
G1 X150.176 Y88.576 E10.53211
G1 X150.403 Y88.714 E10.54021
G1 F1517.2 X150.626 Y88.882 E10.54869
G1 X150.824 Y89.054 E10.55666
G1 X151.016 Y89.255 E10.56511
G1 X151.225 Y89.519 E10.57534
G1 F1530.4 X151.464 Y89.905 E10.58901
G1 F1539.4 X151.667 Y90.407 E10.60523
G1 F1526 X151.759 Y90.816 E10.61789
G1 F1517.2 X151.794 Y91.083 E10.62607
G1 X151.805 Y91.351 E10.63422
G1 F1508.6 X151.791 Y91.65 E10.64337
G1 F1521.6 X151.744 Y92.003 E10.65416
G1 F1526 X151.623 Y92.41 E10.66698
G1 F1521.6 X151.479 Y92.768 E10.67867
G1 F1526 X151.258 Y93.13 E10.69149
G1 F1517.2 X151.074 Y93.38 E10.70092
G1 F1521.6 X150.733 Y93.739 E10.71592
G1 X150.407 Y93.981 E10.72822
G1 X150.047 Y94.199 E10.74097
G1 F1530.4 X149.534 Y94.399 E10.75755
G1 F1526 X149.163 Y94.479 E10.76902
G1 F1517.2 X148.844 Y94.521 E10.77879
G1 F1521.6 X148.423 Y94.521 E10.79155
G1 F1526 X147.965 Y94.461 E10.8055
G1 F1517.2 X147.569 Y94.344 E10.81805
G1 F1512.9 X147.313 Y94.24 E10.82647
G1 F1508.6 X147.078 Y94.121 E10.83452
G1 X146.85 Y93.98 E10.84271
G1 F1512.9 X146.644 Y93.827 E10.85053
G1 F1517.2 X146.43 Y93.64 E10.85916
G1 X146.249 Y93.452 E10.86709
G1 X146.029 Y93.176 E10.87782
G1 F1512.9 X145.864 Y92.911 E10.88733
G1 F1508.6 X145.705 Y92.593 E10.89819
G1 F1512.9 X145.597 Y92.292 E10.90794
G1 X145.526 Y92.022 E10.91644
G1 F1517.2 X145.467 Y91.618 E10.92885
G1 F1512.9 X145.455 Y91.349 E10.93705
G1 F1508.6 X145.467 Y91.081 E10.94525
G1 F1517.2 X145.51 Y90.742 E10.95563
G1 F1521.6 X145.637 Y90.291 E10.96983
M204 S500
G0 F6000 X145.712 Y90.106
G1 F2400 E10.16983
G1 F300 Z0.7
G0 F6000 X146.887 Y94.417 Z0.7
M204 S800
G1 F300 Z0.2
G1 F2400 E10.96983
G1 F1504.3 X147.197 Y94.57 E10.98042
G1 F1508.6 X147.455 Y94.674 E10.98892
G1 X147.696 Y94.747 E10.99662
G1 F1517.2 X147.962 Y94.812 E11.00494
G1 F1512.9 X148.227 Y94.851 E11.0131
G1 F1504.3 X148.491 Y94.873 E11.02122
G1 F1508.6 X148.765 Y94.872 E11.02959
G1 X149.03 Y94.851 E11.03771
G1 X149.3 Y94.81 E11.04606
G1 F1512.9 X149.715 Y94.709 E11.05907
