;FLAVOR:Marlin
;TIME:6096
;Filament used: 1.75409m
;Layer height: 0.12
;MINX:131.822
;MINY:120.607
;MINZ:0.2
;MAXX:172.731
;MAXY:151.325
;MAXZ:14.96
;Generated with Cura_SteamEngine 5.2.2
M140 S100
M105
M190 S100
M104 S235
M105
M109 S235
M82 ;absolute extrusion mode
G28; Fahr zum Nullpunkt
G29; Probe Time
G92 E0; setze den Extruder auf Null
M 501; Daten aus EEProm lesen
M 420 S1; Bettnivelierung Aktivieren
G1 Z2.0 F3000; Druckkopf 2mm nach oben fahren
G1 X10.1 Y20 Z0.28 F5000.0; Fahre an die Startposition X10.1 Y20 Z0.28
G1 X10.1 Y200.0 Z0.28 F1500.0 E15; Ziehe eine Linie von der Startposition aus nach Y200
G1 X10.4 Y200.0 Z0.28 F5000.0; Bissl zur Seite bewegen
G1 X10.4 Y20 Z0.28 F1500.0 E30; eine 2. Linie nach vorne ziehen
G92 E0; setze den Extruder auf Null
G1 Z1.0 F3000; Fahr die Düse 2mm nach oben
G92 E0
G92 E0
G1 F2400 E-0.8
;LAYER_COUNT:124
;LAYER:0
M107
M204 S500
G1 F300 Z0.7
G0 F6000 X132.461 Y125.408 Z0.7
M204 S800
;TYPE:SKIRT
G1 F300 Z0.2
G1 F2400 E0
G1 F1200 X132.778 Y125.159 E0.01549
G1 X133.302 Y124.922 E0.03758
G1 X134.81 Y124.483 E0.09791
G1 X137.492 Y123.657 E0.20572
G1 X140.107 Y122.768 E0.31182
G1 X144.164 Y121.238 E0.47839
G1 X144.64 Y121.089 E0.49755
G1 X144.999 Y120.998 E0.51178
G1 X145.389 Y120.916 E0.52709
G1 X145.754 Y120.861 E0.54127
G1 X146.144 Y120.821 E0.55633
G1 X146.571 Y120.799 E0.57275
G1 X147.388 Y120.789 E0.60414
G1 X164.205 Y120.79 E1.25017
G1 X164.843 Y120.797 E1.27468
G1 X165.25 Y120.814 E1.29033
G1 X165.687 Y120.854 E1.30719
G1 X166.041 Y120.905 E1.32093
G1 X166.327 Y120.959 E1.33211
G1 X166.799 Y121.073 E1.35076
G1 X167.06 Y121.149 E1.36121
G1 X167.434 Y121.275 E1.37637
G1 X167.875 Y121.453 E1.39464
G1 X168.227 Y121.618 E1.40957
G1 X168.468 Y121.743 E1.42
G1 X168.794 Y121.931 E1.43446
G1 X169.145 Y122.158 E1.45051
G1 X169.43 Y122.363 E1.464
G1 X169.815 Y122.671 E1.48294
G1 X170.098 Y122.924 E1.49752
G1 X170.373 Y123.197 E1.51241
G1 X170.56 Y123.398 E1.52296
G1 X170.864 Y123.763 E1.5412
G1 X171.111 Y124.092 E1.55701
G1 X171.304 Y124.379 E1.57029
G1 X171.514 Y124.725 E1.58584
G1 X171.656 Y124.984 E1.59719
G1 X171.812 Y125.301 E1.61076
G1 X171.966 Y125.654 E1.62556
G1 X172.137 Y126.12 E1.64463
G1 X172.247 Y126.478 E1.65901
G1 X172.321 Y126.761 E1.67025
G1 X172.397 Y127.107 E1.68386
G1 X172.463 Y127.504 E1.69932
G1 X172.515 Y127.974 E1.71748
G1 X172.538 Y128.413 E1.73437
G1 X172.548 Y129.197 E1.76449
G1 X172.547 Y136.057 E2.02802
G1 X172.523 Y137.093 E2.06783
G1 X172.483 Y137.53 E2.08469
G1 X172.432 Y137.884 E2.09843
G1 X172.378 Y138.17 E2.10961
G1 X172.265 Y138.639 E2.12814
G1 X172.193 Y138.888 E2.1381
G1 X172.062 Y139.277 E2.15387
G1 X171.884 Y139.718 E2.17214
G1 X171.717 Y140.074 E2.18724
G1 X171.593 Y140.312 E2.19755
G1 X171.353 Y140.724 E2.21587
G1 X171.125 Y141.068 E2.23172
G1 X170.96 Y141.294 E2.24247
G1 X170.652 Y141.676 E2.26132
G1 X169.821 Y142.614 E2.30946
G1 X167.995 Y144.736 E2.41701
G1 X166.287 Y146.839 E2.52108
G1 X164.401 Y149.307 E2.64041
G1 X163.886 Y149.999 E2.67354
G1 X163.614 Y150.298 E2.68907
G1 X163.289 Y150.537 E2.70457
G1 X162.869 Y150.733 E2.72237
G1 X161.561 Y151.034 E2.77393
G1 X160.737 Y151.214 E2.80634
G1 X160.359 Y151.26 E2.82096
G1 X159.982 Y151.27 E2.83545
G1 X158.915 Y151.27 E2.87644
G1 X158.351 Y151.262 E2.89811
G1 X155.562 Y151.262 E3.00525
G1 X153.003 Y151.325 E3.10358
G1 X151.852 Y151.325 E3.1478
G1 X151.153 Y151.315 E3.17466
G1 X150.676 Y151.251 E3.19314
G1 X149.248 Y150.885 E3.24977
G1 X148.749 Y150.748 E3.26965
G1 X148.372 Y150.603 E3.28517
G1 X148.123 Y150.455 E3.2963
G1 X147.48 Y150.007 E3.3264
G1 X146.444 Y149.264 E3.37538
G1 X144.184 Y147.737 E3.48016
G1 X141.828 Y146.241 E3.58737
G1 X139.457 Y144.827 E3.69342
G1 X137.019 Y143.466 E3.80068
G1 X134.533 Y142.168 E3.90842
G1 X133.937 Y141.868 E3.93405
G1 X133.596 Y141.652 E3.94955
G1 X133.305 Y141.373 E3.96504
G1 X133.074 Y141.042 E3.98055
G1 X132.913 Y140.672 E3.99605
G1 X132.834 Y140.333 E4.00942
G1 X132.511 Y138.061 E4.09758
G1 X132.433 Y137.189 E4.13121
G1 X132.344 Y135.937 E4.17943
G1 X132.067 Y133.172 E4.28618
G1 X131.962 Y132.359 E4.31767
G1 X131.834 Y131.24 E4.36094
G1 X131.822 Y130.775 E4.37881
G1 X131.822 Y127.541 E4.50304
G1 X131.832 Y126.851 E4.52955
G1 X131.878 Y126.451 E4.54502
G1 X132.002 Y126.067 E4.56052
G1 X132.041 Y125.997 E4.5636
G0 F1080 X132.199 Y125.714
G0 X132.461 Y125.408
M204 S500
G0 F6000 X132.889 Y125.618
M204 S800
G1 F1200 X133.256 Y125.394 E4.58011
G1 X134.942 Y124.904 E4.64756
G1 X137.614 Y124.08 E4.75498
G1 X140.255 Y123.183 E4.86213
G1 X144.319 Y121.65 E5.02898
G1 X144.75 Y121.515 E5.04634
G1 X145.033 Y121.442 E5.05756
G1 X145.457 Y121.351 E5.07422
G1 X145.732 Y121.308 E5.08491
G1 X146.081 Y121.268 E5.09841
G1 X146.577 Y121.239 E5.1175
G1 X147.388 Y121.229 E5.14865
G1 X164.2 Y121.23 E5.79449
G1 X164.827 Y121.237 E5.81858
G1 X165.135 Y121.248 E5.83042
G1 X165.627 Y121.29 E5.84939
G1 X165.96 Y121.338 E5.86231
G1 X166.327 Y121.409 E5.87667
G1 X166.607 Y121.477 E5.88774
G1 X167.009 Y121.594 E5.90383
G1 X167.292 Y121.691 E5.91532
G1 X167.69 Y121.852 E5.93181
G1 X168.025 Y122.009 E5.94603
G1 X168.337 Y122.173 E5.95957
G1 X168.641 Y122.353 E5.97314
G1 X168.968 Y122.57 E5.98821
G1 X169.171 Y122.718 E5.99786
G1 X169.469 Y122.955 E6.01249
G1 X169.722 Y123.175 E6.02537
G1 X170.05 Y123.497 E6.04303
G1 X170.296 Y123.765 E6.057
G1 X170.469 Y123.973 E6.0674
G1 X170.748 Y124.341 E6.08514
G1 X170.929 Y124.609 E6.09756
G1 X171.128 Y124.937 E6.1123
G1 X171.307 Y125.267 E6.12672
G1 X171.416 Y125.492 E6.13632
G1 X171.593 Y125.907 E6.15366
G1 X171.717 Y126.251 E6.1677
G1 X171.821 Y126.589 E6.18129
G1 X171.911 Y126.94 E6.19521
G1 X171.983 Y127.287 E6.20882
G1 X172.038 Y127.645 E6.22274
G1 X172.075 Y127.999 E6.23641
G1 X172.098 Y128.419 E6.25257
G1 X172.108 Y129.197 E6.28246
G1 X172.107 Y136.049 E6.54568
G1 X172.09 Y136.951 E6.58034
G1 X172.047 Y137.47 E6.60034
G1 X171.999 Y137.803 E6.61327
G1 X171.928 Y138.17 E6.62763
G1 X171.86 Y138.45 E6.6387
G1 X171.747 Y138.839 E6.65426
G1 X171.646 Y139.134 E6.66624
G1 X171.485 Y139.533 E6.68277
G1 X171.36 Y139.803 E6.6942
G1 X171.203 Y140.108 E6.70737
G1 X171.028 Y140.412 E6.72085
G1 X170.816 Y140.74 E6.73585
G1 X170.558 Y141.095 E6.75271
G1 X170.323 Y141.384 E6.76702
G1 X169.492 Y142.322 E6.81516
G1 X167.672 Y144.437 E6.92235
G1 X165.908 Y146.609 E7.02984
G1 X164.064 Y149.023 E7.14653
G1 X163.533 Y149.737 E7.18072
G1 X163.289 Y149.998 E7.19444
G1 X162.993 Y150.198 E7.20817
G1 X162.609 Y150.341 E7.22391
G1 X161.467 Y150.604 E7.26893
G1 X160.643 Y150.784 E7.30133
G1 X160.347 Y150.82 E7.31278
G1 X159.982 Y150.83 E7.32681
G1 X158.921 Y150.83 E7.36757
G1 X158.357 Y150.822 E7.38924
G1 X155.592 Y150.822 E7.49545
G1 X153.043 Y150.885 E7.59341
G1 X151.858 Y150.885 E7.63893
G1 X151.159 Y150.875 E7.66578
G1 X150.785 Y150.825 E7.68028
G1 X149.364 Y150.461 E7.73663
G1 X148.865 Y150.324 E7.75651
G1 X148.484 Y150.171 E7.77228
G1 X147.737 Y149.649 E7.80729
G1 X146.737 Y148.932 E7.85456
G1 X144.414 Y147.362 E7.96227
G1 X142.044 Y145.857 E8.07012
G1 X139.693 Y144.455 E8.17527
G1 X137.224 Y143.076 E8.28391
G1 X134.731 Y141.775 E8.39194
G1 X134.135 Y141.475 E8.41757
G1 X133.835 Y141.28 E8.43132
G1 X133.587 Y141.023 E8.44504
G1 X133.402 Y140.718 E8.45874
G1 X133.27 Y140.271 E8.47664
G1 X132.947 Y137.999 E8.5648
G1 X132.872 Y137.158 E8.59724
G1 X132.782 Y135.896 E8.64584
G1 X132.508 Y133.152 E8.75178
G1 X132.399 Y132.309 E8.78443
G1 X132.281 Y131.275 E8.82441
G1 X132.262 Y130.775 E8.84363
G1 X132.262 Y127.548 E8.9676
G1 X132.272 Y126.858 E8.99411
G1 X132.317 Y126.503 E9.00785
G1 X132.436 Y126.18 E9.02108
G0 F1080 X132.44 Y126.168
G0 X132.634 Y125.868
G0 X132.889 Y125.618
M204 S500
G0 F6000 X133.066 Y126.047
M204 S800
G1 F1200 X133.311 Y125.866 E9.03278
G1 X133.548 Y125.767 E9.04265
G1 X135.07 Y125.324 E9.10354
G1 X137.773 Y124.491 E9.2122
G1 X140.405 Y123.597 E9.31898
G1 X144.538 Y122.04 E9.48864
G1 X144.86 Y121.941 E9.50158
G1 X145.186 Y121.858 E9.51451
G1 X145.525 Y121.786 E9.52782
G1 X145.851 Y121.736 E9.54049
G1 X146.13 Y121.705 E9.55127
G1 X146.582 Y121.679 E9.56867
G1 X147.388 Y121.669 E9.59963
G1 X164.196 Y121.67 E10.24532
G1 X164.811 Y121.677 E10.26895
G1 X165.176 Y121.691 E10.28298
G1 X165.507 Y121.719 E10.29574
G1 X165.878 Y121.77 E10.31013
G1 X166.164 Y121.824 E10.32131
G1 X166.553 Y121.918 E10.33668
G1 X166.814 Y121.994 E10.34712
G1 X167.208 Y122.129 E10.36312
G1 X167.453 Y122.228 E10.37327
G1 X167.822 Y122.399 E10.3889
G1 X168.063 Y122.524 E10.39933
G1 X168.4 Y122.721 E10.41432
G1 X168.662 Y122.893 E10.42636
G1 X168.953 Y123.106 E10.44022
G1 X169.234 Y123.332 E10.45407
G1 X169.431 Y123.505 E10.46414
G1 X169.728 Y123.797 E10.48014
G1 X169.958 Y124.046 E10.49316
G1 X170.131 Y124.254 E10.50355
G1 X170.46 Y124.688 E10.52448
G1 X170.742 Y125.148 E10.5452
G1 X170.911 Y125.459 E10.5588
G1 X171.02 Y125.684 E10.56841
G1 X171.157 Y126.001 E10.58167
G1 X171.297 Y126.382 E10.59726
G1 X171.38 Y126.648 E10.60797
G1 X171.481 Y127.033 E10.62326
G1 X171.549 Y127.356 E10.63594
G1 X171.594 Y127.641 E10.64702
G1 X171.631 Y127.962 E10.65944
G1 X171.658 Y128.425 E10.67725
G1 X171.668 Y129.197 E10.70691
G1 X171.667 Y136.041 E10.96983
G1 X171.65 Y136.943 E11.00448
G1 X171.618 Y137.35 E11.02017
G1 X171.567 Y137.721 E11.03455
G1 X171.513 Y138.007 E11.04574
G1 X171.432 Y138.346 E11.05912
G1 X171.33 Y138.697 E11.07317
G1 X171.208 Y139.051 E11.08755
G1 X171.109 Y139.296 E11.0977
G1 X170.937 Y139.667 E11.11341
G1 X170.813 Y139.905 E11.12372
G1 X170.648 Y140.191 E11.1364
G1 X170.448 Y140.5 E11.15054
G1 X170.249 Y140.775 E11.16358
G1 X170.028 Y141.051 E11.17717
G1 X169.173 Y142.018 E11.22675
G1 X167.328 Y144.162 E11.33541
G1 X165.588 Y146.304 E11.44143
G1 X163.702 Y148.772 E11.56075
G1 X163.18 Y149.474 E11.59436
G1 X162.968 Y149.692 E11.60604
G1 X162.656 Y149.878 E11.61999
G1 X161.374 Y150.174 E11.67054
G1 X160.44 Y150.378 E11.70726
G1 X160.015 Y150.39 E11.7236
G1 X158.928 Y150.39 E11.76535
G1 X158.364 Y150.382 E11.78702
G1 X155.581 Y150.382 E11.89393
G1 X153.032 Y150.445 E11.99188
G1 X151.864 Y150.445 E12.03675
G1 X151.165 Y150.435 E12.06361
G1 X150.894 Y150.399 E12.07411
G1 X149.481 Y150.037 E12.13014
G1 X148.982 Y149.9 E12.15002
G1 X148.626 Y149.733 E12.16513
G1 X147.993 Y149.292 E12.19476
G1 X146.957 Y148.549 E12.24374
G1 X144.667 Y147.001 E12.34992
G1 X142.288 Y145.49 E12.45819
G1 X139.907 Y144.071 E12.56467
G1 X137.438 Y142.692 E12.67331
G1 X134.928 Y141.382 E12.78207
G1 X134.332 Y141.082 E12.80771
G1 X134.081 Y140.911 E12.81937
G1 X133.883 Y140.681 E12.83103
G1 X133.727 Y140.357 E12.84485
G1 X133.375 Y137.874 E12.94119
G1 X133.311 Y137.127 E12.96999
G1 X133.22 Y135.844 E13.0194
G1 X132.941 Y133.063 E13.12677
G1 X132.836 Y132.26 E13.15788
G1 X132.718 Y131.226 E13.19786
G1 X132.702 Y130.808 E13.21393
G1 X132.702 Y127.554 E13.33893
G1 X132.712 Y126.864 E13.36544
G1 X132.739 Y126.682 E13.37251
G0 F1080 X132.756 Y126.563
G0 X132.877 Y126.285
G0 X133.066 Y126.047
M204 S500
G0 F6000 X133.313 Y126.427
M204 S800
G1 F1200 X133.539 Y126.228 E13.38408
G1 X135.2 Y125.745 E13.45053
G1 X137.883 Y124.918 E13.55838
G1 X140.553 Y124.011 E13.66671
G1 X144.63 Y122.473 E13.8341
G1 X144.97 Y122.367 E13.84778
G1 X145.28 Y122.287 E13.86008
G1 X145.551 Y122.228 E13.87074
G1 X145.899 Y122.173 E13.88427
G1 X146.178 Y122.142 E13.89505
G1 X146.588 Y122.119 E13.91083
G1 X147.388 Y122.109 E13.94156
G1 X164.191 Y122.11 E14.58706
G1 X164.796 Y122.116 E14.6103
G1 X165.104 Y122.127 E14.62214
G1 X165.507 Y122.162 E14.63768
G1 X165.797 Y122.203 E14.64893
G1 X166.119 Y122.264 E14.66152
G1 X166.399 Y122.332 E14.67259
G1 X166.723 Y122.427 E14.68556
G1 X167.043 Y122.537 E14.69856
G1 X167.288 Y122.636 E14.70871
G1 X167.62 Y122.79 E14.72277
G1 X167.861 Y122.915 E14.7332
G1 X168.158 Y123.089 E14.74642
G1 X168.449 Y123.281 E14.75982
G1 X168.678 Y123.449 E14.77073
G1 X168.944 Y123.663 E14.78384
G1 X169.141 Y123.836 E14.79391
G1 X169.406 Y124.097 E14.8082
G1 X169.62 Y124.328 E14.8203
G1 X169.813 Y124.561 E14.83192
G1 X170.022 Y124.838 E14.84525
G1 X170.179 Y125.069 E14.85598
G1 X170.339 Y125.33 E14.86774
G1 X170.515 Y125.651 E14.8818
G1 X170.638 Y125.906 E14.89268
G1 X170.753 Y126.174 E14.90388
G1 X170.866 Y126.48 E14.91641
G1 X170.97 Y126.812 E14.92978
G1 X171.051 Y127.125 E14.9422
G1 X171.107 Y127.385 E14.95242
G1 X171.164 Y127.742 E14.9663
G1 X171.194 Y128.011 E14.9767
G1 X171.218 Y128.43 E14.99282
G1 X171.228 Y129.197 E15.02229
G1 X171.227 Y136.033 E15.2849
G1 X171.21 Y136.935 E15.31956
G1 X171.175 Y137.35 E15.33556
G1 X171.134 Y137.64 E15.34681
G1 X171.073 Y137.962 E15.3594
G1 X170.997 Y138.272 E15.37166
G1 X170.925 Y138.521 E15.38162
G1 X170.8 Y138.886 E15.39644
G1 X170.701 Y139.131 E15.40659
G1 X170.547 Y139.464 E15.42068
G1 X170.423 Y139.702 E15.43099
G1 X170.248 Y140.002 E15.44433
G1 X170.059 Y140.29 E15.45757
G1 X169.873 Y140.543 E15.46963
G1 X169.686 Y140.775 E15.48108
G1 X168.84 Y141.731 E15.53012
G1 X166.995 Y143.875 E15.63878
G1 X165.225 Y146.054 E15.74662
G1 X163.358 Y148.498 E15.86477
G1 X162.827 Y149.212 E15.89895
G1 X162.654 Y149.377 E15.90814
G1 X162.411 Y149.484 E15.91834
G1 X161.28 Y149.744 E15.96292
G1 X160.386 Y149.939 E15.99807
G1 X160.002 Y149.95 E16.01282
G1 X158.934 Y149.95 E16.05385
G1 X158.37 Y149.942 E16.07552
G1 X155.57 Y149.942 E16.18308
G1 X153.021 Y150.005 E16.28104
G1 X151.871 Y150.005 E16.32521
G1 X151.088 Y149.994 E16.3553
G1 X149.597 Y149.612 E16.41442
G1 X149.098 Y149.475 E16.4343
G1 X148.877 Y149.372 E16.44367
G1 X148.249 Y148.934 E16.47308
G1 X147.23 Y148.203 E16.52126
G1 X144.886 Y146.619 E16.62994
G1 X142.516 Y145.114 E16.73779
G1 X140.122 Y143.687 E16.84485
G1 X137.653 Y142.308 E16.95349
G1 X135.126 Y140.989 E17.06299
G1 X134.53 Y140.689 E17.08863
G1 X134.337 Y140.548 E17.09781
G1 X134.202 Y140.351 E17.10698
G1 X134.141 Y140.147 E17.11516
G1 X133.818 Y137.875 E17.20332
G1 X133.75 Y137.096 E17.23336
G1 X133.659 Y135.813 E17.28277
G1 X133.381 Y133.039 E17.38987
G1 X133.274 Y132.21 E17.42198
G1 X133.151 Y131.114 E17.46435
G1 X133.142 Y130.795 E17.47661
G1 X133.142 Y127.561 E17.60084
G1 X133.149 Y127.12 E17.61779
G0 F1080 X133.152 Y126.871
G0 X133.195 Y126.635
G0 X133.313 Y126.427
M204 S500
G1 F2400 E16.81779
G1 F300 Z0.7
G0 F6000 X135.944 Y138.859 Z0.7
M204 S800
G1 F300 Z0.2
G1 F2400 E17.61779
G1 F1200 X138.001 Y138.857 E17.69681
G1 X138.028 Y138.953 E17.70064
G1 X136.018 Y138.953 E17.77785
G0 F1080 X135.944 Y138.953
G0 X135.944 Y138.859
M204 S500
G0 F6000 X135.504 Y138.419
M204 S800
G1 F1200 X138.336 Y138.417 E17.88664
G1 X138.517 Y139.072 E17.91275
G1 X138.685 Y139.393 E17.92667
G1 X135.504 Y139.393 E18.04887
G1 X135.504 Y138.803 E18.07153
G0 F1080 X135.504 Y138.419
M204 S500
G0 F6000 X135.064 Y138.092
M204 S800
G1 F1200 X135.018 Y137.98 E18.07618
G1 X138.671 Y137.976 E18.21652
G1 X138.941 Y138.955 E18.25553
G1 X139.055 Y139.088 E18.26226
G1 X139.066 Y139.207 E18.26685
G1 X139.308 Y139.833 E18.29263
G1 X135.064 Y139.833 E18.45567
G1 X135.064 Y138.819 E18.49462
G0 F1080 X135.064 Y138.092
M204 S500
G1 F2400 E17.69462
G1 F300 Z0.7
G0 F6000 X134.742 Y135.252 Z0.7
M204 S800
G1 F300 Z0.2
G1 F2400 E18.49462
G1 F1200 X134.742 Y135.077 E18.50134
G1 X135.512 Y135.077 E18.53092
G1 X135.512 Y135.162 E18.53419
G1 X134.907 Y135.162 E18.55743
G1 X134.837 Y135.184 E18.56025
G0 F1080 X134.782 Y135.201
G0 X134.742 Y135.252
M204 S500
G1 F2400 E17.76025
G1 F300 Z0.7
G0 F6000 X134.082 Y130.885 Z0.7
M204 S800
G1 F300 Z0.2
G1 F2400 E18.56025
G1 F1200 X134.082 Y127.093 E18.70592
G1 X134.687 Y127.093 E18.72916
G1 X134.687 Y130.023 E18.84172
G1 X134.726 Y130.148 E18.84675
G1 X134.847 Y130.243 E18.85266
G1 X136.172 Y130.244 E18.90356
G1 X136.172 Y130.885 E18.92818
G1 X134.665 Y130.885 E18.98607
G0 F1080 X134.082 Y130.885
M204 S500
G1 F2400 E18.18607
G1 F300 Z0.7
G0 F6000 X143.847 Y130.759 Z0.7
M204 S800
G1 F300 Z0.2
G1 F2400 E18.98607
G1 F1200 X144.577 Y130.759 E19.01412
G1 X144.577 Y134.419 E19.15472
G1 X143.847 Y134.419 E19.18276
G1 X143.847 Y131.355 E19.30047
G0 F1080 X143.847 Y130.759
M204 S500
G1 F2400 E18.50047
G1 F300 Z0.7
G0 F6000 X152.166 Y144.709 Z0.7
M204 S800
G1 F300 Z0.2
G1 F2400 E19.30047
G1 F1200 X153.438 Y144.704 E19.34933
G1 X153.302 Y144.862 E19.35734
