;FLAVOR:Marlin
;TIME:4084
;Filament used: 3.39994m
;Layer height: 0.2
;MINX:108.904
;MINY:102.66
;MINZ:0.2
;MAXX:177.682
;MAXY:155.438
;MAXZ:18.7
;Generated with Cura_SteamEngine 5.2.2
M140 S100
M105
M190 S100
M104 S250
M105
M109 S250
M82 ;absolute extrusion mode
G28; Fahr zum Nullpunkt
G29; Probe Time
G92 E0; setze den Extruder auf Null
M 501; Daten aus EEProm lesen
M 420 S1; Bettnivelierung Aktivieren
G1 Z2.0 F3000; Druckkopf 2mm nach oben fahren
G1 X10.1 Y20 Z0.28 F5000.0; Fahre an die Startposition X10.1 Y20 Z0.28
G1 X10.1 Y200.0 Z0.28 F1500.0 E15; Ziehe eine Linie von der Startposition aus nach Y200
G1 X10.4 Y200.0 Z0.28 F5000.0; Bissl zur Seite bewegen
G1 X10.4 Y20 Z0.28 F1500.0 E30; eine 2. Linie nach vorne ziehen
G92 E0; setze den Extruder auf Null
G1 Z1.0 F3000; Fahr die Düse 2mm nach oben
G92 E0
G92 E0
G1 F2400 E-0.8
;LAYER_COUNT:91
;LAYER:0
M107
M204 S500
M205 X8 Y8
G1 F300 Z0.7
G0 F6000 X111.227 Y105.257 Z0.7
M204 S800
;TYPE:SKIRT
G1 F300 Z0.2
G1 F2400 E0
G1 F1200 X111.512 Y104.973 E0.01623
G1 X111.77 Y104.738 E0.03031
G1 X112.062 Y104.494 E0.04565
G1 X112.341 Y104.281 E0.05981
G1 X112.652 Y104.065 E0.07509
G1 X112.945 Y103.879 E0.08909
G1 X113.269 Y103.691 E0.1042
G1 X113.58 Y103.529 E0.11834
G1 X113.928 Y103.367 E0.13382
G1 X114.249 Y103.234 E0.14784
G1 X114.621 Y103.1 E0.16379
G1 X114.954 Y102.996 E0.17786
G1 X115.31 Y102.901 E0.19272
G1 X115.652 Y102.825 E0.20685
G1 X116.041 Y102.756 E0.22279
G1 X116.389 Y102.711 E0.23694
G1 X116.759 Y102.679 E0.25192
G1 X117.293 Y102.66 E0.27348
G1 X169.292 Y102.66 E2.37092
G1 X169.844 Y102.681 E2.3932
G1 X170.223 Y102.714 E2.40855
G1 X170.569 Y102.76 E2.42263
G1 X170.94 Y102.826 E2.43782
G1 X171.283 Y102.902 E2.452
G1 X171.654 Y103.001 E2.46748
G1 X171.987 Y103.106 E2.48157
G1 X172.362 Y103.244 E2.49769
G1 X172.682 Y103.378 E2.51168
G1 X173.02 Y103.536 E2.52673
G1 X173.33 Y103.698 E2.54084
G1 X173.656 Y103.887 E2.55604
G1 X173.951 Y104.075 E2.57015
G1 X174.28 Y104.306 E2.58636
G1 X174.555 Y104.519 E2.60039
G1 X174.836 Y104.757 E2.61525
G1 X175.094 Y104.994 E2.62938
G1 X175.359 Y105.259 E2.64449
G1 X175.593 Y105.514 E2.65845
G1 X175.854 Y105.826 E2.67486
G1 X176.066 Y106.105 E2.689
G1 X176.271 Y106.399 E2.70345
G1 X176.458 Y106.692 E2.71747
G1 X176.651 Y107.025 E2.733
G1 X176.813 Y107.336 E2.74714
G1 X176.975 Y107.684 E2.76263
G1 X177.108 Y108.005 E2.77664
G1 X177.242 Y108.377 E2.79259
G1 X177.346 Y108.71 E2.80666
G1 X177.441 Y109.063 E2.82141
G1 X177.517 Y109.404 E2.8355
G1 X177.586 Y109.795 E2.85152
G1 X177.631 Y110.142 E2.86563
G1 X177.663 Y110.514 E2.88069
G1 X177.682 Y111.049 E2.90228
G1 X177.682 Y147.048 E4.35435
G1 X177.662 Y147.6 E4.37663
G1 X177.628 Y147.98 E4.39202
G1 X177.582 Y148.326 E4.4061
G1 X177.515 Y148.7 E4.42142
G1 X177.439 Y149.042 E4.43555
G1 X177.342 Y149.406 E4.45075
G1 X177.238 Y149.737 E4.46474
G1 X177.099 Y150.118 E4.4811
G1 X176.964 Y150.44 E4.49519
G1 X176.806 Y150.776 E4.51016
G1 X176.644 Y151.086 E4.52427
G1 X176.452 Y151.417 E4.53971
G1 X176.264 Y151.711 E4.55378
G1 X176.041 Y152.028 E4.56941
G1 X175.828 Y152.304 E4.58348
G1 X175.585 Y152.592 E4.59868
G1 X175.348 Y152.85 E4.61281
G1 X175.083 Y153.115 E4.62792
G1 X174.828 Y153.349 E4.64188
G1 X174.524 Y153.604 E4.65789
G1 X174.245 Y153.817 E4.67205
G1 X173.934 Y154.033 E4.68732
G1 X173.641 Y154.219 E4.70132
G1 X173.312 Y154.409 E4.71665
G1 X173 Y154.571 E4.73083
G1 X172.661 Y154.729 E4.74591
G1 X172.341 Y154.862 E4.75989
G1 X171.965 Y154.998 E4.77602
G1 X171.632 Y155.102 E4.79009
G1 X171.273 Y155.198 E4.80508
G1 X170.93 Y155.274 E4.81925
G1 X170.544 Y155.342 E4.83506
G1 X170.196 Y155.387 E4.84921
G1 X169.826 Y155.419 E4.86419
G1 X169.293 Y155.438 E4.88571
G1 X117.294 Y155.438 E6.98315
G1 X116.742 Y155.418 E7.00543
G1 X116.362 Y155.384 E7.02082
G1 X116.016 Y155.338 E7.0349
G1 X115.642 Y155.271 E7.05022
G1 X115.3 Y155.195 E7.06436
G1 X114.932 Y155.097 E7.07972
G1 X114.599 Y154.992 E7.0938
G1 X114.228 Y154.856 E7.10974
G1 X113.907 Y154.722 E7.12377
G1 X113.561 Y154.559 E7.1392
G1 X113.25 Y154.396 E7.15336
G1 X112.926 Y154.209 E7.16845
G1 X112.633 Y154.022 E7.18247
G1 X112.306 Y153.792 E7.1986
G1 X112.031 Y153.579 E7.21263
G1 X111.756 Y153.347 E7.22714
G1 X111.497 Y153.11 E7.2413
G1 X111.22 Y152.833 E7.2571
G1 X110.986 Y152.577 E7.27109
G1 X110.737 Y152.279 E7.28676
G1 X110.524 Y152 E7.30091
G1 X110.304 Y151.684 E7.31644
G1 X110.118 Y151.39 E7.33048
G1 X109.932 Y151.066 E7.34555
G1 X109.771 Y150.756 E7.35964
G1 X109.614 Y150.419 E7.37463
G1 X109.48 Y150.097 E7.3887
G1 X109.341 Y149.715 E7.4051
G1 X109.238 Y149.384 E7.41908
G1 X109.145 Y149.032 E7.43377
G1 X109.069 Y148.69 E7.4479
G1 X109 Y148.301 E7.46383
G1 X108.955 Y147.953 E7.47799
G1 X108.923 Y147.583 E7.49297
G1 X108.904 Y147.049 E7.51452
G1 X108.904 Y111.05 E8.96658
G1 X108.924 Y110.498 E8.98886
G1 X108.958 Y110.118 E9.00425
G1 X109.004 Y109.772 E9.01833
G1 X109.071 Y109.398 E9.03366
G1 X109.147 Y109.056 E9.04779
G1 X109.244 Y108.692 E9.06299
G1 X109.348 Y108.361 E9.07698
G1 X109.485 Y107.984 E9.09316
G1 X109.62 Y107.661 E9.10728
G1 X109.783 Y107.316 E9.12267
G1 X109.945 Y107.007 E9.13674
G1 X110.129 Y106.689 E9.15156
G1 X110.316 Y106.395 E9.16562
G1 X110.546 Y106.068 E9.18174
G1 X110.76 Y105.791 E9.19586
G1 X110.771 Y105.778 E9.19655
G0 F1080 X110.993 Y105.513
G0 X111.227 Y105.257
M204 S500
G0 F6000 X111.568 Y105.569
M204 S800
G1 F1200 X111.823 Y105.315 E9.21107
G1 X112.081 Y105.08 E9.22514
G1 X112.342 Y104.862 E9.23886
G1 X112.621 Y104.649 E9.25302
G1 X112.899 Y104.455 E9.26669
G1 X113.192 Y104.269 E9.28069
G1 X113.483 Y104.101 E9.29425
G1 X113.794 Y103.939 E9.30839
G1 X114.105 Y103.794 E9.32223
G1 X114.426 Y103.661 E9.33625
G1 X114.758 Y103.541 E9.35049
G1 X115.091 Y103.437 E9.36456
G1 X115.41 Y103.352 E9.37787
G1 X115.752 Y103.276 E9.39201
G1 X116.1 Y103.214 E9.40626
G1 X116.448 Y103.169 E9.42042
G1 X116.779 Y103.141 E9.43382
G1 X117.293 Y103.122 E9.45456
G1 X169.292 Y103.122 E11.55201
G1 X169.823 Y103.142 E11.57344
G1 X170.163 Y103.172 E11.58721
G1 X170.509 Y103.218 E11.60129
G1 X170.841 Y103.277 E11.61489
G1 X171.184 Y103.353 E11.62906
G1 X171.515 Y103.442 E11.64289
G1 X171.848 Y103.547 E11.65697
G1 X172.184 Y103.67 E11.6714
G1 X172.504 Y103.804 E11.6854
G1 X172.806 Y103.946 E11.69886
G1 X173.116 Y104.108 E11.71297
G1 X173.407 Y104.276 E11.72652
G1 X173.702 Y104.464 E11.74063
G1 X173.997 Y104.671 E11.75517
G1 X174.272 Y104.884 E11.7692
G1 X174.524 Y105.097 E11.78251
G1 X174.782 Y105.334 E11.79664
G1 X175.018 Y105.571 E11.81013
G1 X175.252 Y105.826 E11.82409
G1 X175.486 Y106.105 E11.83878
G1 X175.698 Y106.384 E11.85291
G1 X175.881 Y106.647 E11.86583
G1 X176.068 Y106.94 E11.87985
G1 X176.241 Y107.239 E11.89379
G1 X176.403 Y107.55 E11.90793
G1 X176.548 Y107.861 E11.92177
G1 X176.681 Y108.182 E11.93579
G1 X176.801 Y108.514 E11.95003
G1 X176.905 Y108.847 E11.9641
G1 X176.99 Y109.164 E11.97734
G1 X177.066 Y109.505 E11.99143
G1 X177.127 Y109.854 E12.00572
G1 X177.172 Y110.201 E12.01984
G1 X177.201 Y110.534 E12.03332
G1 X177.22 Y111.049 E12.05411
G1 X177.22 Y147.048 E13.50617
G1 X177.2 Y147.579 E13.5276
G1 X177.17 Y147.92 E13.54141
G1 X177.124 Y148.266 E13.55549
G1 X177.064 Y148.6 E13.56918
G1 X176.988 Y148.942 E13.58331
G1 X176.901 Y149.267 E13.59688
G1 X176.797 Y149.598 E13.61087
G1 X176.673 Y149.939 E13.62551
G1 X176.538 Y150.261 E13.63959
G1 X176.396 Y150.562 E13.65302
G1 X176.234 Y150.872 E13.66713
G1 X176.062 Y151.169 E13.68097
G1 X175.874 Y151.463 E13.69505
G1 X175.675 Y151.746 E13.709
G1 X175.462 Y152.022 E13.72306
G1 X175.245 Y152.28 E13.73666
G1 X175.008 Y152.538 E13.75079
G1 X174.771 Y152.774 E13.76428
G1 X174.516 Y153.008 E13.77825
G1 X174.244 Y153.236 E13.79256
G1 X173.965 Y153.449 E13.80672
G1 X173.687 Y153.643 E13.82039
G1 X173.394 Y153.829 E13.83439
G1 X173.099 Y153.999 E13.84813
G1 X172.787 Y154.161 E13.86231
G1 X172.484 Y154.302 E13.87579
G1 X172.164 Y154.435 E13.88976
G1 X171.828 Y154.557 E13.90418
G1 X171.495 Y154.661 E13.91826
G1 X171.174 Y154.747 E13.93166
G1 X170.831 Y154.823 E13.94583
G1 X170.485 Y154.884 E13.96
G1 X170.137 Y154.929 E13.97416
G1 X169.806 Y154.957 E13.98756
G1 X169.293 Y154.976 E14.00826
G1 X117.294 Y154.976 E16.10571
G1 X116.763 Y154.956 E16.12714
G1 X116.422 Y154.926 E16.14095
G1 X116.076 Y154.88 E16.15503
G1 X115.742 Y154.82 E16.16871
G1 X115.4 Y154.744 E16.18285
G1 X115.071 Y154.656 E16.19658
G1 X114.738 Y154.551 E16.21067
G1 X114.406 Y154.43 E16.22492
G1 X114.085 Y154.296 E16.23895
G1 X113.775 Y154.15 E16.25277
G1 X113.464 Y153.987 E16.26694
G1 X113.174 Y153.819 E16.28045
G1 X112.881 Y153.632 E16.29447
G1 X112.589 Y153.427 E16.30887
G1 X112.314 Y153.214 E16.3229
G1 X112.068 Y153.006 E16.33589
G1 X111.809 Y152.769 E16.35005
G1 X111.561 Y152.521 E16.3642
G1 X111.327 Y152.265 E16.37819
G1 X111.105 Y151.999 E16.39216
G1 X110.892 Y151.72 E16.40632
G1 X110.694 Y151.437 E16.42025
G1 X110.508 Y151.143 E16.43429
G1 X110.342 Y150.853 E16.44776
G1 X110.181 Y150.543 E16.46185
G1 X110.04 Y150.242 E16.47526
G1 X109.906 Y149.92 E16.48933
G1 X109.782 Y149.578 E16.504
G1 X109.679 Y149.247 E16.51799
G1 X109.596 Y148.932 E16.53113
G1 X109.52 Y148.59 E16.54526
G1 X109.458 Y148.242 E16.55952
G1 X109.413 Y147.894 E16.57367
G1 X109.385 Y147.563 E16.58707
G1 X109.366 Y147.049 E16.60782
G1 X109.366 Y111.05 E18.05988
G1 X109.386 Y110.519 E18.08131
G1 X109.416 Y110.178 E18.09512
G1 X109.462 Y109.832 E18.1092
G1 X109.522 Y109.498 E18.12289
G1 X109.598 Y109.156 E18.13702
G1 X109.685 Y108.831 E18.15059
G1 X109.789 Y108.5 E18.16458
G1 X109.912 Y108.163 E18.17906
G1 X110.047 Y107.84 E18.19318
G1 X110.192 Y107.531 E18.20694
G1 X110.354 Y107.222 E18.22102
G1 X110.518 Y106.937 E18.23428
G1 X110.705 Y106.643 E18.24833
G1 X110.911 Y106.35 E18.26278
G1 X111.112 Y106.09 E18.27604
G0 F1080 X111.125 Y106.073
G0 X111.334 Y105.825
G0 X111.568 Y105.569
M204 S500
G0 F6000 X111.909 Y105.88
M204 S800
G1 F1200 X112.134 Y105.656 E18.28884
G1 X112.392 Y105.421 E18.30292
G1 X112.622 Y105.229 E18.31501
G1 X112.901 Y105.016 E18.32916
G1 X113.147 Y104.845 E18.34125
G1 X113.44 Y104.659 E18.35525
G1 X113.696 Y104.511 E18.36718
G1 X114.007 Y104.349 E18.38132
G1 X114.282 Y104.221 E18.39355
G1 X114.603 Y104.088 E18.40757
G1 X114.896 Y103.982 E18.42014
G1 X115.229 Y103.878 E18.43421
G1 X115.51 Y103.803 E18.44594
G1 X115.852 Y103.727 E18.46007
G1 X116.16 Y103.673 E18.47269
G1 X116.508 Y103.628 E18.48684
G1 X116.8 Y103.602 E18.49866
G1 X117.293 Y103.584 E18.51856
G1 X169.292 Y103.584 E20.61601
G1 X169.802 Y103.604 E20.63659
G1 X170.102 Y103.63 E20.64874
G1 X170.448 Y103.676 E20.66282
G1 X170.741 Y103.728 E20.67482
G1 X171.084 Y103.804 E20.68899
G1 X171.376 Y103.882 E20.70119
G1 X171.709 Y103.987 E20.71527
G1 X172.005 Y104.096 E20.72799
G1 X172.325 Y104.23 E20.74199
G1 X172.592 Y104.355 E20.75388
G1 X172.902 Y104.517 E20.76799
G1 X173.159 Y104.666 E20.77997
G1 X173.454 Y104.854 E20.79408
G1 X173.714 Y105.037 E20.8069
G1 X173.989 Y105.25 E20.82093
G1 X174.211 Y105.437 E20.83264
G1 X174.469 Y105.674 E20.84677
G1 X174.678 Y105.883 E20.8587
G1 X174.912 Y106.138 E20.87266
G1 X175.118 Y106.385 E20.88563
G1 X175.33 Y106.664 E20.89976
G1 X175.492 Y106.896 E20.91118
G1 X175.679 Y107.189 E20.9252
G1 X175.831 Y107.452 E20.93745
G1 X175.993 Y107.763 E20.95159
G1 X176.121 Y108.038 E20.96383
G1 X176.254 Y108.359 E20.97784
G1 X176.36 Y108.652 E20.99041
G1 X176.464 Y108.985 E21.00448
G1 X176.539 Y109.264 E21.01614
G1 X176.615 Y109.605 E21.03023
G1 X176.669 Y109.913 E21.04284
G1 X176.714 Y110.26 E21.05696
G1 X176.74 Y110.555 E21.0689
G1 X176.758 Y111.049 E21.08884
G1 X176.758 Y147.048 E22.54091
G1 X176.738 Y147.558 E22.56149
G1 X176.712 Y147.859 E22.57368
G1 X176.666 Y148.205 E22.58776
G1 X176.613 Y148.5 E22.59985
G1 X176.537 Y148.842 E22.61398
G1 X176.461 Y149.129 E22.62596
G1 X176.357 Y149.46 E22.63995
G1 X176.247 Y149.761 E22.65288
G1 X176.112 Y150.083 E22.66696
G1 X175.987 Y150.348 E22.67878
G1 X175.825 Y150.658 E22.69289
G1 X175.673 Y150.92 E22.70511
G1 X175.485 Y151.214 E22.71918
G1 X175.309 Y151.464 E22.73151
G1 X175.096 Y151.74 E22.74558
G1 X174.905 Y151.967 E22.75754
G1 X174.668 Y152.225 E22.77167
G1 X174.459 Y152.434 E22.7836
G1 X174.204 Y152.668 E22.79756
G1 X173.964 Y152.869 E22.81018
G1 X173.685 Y153.082 E22.82434
G1 X173.439 Y153.253 E22.83643
G1 X173.146 Y153.439 E22.85043
G1 X172.886 Y153.589 E22.86253
G1 X172.574 Y153.751 E22.87671
G1 X172.307 Y153.876 E22.8886
G1 X171.987 Y154.009 E22.90258
G1 X171.69 Y154.116 E22.91532
G1 X171.357 Y154.22 E22.92939
G1 X171.074 Y154.296 E22.94121
G1 X170.731 Y154.372 E22.95538
G1 X170.425 Y154.425 E22.96791
G1 X170.077 Y154.47 E22.98206
G1 X169.786 Y154.496 E22.99384
G1 X169.293 Y154.514 E23.01374
G1 X117.294 Y154.514 E25.11119
G1 X116.784 Y154.494 E25.13177
G1 X116.483 Y154.468 E25.14396
G1 X116.137 Y154.422 E25.15804
G1 X115.842 Y154.369 E25.17013
G1 X115.5 Y154.293 E25.18426
G1 X115.21 Y154.216 E25.19636
G1 X114.877 Y154.111 E25.21045
G1 X114.584 Y154.004 E25.22303
G1 X114.263 Y153.87 E25.23706
G1 X113.989 Y153.741 E25.24928
G1 X113.678 Y153.578 E25.26344
G1 X113.423 Y153.43 E25.27533
G1 X113.13 Y153.243 E25.28935
G1 X112.872 Y153.061 E25.30209
G1 X112.597 Y152.848 E25.31612
G1 X112.38 Y152.665 E25.32757
G1 X112.121 Y152.428 E25.34173
G1 X111.902 Y152.21 E25.35419
G1 X111.668 Y151.954 E25.36818
G1 X111.472 Y151.719 E25.38053
G1 X111.259 Y151.44 E25.39468
G1 X111.085 Y151.19 E25.40697
G1 X110.899 Y150.896 E25.421
G1 X110.752 Y150.64 E25.43291
G1 X110.591 Y150.33 E25.447
G1 X110.467 Y150.064 E25.45884
G1 X110.333 Y149.742 E25.47291
G1 X110.223 Y149.441 E25.48583
G1 X110.12 Y149.11 E25.49982
G1 X110.047 Y148.832 E25.51141
G1 X109.971 Y148.49 E25.52554
G1 X109.917 Y148.182 E25.53815
G1 X109.872 Y147.834 E25.55231
G1 X109.846 Y147.542 E25.56413
G1 X109.828 Y147.049 E25.58403
G1 X109.828 Y111.05 E27.0361
G1 X109.848 Y110.54 E27.05668
G1 X109.874 Y110.239 E27.06887
G1 X109.92 Y109.893 E27.08295
G1 X109.973 Y109.598 E27.09504
G1 X110.049 Y109.256 E27.10917
G1 X110.125 Y108.969 E27.12115
G1 X110.229 Y108.638 E27.13514
G1 X110.338 Y108.341 E27.1479
G1 X110.473 Y108.018 E27.16202
G1 X110.601 Y107.745 E27.17418
G1 X110.763 Y107.436 E27.18826
G1 X110.908 Y107.185 E27.19995
G1 X111.095 Y106.891 E27.214
G1 X111.277 Y106.633 E27.22674
G1 X111.455 Y106.403 E27.23847
G0 F1080 X111.491 Y106.356
G0 X111.675 Y106.136
G0 X111.909 Y105.88
M204 S500
G0 F6000 X112.25 Y106.192
M204 S800
G1 F1200 X112.445 Y105.998 E27.24957
G1 X112.703 Y105.763 E27.26364
G1 X112.903 Y105.596 E27.27415
G1 X113.182 Y105.383 E27.28831
G1 X113.395 Y105.235 E27.29877
G1 X113.688 Y105.049 E27.31277
G1 X113.91 Y104.921 E27.32311
G1 X114.221 Y104.759 E27.33725
G1 X114.459 Y104.648 E27.34785
G1 X114.78 Y104.515 E27.36186
G1 X115.034 Y104.423 E27.37276
G1 X115.367 Y104.319 E27.38683
G1 X115.611 Y104.254 E27.39701
G1 X115.953 Y104.178 E27.41115
G1 X116.219 Y104.131 E27.42204
G1 X116.567 Y104.086 E27.4362
G1 X116.82 Y104.064 E27.44644
G1 X117.293 Y104.046 E27.46553
G1 X169.292 Y104.046 E29.56298
G1 X169.781 Y104.065 E29.58271
G1 X170.041 Y104.088 E29.59324
G1 X170.387 Y104.134 E29.60732
G1 X170.641 Y104.179 E29.61773
G1 X170.984 Y104.255 E29.6319
G1 X171.237 Y104.323 E29.64247
G1 X171.57 Y104.428 E29.65655
G1 X171.827 Y104.522 E29.66759
G1 X172.147 Y104.656 E29.68158
G1 X172.378 Y104.765 E29.69188
G1 X172.688 Y104.927 E29.70599
G1 X172.911 Y105.056 E29.71638
G1 X173.206 Y105.244 E29.73049
G1 X173.431 Y105.402 E29.74158
G1 X173.706 Y105.615 E29.75561
G1 X173.899 Y105.777 E29.76578
G1 X174.157 Y106.014 E29.77991
G1 X174.338 Y106.196 E29.79026
G1 X174.572 Y106.451 E29.80422
G1 X174.75 Y106.664 E29.81542
G1 X175.035 Y107.039 E29.83442
G1 X175.289 Y107.437 E29.85346
G1 X175.421 Y107.666 E29.86412
G1 X175.583 Y107.977 E29.87827
G1 X175.694 Y108.215 E29.88886
G1 X175.827 Y108.536 E29.90288
G1 X175.919 Y108.79 E29.91377
G1 X176.023 Y109.123 E29.92785
G1 X176.088 Y109.365 E29.93795
G1 X176.164 Y109.706 E29.95205
G1 X176.211 Y109.973 E29.96298
G1 X176.256 Y110.32 E29.97709
G1 X176.278 Y110.575 E29.98742
G1 X176.296 Y111.049 E30.00655
G1 X176.296 Y147.048 E31.45862
G1 X176.277 Y147.538 E31.4784
G1 X176.254 Y147.798 E31.48892
G1 X176.208 Y148.144 E31.503
