;FLAVOR:Marlin
;TIME:1230
;Filament used: 0.817314m
;Layer height: 0.2
;MINX:137.757
;MINY:99.588
;MINZ:0.2
;MAXX:159.816
;MAXY:128.984
;MAXZ:13
;Generated with Cura_SteamEngine 5.2.2
M140 S100
M105
M190 S100
M104 S250
M105
M109 S250
M82 ;absolute extrusion mode
G28; Fahr zum Nullpunkt
G29; Probe Time
G92 E0; setze den Extruder auf Null
M 501; Daten aus EEProm lesen
M 420 S1; Bettnivelierung Aktivieren
G1 Z2.0 F3000; Druckkopf 2mm nach oben fahren
G1 X10.1 Y20 Z0.28 F5000.0; Fahre an die Startposition X10.1 Y20 Z0.28
G1 X10.1 Y200.0 Z0.28 F1500.0 E15; Ziehe eine Linie von der Startposition aus nach Y200
G1 X10.4 Y200.0 Z0.28 F5000.0; Bissl zur Seite bewegen
G1 X10.4 Y20 Z0.28 F1500.0 E30; eine 2. Linie nach vorne ziehen
G92 E0; setze den Extruder auf Null
G1 Z1.0 F3000; Fahr die Düse 2mm nach oben
G92 E0
G92 E0
G1 F2400 E-0.8
;LAYER_COUNT:65
;LAYER:0
M107
M204 S500
M205 X8 Y8
G1 F300 Z0.7
G0 F6000 X139.523 Y103.209 Z0.7
M204 S800
;TYPE:SKIRT
G1 F300 Z0.2
G1 F2400 E0
G1 F1200 X139.884 Y102.739 E0.0239
G1 X140.305 Y102.323 E0.04778
G1 X140.965 Y101.851 E0.08051
G1 X141.262 Y101.678 E0.09437
G1 X141.686 Y101.461 E0.11358
G1 X142.014 Y101.315 E0.12807
G1 X142.772 Y101.058 E0.16035
G1 X143.009 Y101.001 E0.17018
G1 X143.199 Y100.793 E0.18155
G1 X143.655 Y100.415 E0.20544
G1 X144.157 Y100.102 E0.2293
G1 X144.697 Y99.858 E0.2532
G1 X145.265 Y99.69 E0.27709
G1 X145.851 Y99.6 E0.30101
G1 X146.443 Y99.589 E0.32489
G1 X147.115 Y99.684 E0.35227
G1 X150.446 Y99.684 E0.48663
G1 X150.939 Y99.603 E0.50678
G1 X151.531 Y99.588 E0.53066
G1 X152.12 Y99.652 E0.55456
G1 X152.695 Y99.795 E0.57846
G1 X153.245 Y100.014 E0.60234
G1 X153.761 Y100.305 E0.62624
G1 X154.233 Y100.662 E0.65011
G1 X154.577 Y101.006 E0.66973
G1 X155.222 Y101.188 E0.69676
G1 X155.541 Y101.31 E0.71054
G1 X156.02 Y101.527 E0.73175
G1 X156.331 Y101.691 E0.74593
G1 X156.835 Y102.002 E0.76982
G1 X157.293 Y102.378 E0.79372
G1 X157.869 Y103.042 E0.82918
G1 X158.068 Y103.324 E0.8431
G1 X158.52 Y103.909 E0.87292
G1 X158.85 Y104.401 E0.89682
G1 X158.998 Y104.681 E0.90959
G1 X159.176 Y105.049 E0.92608
G1 X159.373 Y105.525 E0.94686
G1 X159.465 Y105.791 E0.95821
G1 X159.566 Y106.125 E0.97229
G1 X159.629 Y106.368 E0.98241
G1 X159.725 Y106.846 E1.00208
G1 X159.772 Y107.174 E1.01545
G1 X159.816 Y107.798 E1.04068
G1 X159.815 Y116.003 E1.37164
G1 X159.771 Y116.624 E1.39675
G1 X159.716 Y117.008 E1.4124
G1 X159.543 Y117.749 E1.44309
G1 X159.43 Y118.095 E1.45777
G1 X159.128 Y118.802 E1.48878
G1 X158.729 Y119.548 E1.5229
G1 X158.415 Y120.05 E1.54679
G1 X158.037 Y120.506 E1.57068
G1 X157.6 Y120.906 E1.59458
G1 X156.975 Y121.315 E1.6247
G1 X156.865 Y121.563 E1.63565
G1 X156.341 Y122.623 E1.68334
G1 X156.339 Y123.751 E1.72884
G1 X156.298 Y124.342 E1.75274
G1 X156.178 Y124.922 E1.77663
G1 X155.981 Y125.48 E1.8005
G1 X155.795 Y125.859 E1.81753
G1 X155.604 Y126.206 E1.8335
G1 X155.284 Y126.705 E1.85741
G1 X154.9 Y127.156 E1.88131
G1 X154.459 Y127.55 E1.90516
G1 X153.968 Y127.882 E1.92907
G1 X153.374 Y128.171 E1.95571
G1 X152.982 Y128.326 E1.97272
G1 X152.713 Y128.443 E1.98455
G1 X152.143 Y128.604 E2.00844
G1 X151.784 Y128.665 E2.02313
G1 X150.097 Y128.877 E2.09171
G1 X149.762 Y128.906 E2.10527
G1 X148.151 Y128.984 E2.17033
G1 X147.559 Y128.973 E2.19422
G1 X146.974 Y128.882 E2.2181
G1 X146.665 Y128.8 E2.23099
G1 X146.322 Y128.696 E2.24545
G1 X145.828 Y128.635 E2.26553
G1 X145.275 Y128.515 E2.28835
G1 X144.884 Y128.411 E2.30467
G1 X144.504 Y128.291 E2.32074
G1 X143.953 Y128.075 E2.34462
G1 X143.436 Y127.787 E2.36849
G1 X142.962 Y127.432 E2.39237
G1 X142.54 Y127.016 E2.41628
G1 X142.178 Y126.547 E2.44017
G1 X142.015 Y126.282 E2.45272
G1 X141.814 Y125.93 E2.46907
G1 X141.555 Y125.397 E2.49298
G1 X141.371 Y124.835 E2.51683
G1 X141.264 Y124.252 E2.54074
G1 X141.236 Y123.764 E2.56045
G1 X141.233 Y122.627 E2.60632
G1 X140.736 Y121.682 E2.64939
G1 X140.563 Y121.292 E2.66659
G1 X140.285 Y121.124 E2.6797
G1 X139.824 Y120.753 E2.70357
G1 X139.418 Y120.322 E2.72745
G1 X139.117 Y119.911 E2.748
G1 X138.661 Y119.205 E2.7819
G1 X138.374 Y118.687 E2.80579
G1 X138.182 Y118.205 E2.82671
G1 X138.009 Y117.683 E2.8489
G1 X137.861 Y117.109 E2.87281
G1 X137.799 Y116.641 E2.89185
G1 X137.77 Y116.267 E2.90698
G1 X137.757 Y115.927 E2.9207
G1 X137.759 Y107.871 E3.24565
G1 X137.779 Y107.458 E3.26233
G1 X137.811 Y107.12 E3.27602
G1 X137.928 Y106.445 E3.30366
G1 X138.013 Y106.113 E3.31748
G1 X138.163 Y105.622 E3.33819
G1 X138.375 Y105.103 E3.3608
G1 X138.515 Y104.806 E3.37405
G1 X138.834 Y104.242 E3.40018
G1 X139.139 Y103.785 E3.42235
G0 F1080 X139.523 Y103.209
M204 S500
G0 F6000 X139.907 Y103.465
M204 S800
G1 F1200 X140.25 Y103.022 E3.44494
G1 X140.653 Y102.633 E3.46754
G1 X141.197 Y102.251 E3.49435
G1 X141.494 Y102.078 E3.50821
G1 X141.874 Y101.883 E3.52544
G1 X142.202 Y101.737 E3.53992
G1 X142.88 Y101.507 E3.5688
G1 X143.244 Y101.419 E3.58391
G1 X143.653 Y101.006 E3.60735
G1 X144.101 Y100.67 E3.62994
G1 X144.593 Y100.401 E3.65256
G1 X145.117 Y100.205 E3.67513
G1 X145.665 Y100.086 E3.69775
G1 X146.223 Y100.046 E3.72031
G1 X146.782 Y100.086 E3.74292
G1 X147.1 Y100.146 E3.75597
G1 X150.479 Y100.146 E3.89227
G1 X151.013 Y100.061 E3.91408
G1 X151.573 Y100.052 E3.93667
G1 X152.128 Y100.124 E3.95924
G1 X152.668 Y100.273 E3.98184
G1 X153.181 Y100.498 E4.00443
G1 X153.657 Y100.794 E4.02704
G1 X154.086 Y101.155 E4.04966
G1 X154.32 Y101.416 E4.0638
G1 X155.057 Y101.619 E4.09463
G1 X155.376 Y101.741 E4.10841
G1 X155.805 Y101.935 E4.1274
G1 X156.116 Y102.099 E4.14158
G1 X156.591 Y102.395 E4.16416
G1 X157.02 Y102.756 E4.18677
G1 X157.492 Y103.308 E4.21607
G1 X157.695 Y103.596 E4.23028
G1 X158.155 Y104.191 E4.26062
G1 X158.582 Y104.882 E4.29338
G1 X158.76 Y105.25 E4.30987
G1 X158.936 Y105.676 E4.32846
G1 X159.028 Y105.942 E4.33982
G1 X159.118 Y106.24 E4.35237
G1 X159.181 Y106.483 E4.3625
G1 X159.267 Y106.912 E4.38015
G1 X159.314 Y107.24 E4.39351
G1 X159.354 Y107.797 E4.41604
G1 X159.353 Y116.002 E4.747
G1 X159.313 Y116.559 E4.76952
G1 X159.258 Y116.943 E4.78517
G1 X159.104 Y117.605 E4.81258
G1 X158.991 Y117.951 E4.82727
G1 X158.721 Y118.584 E4.85502
G1 X158.322 Y119.33 E4.88915
G1 X158.023 Y119.804 E4.91175
G1 X157.66 Y120.23 E4.93433
G1 X157.24 Y120.601 E4.95693
G1 X156.581 Y121.021 E4.98846
G1 X156.451 Y121.358 E5.00302
G1 X155.879 Y122.514 E5.05505
G1 X155.877 Y123.75 E5.1049
G1 X155.836 Y124.309 E5.12751
G1 X155.716 Y124.856 E5.1501
G1 X155.519 Y125.381 E5.17272
G1 X155.39 Y125.637 E5.18428
G1 X155.199 Y125.984 E5.20026
G1 X154.895 Y126.454 E5.22284
G1 X154.527 Y126.876 E5.24542
G1 X154.102 Y127.241 E5.26802
G1 X153.63 Y127.543 E5.29062
G1 X153.204 Y127.742 E5.30959
G1 X152.792 Y127.905 E5.32746
G1 X152.529 Y128.018 E5.33901
G1 X151.727 Y128.206 E5.37223
G1 X150.04 Y128.418 E5.44082
G1 X149.74 Y128.444 E5.45296
G1 X148.129 Y128.522 E5.51802
G1 X147.569 Y128.51 E5.54061
G1 X146.799 Y128.358 E5.57227
G1 X146.428 Y128.246 E5.5879
G1 X145.926 Y128.184 E5.60831
G1 X145.373 Y128.064 E5.63113
G1 X145.023 Y127.971 E5.64574
G1 X144.643 Y127.851 E5.66181
G1 X144.123 Y127.644 E5.68439
G1 X143.637 Y127.366 E5.70697
G1 X143.195 Y127.021 E5.72959
G1 X142.807 Y126.617 E5.75218
G1 X142.416 Y126.053 E5.77986
G1 X142.215 Y125.701 E5.79621
G1 X141.972 Y125.196 E5.81882
G1 X141.804 Y124.662 E5.8414
G1 X141.714 Y124.109 E5.864
G1 X141.698 Y123.763 E5.87797
G1 X141.695 Y122.513 E5.92839
G1 X141.145 Y121.467 E5.97606
G1 X140.929 Y120.974 E5.99777
G1 X140.526 Y120.729 E6.01679
G1 X140.094 Y120.372 E6.0394
G1 X139.717 Y119.957 E6.06202
G1 X139.505 Y119.661 E6.0767
G1 X139.049 Y118.955 E6.1106
G1 X138.78 Y118.464 E6.13318
G1 X138.62 Y118.059 E6.15075
G1 X138.447 Y117.537 E6.17293
G1 X138.31 Y116.994 E6.19552
G1 X138.26 Y116.606 E6.2113
G1 X138.231 Y116.232 E6.22643
G1 X138.219 Y115.927 E6.23874
G1 X138.221 Y107.871 E6.56369
G1 X138.238 Y107.502 E6.57859
G1 X138.27 Y107.164 E6.59229
G1 X138.376 Y106.56 E6.61702
G1 X138.461 Y106.228 E6.63085
G1 X138.597 Y105.777 E6.64985
G1 X138.793 Y105.3 E6.67065
G1 X138.933 Y105.003 E6.68389
G1 X139.218 Y104.498 E6.70728
G1 X139.523 Y104.041 E6.72944
G0 F1080 X139.907 Y103.465
M204 S500
G0 F6000 X140.291 Y103.721
M204 S800
G1 F1200 X140.616 Y103.307 E6.75067
G1 X140.999 Y102.947 E6.77188
G1 X141.43 Y102.65 E6.79299
G1 X141.727 Y102.477 E6.80685
G1 X142.062 Y102.305 E6.82204
G1 X142.39 Y102.159 E6.83652
G1 X142.988 Y101.956 E6.862
G1 X143.515 Y101.829 E6.88386
G1 X143.713 Y101.586 E6.89651
G1 X144.104 Y101.233 E6.91775
G1 X144.543 Y100.944 E6.93895
G1 X145.021 Y100.724 E6.96018
G1 X145.527 Y100.579 E6.98141
G1 X146.049 Y100.512 E7.00264
G1 X146.574 Y100.526 E7.02382
G1 X147.055 Y100.608 E7.0435
G1 X150.521 Y100.608 E7.18331
G1 X151.084 Y100.518 E7.20631
G1 X151.61 Y100.518 E7.22752
G1 X152.131 Y100.597 E7.24878
G1 X152.633 Y100.754 E7.27
G1 X153.105 Y100.985 E7.29119
G1 X153.538 Y101.285 E7.31244
G1 X153.919 Y101.647 E7.33364
G1 X154.068 Y101.839 E7.34344
G1 X154.287 Y101.88 E7.35243
G1 X154.892 Y102.051 E7.37779
G1 X155.211 Y102.173 E7.39156
G1 X155.589 Y102.344 E7.4083
G1 X155.9 Y102.508 E7.42248
G1 X156.346 Y102.788 E7.44372
G1 X156.744 Y103.132 E7.46494
G1 X157.115 Y103.574 E7.48822
G1 X157.341 Y103.894 E7.50402
G1 X157.789 Y104.474 E7.53358
G1 X158.166 Y105.083 E7.56247
G1 X158.344 Y105.451 E7.57896
G1 X158.5 Y105.827 E7.59538
G1 X158.592 Y106.093 E7.60673
G1 X158.671 Y106.356 E7.61781
G1 X158.734 Y106.599 E7.62794
G1 X158.81 Y106.978 E7.64353
G1 X158.857 Y107.306 E7.65689
G1 X158.892 Y107.797 E7.67675
G1 X158.891 Y116.002 E8.00771
G1 X158.856 Y116.493 E8.02756
G1 X158.801 Y116.877 E8.04321
G1 X158.665 Y117.462 E8.06744
G1 X158.552 Y117.808 E8.08212
G1 X158.313 Y118.366 E8.1066
G1 X157.914 Y119.112 E8.14073
G1 X157.632 Y119.556 E8.16194
G1 X157.285 Y119.952 E8.18318
G1 X156.883 Y120.291 E8.20439
G1 X156.47 Y120.546 E8.22397
G1 X156.237 Y120.669 E8.2346
G1 X156.037 Y121.154 E8.25576
G1 X155.418 Y122.407 E8.31213
G1 X155.415 Y123.749 E8.36626
G1 X155.374 Y124.274 E8.38751
G1 X155.254 Y124.786 E8.40872
G1 X154.986 Y125.414 E8.43626
G1 X154.795 Y125.761 E8.45224
G1 X154.507 Y126.201 E8.47345
G1 X154.155 Y126.593 E8.4947
G1 X153.749 Y126.927 E8.5159
G1 X153.296 Y127.195 E8.53713
G1 X153.034 Y127.312 E8.54871
G1 X152.347 Y127.592 E8.57863
G1 X151.669 Y127.748 E8.6067
G1 X149.982 Y127.96 E8.67528
G1 X149.718 Y127.983 E8.68597
G1 X148.107 Y128.061 E8.75102
G1 X147.581 Y128.046 E8.77225
G1 X146.933 Y127.916 E8.79891
G1 X146.533 Y127.795 E8.81577
G1 X146.024 Y127.732 E8.83645
G1 X145.471 Y127.612 E8.85928
G1 X145.163 Y127.53 E8.87213
G1 X144.783 Y127.41 E8.88821
G1 X144.294 Y127.214 E8.90946
G1 X143.841 Y126.946 E8.93069
G1 X143.434 Y126.613 E8.9519
G1 X143.082 Y126.222 E8.97312
G1 X142.817 Y125.824 E8.99241
G1 X142.616 Y125.472 E9.00876
G1 X142.391 Y124.997 E9.02996
G1 X142.24 Y124.493 E9.05118
G1 X142.16 Y123.762 E9.08084
G1 X142.157 Y122.4 E9.13578
G1 X141.553 Y121.252 E9.18811
G1 X141.345 Y120.769 E9.20932
G1 X141.32 Y120.674 E9.21328
G1 X140.768 Y120.334 E9.23943
G1 X140.367 Y119.993 E9.26066
G1 X139.893 Y119.41 E9.29097
G1 X139.437 Y118.704 E9.32487
G1 X139.186 Y118.242 E9.34608
G1 X139.059 Y117.914 E9.36027
G1 X138.886 Y117.392 E9.38245
G1 X138.759 Y116.882 E9.40365
G1 X138.72 Y116.57 E9.41633
G1 X138.691 Y116.196 E9.43146
G1 X138.681 Y115.927 E9.44232
G1 X138.683 Y107.871 E9.76727
G1 X138.698 Y107.545 E9.78043
G1 X138.73 Y107.207 E9.79413
G1 X138.823 Y106.675 E9.81591
G1 X138.908 Y106.343 E9.82973
G1 X139.033 Y105.928 E9.84722
G1 X139.211 Y105.497 E9.86603
G1 X139.351 Y105.2 E9.87927
G1 X139.602 Y104.754 E9.89991
G1 X139.907 Y104.297 E9.92208
G0 F1080 X140.291 Y103.721
M204 S500
G0 F6000 X140.676 Y103.978
M204 S800
G1 F1200 X140.98 Y103.594 E9.94183
G1 X141.342 Y103.264 E9.96159
G1 X141.663 Y103.049 E9.97717
G1 X141.96 Y102.876 E9.99104
G1 X142.25 Y102.728 E10.00417
G1 X142.578 Y102.582 E10.01865
G1 X143.096 Y102.405 E10.04073
G1 X143.47 Y102.315 E10.05625
G1 X143.765 Y102.264 E10.06832
G1 X143.84 Y102.148 E10.0739
G1 X144.168 Y101.785 E10.09363
G1 X144.551 Y101.48 E10.11338
G1 X144.979 Y101.241 E10.13315
G1 X145.439 Y101.075 E10.15288
G1 X145.921 Y100.985 E10.17266
G1 X146.411 Y100.976 E10.19242
G1 X146.907 Y101.048 E10.21264
G1 X147.001 Y101.07 E10.21653
G1 X150.575 Y101.07 E10.3607
G1 X150.669 Y101.048 E10.36459
G1 X151.154 Y100.976 E10.38437
G1 X151.643 Y100.984 E10.40409
G1 X152.125 Y101.072 E10.42386
G1 X152.587 Y101.236 E10.44363
G1 X153.015 Y101.473 E10.46337
G1 X153.399 Y101.777 E10.48312
G1 X153.729 Y102.139 E10.50288
G1 X153.81 Y102.264 E10.50889
G1 X154.203 Y102.335 E10.525
G1 X154.727 Y102.482 E10.54695
G1 X155.046 Y102.604 E10.56073
G1 X155.374 Y102.753 E10.57526
G1 X155.685 Y102.917 E10.58944
G1 X156.098 Y103.18 E10.60919
G1 X156.463 Y103.506 E10.62893
G1 X156.737 Y103.841 E10.64639
G1 X156.959 Y104.155 E10.6619
G1 X157.423 Y104.756 E10.69252
G1 X157.75 Y105.284 E10.71757
G1 X157.928 Y105.652 E10.73406
G1 X158.063 Y105.978 E10.7483
G1 X158.155 Y106.244 E10.75965
G1 X158.287 Y106.715 E10.77938
G1 X158.353 Y107.043 E10.79287
G1 X158.4 Y107.371 E10.80624
G1 X158.43 Y107.797 E10.82347
G1 X158.429 Y116.002 E11.15442
G1 X158.399 Y116.428 E11.17165
G1 X158.344 Y116.812 E11.1873
G1 X158.226 Y117.318 E11.20826
G1 X158.113 Y117.664 E11.22294
G1 X157.906 Y118.148 E11.24417
G1 X157.507 Y118.894 E11.27829
G1 X157.242 Y119.306 E11.29805
G1 X156.913 Y119.669 E11.31782
G1 X156.529 Y119.974 E11.3376
G1 X156.255 Y120.137 E11.35046
G1 X155.831 Y120.36 E11.36978
G1 X155.623 Y120.949 E11.39498
G1 X154.956 Y122.299 E11.45571
G1 X154.953 Y123.749 E11.5142
G1 X154.912 Y124.237 E11.53395
G1 X154.793 Y124.712 E11.55371
G1 X154.581 Y125.191 E11.57483
G1 X154.39 Y125.538 E11.59081
G1 X154.119 Y125.946 E11.61057
G1 X153.786 Y126.305 E11.63032
G1 X153.399 Y126.605 E11.65007
G1 X152.864 Y126.882 E11.67437
G1 X152.167 Y127.165 E11.70471
G1 X151.611 Y127.29 E11.7277
G1 X149.822 Y127.515 E11.80043
G1 X148.084 Y127.599 E11.87062
G1 X147.595 Y127.583 E11.89035
G1 X147.068 Y127.474 E11.91206
G1 X146.644 Y127.345 E11.92994
G1 X146.122 Y127.281 E11.95115
G1 X145.569 Y127.161 E11.97397
G1 X145.302 Y127.09 E11.98512
G1 X144.922 Y126.97 E12.00119
G1 X144.468 Y126.785 E12.02097
G1 X144.051 Y126.528 E12.04073
G1 X143.681 Y126.208 E12.06046
G1 X143.368 Y125.831 E12.08022
G1 X143.218 Y125.595 E12.0915
G1 X143.017 Y125.243 E12.10785
G1 X142.81 Y124.799 E12.12761
G1 X142.677 Y124.328 E12.14735
G1 X142.622 Y123.761 E12.17033
G1 X142.619 Y122.285 E12.22987
G1 X141.962 Y121.037 E12.28676
G1 X141.77 Y120.587 E12.30649
G1 X141.711 Y120.346 E12.3165
G1 X141.427 Y120.199 E12.3294
G1 X141.012 Y119.94 E12.34913
G1 X140.644 Y119.616 E12.36891
G1 X140.281 Y119.159 E12.39245
G1 X139.825 Y118.453 E12.42635
G1 X139.594 Y118.022 E12.44607
G1 X139.497 Y117.769 E12.457
G1 X139.324 Y117.247 E12.47918
G1 X139.181 Y116.534 E12.50852
G1 X139.143 Y116.044 E12.52834
G1 X139.145 Y107.871 E12.85801
G1 X139.158 Y107.589 E12.8694
G1 X139.19 Y107.251 E12.88309
G1 X139.271 Y106.789 E12.90201
G1 X139.356 Y106.457 E12.91583
G1 X139.469 Y106.082 E12.93163
G1 X139.629 Y105.694 E12.94856
G1 X139.769 Y105.397 E12.96181
G1 X139.987 Y105.011 E12.97969
G1 X140.292 Y104.554 E13.00185
G0 F1080 X140.676 Y103.978
M204 S500
G0 F6000 X141.06 Y104.234
M204 S800
G1 F1200 X141.342 Y103.883 E13.02001
G1 X141.682 Y103.587 E13.03819
G1 X141.895 Y103.448 E13.04845
G1 X142.192 Y103.275 E13.06232
G1 X142.438 Y103.15 E13.07345
G1 X142.766 Y103.004 E13.08793
G1 X143.205 Y102.855 E13.10663
G1 X143.579 Y102.765 E13.12214
G1 X144.037 Y102.685 E13.1409
G1 X144.298 Y102.317 E13.1591
G1 X144.621 Y102.003 E13.17727
G1 X144.994 Y101.75 E13.19545
G1 X145.406 Y101.568 E13.21361
G1 X145.843 Y101.461 E13.23176
G1 X146.293 Y101.433 E13.24995
G1 X146.802 Y101.498 E13.27065
G1 X146.948 Y101.532 E13.27669
G1 X150.628 Y101.532 E13.42513
G1 X150.774 Y101.498 E13.43118
G1 X151.22 Y101.435 E13.44935
G1 X151.67 Y101.452 E13.46751
G1 X152.11 Y101.548 E13.48568
G1 X152.527 Y101.72 E13.50387
G1 X152.906 Y101.963 E13.52203
G1 X153.236 Y102.269 E13.54018
G1 X153.547 Y102.683 E13.56107
G1 X154.118 Y102.789 E13.58449
G1 X154.562 Y102.914 E13.6031
G1 X154.881 Y103.036 E13.61688
G1 X155.158 Y103.161 E13.62913
